;FLAVOR:Marlin
;TIME:1093
;Filament used: 0.293386m
;Layer height: 0.2
;MINX:94.315
;MINY:94.316
;MINZ:0.2
;MAXX:125.674
;MAXY:125.686
;MAXZ:17
;Generated with Cura_SteamEngine 5.3.0
M140 S50
M105
M190 S50
M104 S200
M105
M109 S200
M82 ;absolute extrusion mode
M201 X500.00 Y500.00 Z100.00 E5000.00 ;Setup machine max acceleration
M203 X500.00 Y500.00 Z10.00 E50.00 ;Setup machine max feedrate
M204 P500.00 R1000.00 T500.00 ;Setup Print/Retract/Travel acceleration
M205 X8.00 Y8.00 Z0.40 E5.00 ;Setup Jerk
M220 S100 ;Reset Feedrate
M221 S100 ;Reset Flowrate

G28 ;Home

G92 E0 ;Reset Extruder
G1 Z2.0 F3000 ;Move Z Axis up
G1 X10.1 Y20 Z0.28 F5000.0 ;Move to start position
G1 X10.1 Y200.0 Z0.28 F1500.0 E15 ;Draw the first line
G1 X10.4 Y200.0 Z0.28 F5000.0 ;Move to side a little
G1 X10.4 Y20 Z0.28 F1500.0 E30 ;Draw the second line
G92 E0 ;Reset Extruder
G1 Z2.0 F3000 ;Move Z Axis up

G92 E0
G92 E0
G1 F2700 E-5
;LAYER_COUNT:85
;LAYER:0
M107
G0 F6000 X99.646 Y99.305 Z0.2
;TYPE:SKIRT
G1 F2700 E0
G1 F1200 X100.156 Y98.837 E0.02302
G1 X100.453 Y98.58 E0.03609
G1 X101.439 Y97.826 E0.07737
G1 X101.966 Y97.472 E0.09849
G1 X102.916 Y96.906 E0.13527
G1 X103.505 Y96.607 E0.15724
G1 X103.878 Y96.431 E0.17095
G1 X105.083 Y95.954 E0.21406
G1 X105.761 Y95.734 E0.23776
G1 X106.631 Y95.494 E0.26778
G1 X107.254 Y95.371 E0.2889
G1 X107.911 Y95.263 E0.31105
G1 X108.808 Y95.156 E0.34109
G1 X109.303 Y95.131 E0.35758
G1 X109.885 Y95.116 E0.37694
G1 X110.953 Y95.145 E0.41248
G1 X111.571 Y95.199 E0.43311
G1 X111.934 Y95.24 E0.44526
G1 X113.051 Y95.43 E0.48295
G1 X113.653 Y95.572 E0.50352
G1 X114.023 Y95.669 E0.51624
G1 X114.939 Y95.956 E0.54817
G1 X115.582 Y96.202 E0.57107
G1 X115.928 Y96.346 E0.58353
G1 X117.07 Y96.907 E0.62585
G1 X117.686 Y97.259 E0.64945
G1 X118.449 Y97.741 E0.67946
G1 X118.91 Y98.081 E0.69851
G1 X119.443 Y98.498 E0.72102
G1 X120.129 Y99.086 E0.75107
G1 X120.537 Y99.49 E0.77017
G1 X120.977 Y99.951 E0.79137
G1 X121.741 Y100.85 E0.83061
G1 X121.913 Y101.078 E0.84011
G1 X122.321 Y101.649 E0.86345
G1 X122.882 Y102.538 E0.89841
G1 X123.211 Y103.145 E0.92138
G1 X123.395 Y103.509 E0.93494
G1 X123.826 Y104.485 E0.97043
G1 X124.053 Y105.099 E0.9922
G1 X124.165 Y105.427 E1.00373
G1 X124.445 Y106.405 E1.03756
G1 X124.576 Y106.993 E1.0576
G1 X124.652 Y107.379 E1.07068
G1 X124.794 Y108.339 E1.10296
G1 X124.85 Y109.002 E1.12509
G1 X124.874 Y109.432 E1.13942
G1 X124.866 Y110.706 E1.18179
G1 X124.821 Y111.355 E1.20343
G1 X124.668 Y112.54 E1.24317
G1 X124.549 Y113.138 E1.26345
G1 X124.469 Y113.496 E1.27565
G1 X124.184 Y114.52 E1.311
G1 X123.982 Y115.104 E1.33155
G1 X123.843 Y115.475 E1.34473
G1 X123.31 Y116.66 E1.38795
G1 X123.01 Y117.228 E1.40931
G1 X122.554 Y118.007 E1.43933
G1 X122.262 Y118.433 E1.45651
G1 X121.873 Y118.972 E1.47862
G1 X121.159 Y119.854 E1.51636
G1 X120.701 Y120.346 E1.53872
G1 X120.424 Y120.627 E1.55184
G1 X119.623 Y121.357 E1.58789
G1 X119.138 Y121.747 E1.60859
G1 X118.861 Y121.959 E1.62019
G1 X117.815 Y122.662 E1.66211
G1 X117.212 Y123.015 E1.68535
G1 X116.413 Y123.436 E1.71539
G1 X115.902 Y123.66 E1.73394
G1 X115.28 Y123.913 E1.75628
G1 X114.031 Y124.33 E1.80007
G1 X113.457 Y124.476 E1.81977
G1 X113.075 Y124.564 E1.83281
G1 X111.784 Y124.775 E1.87632
G1 X111.144 Y124.838 E1.89771
G1 X109.986 Y124.886 E1.93626
G1 X109.345 Y124.868 E1.95759
G1 X108.933 Y124.846 E1.97131
G1 X107.65 Y124.696 E2.01427
G1 X107.024 Y124.582 E2.03543
G1 X105.924 Y124.318 E2.07306
G1 X105.363 Y124.143 E2.09261
G1 X104.979 Y124.013 E2.10609
G1 X103.774 Y123.517 E2.14943
G1 X103.129 Y123.202 E2.1733
G1 X102.336 Y122.771 E2.20332
G1 X101.815 Y122.435 E2.22394
G1 X101.332 Y122.102 E2.24346
G1 X100.312 Y121.298 E2.28665
G1 X99.828 Y120.864 E2.30828
G1 X98.986 Y120.015 E2.34805
G1 X98.578 Y119.542 E2.36882
G1 X98.319 Y119.226 E2.38241
G1 X97.664 Y118.331 E2.4193
G1 X97.304 Y117.766 E2.44158
G1 X97.117 Y117.455 E2.45365
G1 X96.548 Y116.365 E2.49455
G1 X96.288 Y115.784 E2.51572
G1 X95.956 Y114.945 E2.54573
G1 X95.8 Y114.454 E2.56286
G1 X95.624 Y113.846 E2.58392
G1 X95.412 Y112.968 E2.61396
G1 X95.323 Y112.445 E2.6316
G1 X95.222 Y111.734 E2.65549
G1 X95.125 Y110.579 E2.69404
G1 X95.115 Y109.891 E2.71692
G1 X95.12 Y109.558 E2.728
G1 X95.196 Y108.46 E2.76461
G1 X95.283 Y107.795 E2.78691
G1 X95.337 Y107.448 E2.79859
G1 X95.613 Y106.198 E2.84117
G1 X95.797 Y105.558 E2.86332
G1 X96.085 Y104.702 E2.89336
G1 X96.296 Y104.196 E2.91159
G1 X96.562 Y103.604 E2.93318
G1 X97.133 Y102.514 E2.97411
G1 X97.457 Y101.989 E2.99463
G1 X97.672 Y101.659 E3.00773
G1 X98.306 Y100.789 E3.04353
G1 X98.472 Y100.585 E3.05228
G1 X98.948 Y100.031 E3.07657
G1 X99.646 Y99.305 E3.11007
G0 F6000 X99.376 Y99.01
G1 F1200 X99.894 Y98.535 E3.13344
G1 X100.21 Y98.262 E3.14733
G1 X101.196 Y97.508 E3.18862
G1 X101.761 Y97.128 E3.21126
G1 X102.711 Y96.562 E3.24804
G1 X103.334 Y96.245 E3.27129
G1 X103.707 Y96.069 E3.28501
G1 X104.936 Y95.582 E3.32898
G1 X105.655 Y95.348 E3.35413
G1 X106.525 Y95.108 E3.38415
G1 X107.189 Y94.976 E3.40666
G1 X107.864 Y94.866 E3.42941
G1 X108.761 Y94.759 E3.45945
G1 X109.293 Y94.731 E3.47717
G1 X109.896 Y94.716 E3.49724
G1 X110.964 Y94.745 E3.53277
G1 X111.616 Y94.802 E3.55454
G1 X112.001 Y94.846 E3.56743
G1 X113.143 Y95.041 E3.60596
G1 X113.754 Y95.185 E3.62684
G1 X114.143 Y95.287 E3.64021
G1 X115.082 Y95.582 E3.67295
G1 X115.736 Y95.833 E3.69625
G1 X116.104 Y95.987 E3.70952
G1 X117.246 Y96.548 E3.75184
G1 X117.9 Y96.921 E3.77688
G1 X118.663 Y97.403 E3.8069
G1 X119.156 Y97.766 E3.82726
G1 X119.703 Y98.194 E3.85036
G1 X120.389 Y98.782 E3.88041
G1 X120.826 Y99.214 E3.90085
G1 X121.282 Y99.692 E3.92282
G1 X122.06 Y100.609 E3.96282
G1 X122.238 Y100.845 E3.97265
G1 X122.646 Y101.416 E3.99599
G1 X123.234 Y102.347 E4.03261
G1 X123.568 Y102.965 E4.05598
G1 X123.761 Y103.347 E4.07021
G1 X124.192 Y104.323 E4.1057
G1 X124.432 Y104.97 E4.12865
G1 X124.55 Y105.317 E4.14084
G1 X124.83 Y106.295 E4.17468
G1 X124.968 Y106.916 E4.19584
G1 X125.048 Y107.32 E4.20953
G1 X125.193 Y108.305 E4.24265
G1 X125.249 Y108.98 E4.26518
G1 X125.274 Y109.435 E4.28033
G1 X125.265 Y110.734 E4.32354
G1 X125.218 Y111.406 E4.34594
G1 X125.065 Y112.591 E4.38568
G1 X124.939 Y113.225 E4.40718
G1 X124.854 Y113.603 E4.42007
G1 X124.562 Y114.651 E4.45625
G1 X124.357 Y115.244 E4.47712
G1 X124.208 Y115.639 E4.49116
G1 X123.664 Y116.847 E4.53523
G1 X123.355 Y117.43 E4.55717
G1 X122.884 Y118.233 E4.58814
G1 X122.586 Y118.667 E4.60565
G1 X122.184 Y119.224 E4.62849
G1 X121.452 Y120.127 E4.66716
G1 X120.986 Y120.627 E4.68989
G1 X120.693 Y120.923 E4.70374
G1 X119.874 Y121.669 E4.74059
G1 X119.381 Y122.065 E4.76162
G1 X119.084 Y122.291 E4.77403
G1 X118.017 Y123.007 E4.81677
G1 X117.398 Y123.369 E4.84062
G1 X116.599 Y123.79 E4.87066
G1 X116.053 Y124.031 E4.89051
G1 X115.431 Y124.284 E4.91284
G1 X114.13 Y124.718 E4.95846
G1 X113.547 Y124.866 E4.97847
G1 X113.14 Y124.959 E4.99235
G1 X111.849 Y125.17 E5.03586
G1 X111.161 Y125.238 E5.05886
G1 X110.003 Y125.286 E5.0974
G1 X109.324 Y125.267 E5.12
G1 X108.887 Y125.243 E5.13455
G1 X107.578 Y125.09 E5.17839
G1 X106.952 Y124.976 E5.19955
G1 X105.805 Y124.7 E5.23879
G1 X105.235 Y124.522 E5.25865
G1 X104.827 Y124.383 E5.27299
G1 X103.622 Y123.887 E5.31633
G1 X102.938 Y123.553 E5.34164
G1 X102.119 Y123.107 E5.37266
G1 X101.588 Y122.764 E5.39369
G1 X101.084 Y122.416 E5.41406
G1 X100.045 Y121.596 E5.45808
G1 X99.544 Y121.146 E5.48048
G1 X98.702 Y120.297 E5.52025
G1 X98.269 Y119.796 E5.54227
G1 X97.996 Y119.462 E5.55662
G1 X97.341 Y118.567 E5.59351
G1 X96.961 Y117.972 E5.61699
G1 X96.762 Y117.64 E5.62986
G1 X96.193 Y116.55 E5.67076
G1 X95.916 Y115.931 E5.69331
G1 X95.584 Y115.092 E5.72333
G1 X95.416 Y114.565 E5.74172
G1 X95.235 Y113.94 E5.76336
G1 X95.023 Y113.062 E5.79341
G1 X94.927 Y112.501 E5.81234
G1 X94.823 Y111.767 E5.83699
G1 X94.726 Y110.612 E5.87554
G1 X94.715 Y109.885 E5.89973
G1 X94.721 Y109.53 E5.91154
G1 X94.799 Y108.408 E5.94894
G1 X94.888 Y107.733 E5.97159
G1 X94.946 Y107.362 E5.98408
G1 X95.222 Y106.112 E6.02665
G1 X95.418 Y105.43 E6.05026
G1 X95.706 Y104.574 E6.08029
G1 X95.931 Y104.032 E6.09981
G1 X96.208 Y103.418 E6.12222
G1 X96.779 Y102.328 E6.16314
G1 X97.122 Y101.771 E6.1849
G1 X97.349 Y101.423 E6.19872
G1 X97.983 Y100.553 E6.23452
G1 X98.169 Y100.324 E6.24434
G1 X98.66 Y99.754 E6.26936
G1 X99.376 Y99.01 E6.3037
G0 F6000 X99.106 Y98.715
G1 F1200 X99.633 Y98.232 E6.32748
G1 X99.967 Y97.944 E6.34215
G1 X100.953 Y97.19 E6.38343
G1 X101.556 Y96.784 E6.40761
G1 X102.506 Y96.218 E6.44439
G1 X103.163 Y95.883 E6.46892
G1 X103.536 Y95.707 E6.48264
G1 X104.789 Y95.21 E6.52747
G1 X105.549 Y94.962 E6.55406
G1 X106.419 Y94.722 E6.58408
G1 X107.125 Y94.581 E6.60802
G1 X107.817 Y94.469 E6.63134
G1 X108.714 Y94.362 E6.66138
G1 X109.283 Y94.331 E6.68034
G1 X109.907 Y94.316 E6.7011
G1 X110.975 Y94.345 E6.73663
G1 X111.661 Y94.405 E6.75953
G1 X112.068 Y94.452 E6.77316
G1 X113.235 Y94.652 E6.81254
G1 X113.855 Y94.798 E6.83373
G1 X114.263 Y94.905 E6.84776
G1 X115.202 Y95.2 E6.88049
G1 X115.89 Y95.464 E6.905
G1 X116.28 Y95.628 E6.91907
G1 X117.422 Y96.189 E6.96139
G1 X118.114 Y96.583 E6.98788
G1 X118.877 Y97.065 E7.0179
G1 X119.402 Y97.451 E7.03957
G1 X119.963 Y97.89 E7.06326
G1 X120.649 Y98.478 E7.09331
G1 X121.115 Y98.938 E7.11509
G1 X121.587 Y99.433 E7.13784
G1 X122.379 Y100.368 E7.1786
G1 X122.563 Y100.612 E7.18876
G1 X122.984 Y101.202 E7.21287
G1 X123.586 Y102.157 E7.25041
G1 X123.925 Y102.785 E7.27415
G1 X124.127 Y103.185 E7.28905
G1 X124.558 Y104.161 E7.32454
G1 X124.811 Y104.841 E7.34867
G1 X124.935 Y105.207 E7.36153
G1 X125.215 Y106.185 E7.39536
G1 X125.36 Y106.838 E7.41761
G1 X125.444 Y107.262 E7.43198
G1 X125.592 Y108.272 E7.46594
G1 X125.648 Y108.958 E7.48883
G1 X125.674 Y109.438 E7.50482
G1 X125.664 Y110.762 E7.54885
G1 X125.615 Y111.457 E7.57203
G1 X125.462 Y112.642 E7.61177
G1 X125.329 Y113.313 E7.63452
G1 X125.239 Y113.71 E7.64806
G1 X124.94 Y114.782 E7.68507
G1 X124.731 Y115.385 E7.7063
G1 X124.573 Y115.803 E7.72116
G1 X124.029 Y117.011 E7.76523
G1 X123.7 Y117.632 E7.7886
G1 X123.214 Y118.459 E7.82051
G1 X122.91 Y118.901 E7.83835
G1 X122.495 Y119.476 E7.86193
G1 X121.745 Y120.4 E7.90152
G1 X121.279 Y120.9 E7.92425
G1 X120.962 Y121.219 E7.93921
G1 X120.124 Y121.981 E7.97688
G1 X119.623 Y122.383 E7.99824
G1 X119.307 Y122.623 E8.01144
G1 X118.219 Y123.352 E8.055
G1 X117.584 Y123.723 E8.07946
G1 X116.761 Y124.156 E8.11039
G1 X116.204 Y124.402 E8.13064
G1 X115.582 Y124.655 E8.15298
G1 X114.228 Y125.106 E8.20044
G1 X113.636 Y125.256 E8.22076
G1 X113.205 Y125.354 E8.23546
G1 X111.914 Y125.565 E8.27897
G1 X111.178 Y125.638 E8.30357
G1 X110.02 Y125.686 E8.34211
G1 X109.302 Y125.666 E8.366
G1 X108.841 Y125.64 E8.38136
G1 X107.506 Y125.484 E8.42607
G1 X106.858 Y125.365 E8.44798
G1 X105.686 Y125.082 E8.48808
G1 X105.106 Y124.901 E8.50829
G1 X104.698 Y124.762 E8.52262
G1 X103.47 Y124.257 E8.56679
G1 X102.747 Y123.904 E8.59355
G1 X101.902 Y123.443 E8.62556
G1 X101.361 Y123.093 E8.64699
G1 X100.836 Y122.73 E8.66822
G1 X99.778 Y121.894 E8.71307
G1 X99.26 Y121.428 E8.73625
G1 X98.399 Y120.559 E8.77693
G1 X97.959 Y120.049 E8.79934
G1 X97.673 Y119.698 E8.8144
G1 X97.018 Y118.803 E8.85128
G1 X96.618 Y118.178 E8.87596
G1 X96.407 Y117.825 E8.88964
G1 X95.838 Y116.735 E8.93054
G1 X95.544 Y116.078 E8.95448
G1 X95.212 Y115.239 E8.98449
G1 X95.032 Y114.676 E9.00415
G1 X94.846 Y114.034 E9.02638
G1 X94.634 Y113.156 E9.05642
G1 X94.531 Y112.557 E9.07664
G1 X94.424 Y111.8 E9.10206
G1 X94.327 Y110.645 E9.14061
G1 X94.315 Y109.878 E9.16613
G1 X94.322 Y109.502 E9.17864
G1 X94.402 Y108.356 E9.21685
G1 X94.493 Y107.671 E9.23983
G1 X94.555 Y107.276 E9.25313
G1 X94.831 Y106.026 E9.2957
G1 X95.039 Y105.302 E9.32076
G1 X95.327 Y104.446 E9.3508
G1 X95.566 Y103.868 E9.3716
G1 X95.854 Y103.232 E9.39482
G1 X96.438 Y102.118 E9.43666
G1 X96.787 Y101.552 E9.45877
G1 X97.026 Y101.187 E9.47328
G1 X97.66 Y100.317 E9.50909
G1 X97.866 Y100.063 E9.51996
G1 X98.372 Y99.477 E9.54572
G1 X99.106 Y98.715 E9.58091
G1 F2700 E4.58091
;MESH:connector.stl
G0 F6000 X106.567 Y109.406
G0 X108.32 Y112.8
;TYPE:WALL-INNER
G1 F2700 E9.58091
G1 F1200 X108.099 Y112.699 E9.58899
G1 X107.625 Y112.293 E9.60975
G1 X107.232 Y111.8 E9.63072
G1 X106.954 Y111.273 E9.65053
G1 X106.764 Y110.665 E9.67172
G1 X106.696 Y110.051 E9.69227
G1 X106.743 Y109.465 E9.71182
G1 X106.904 Y108.856 E9.73277
G1 X107.178 Y108.286 E9.7538
G1 X107.527 Y107.814 E9.77333
G1 X107.978 Y107.391 E9.79389
G1 X108.519 Y107.049 E9.81518
G1 X109.066 Y106.833 E9.83474
G1 X109.688 Y106.712 E9.85582
G1 X110.315 Y106.715 E9.87667
G1 X110.891 Y106.819 E9.89614
G1 X111.517 Y107.066 E9.91852
G1 X112.016 Y107.383 E9.93819
G1 X112.445 Y107.78 E9.95763
G1 X112.829 Y108.29 E9.97886
G1 X113.095 Y108.848 E9.99942
G1 X113.25 Y109.421 E10.01916
G1 X113.301 Y110.091 E10.04151
G1 X113.234 Y110.67 E10.0609
G1 X113.062 Y111.236 E10.08057
G1 X112.77 Y111.805 E10.10184
G1 X112.382 Y112.288 E10.12245
G1 X111.939 Y112.673 E10.14197
G1 X111.773 Y112.765 E10.14828
G1 X111.556 Y112.801 E10.1556
G1 X108.32 Y112.8 E10.26323
G1 F2700 E5.26323
G0 F6000 X108.536 Y112.901
G0 X110.018 Y112.981
G0 X109.978 Y113.909
G0 X110.132 Y114.097
G1 F2700 E10.26323
G1 F1200 X110.696 Y114.039 E10.28209
G1 X111.246 Y113.904 E10.30092
G1 X111.762 Y113.698 E10.3194
G1 X112.316 Y113.379 E10.34067
G1 X112.764 Y113.024 E10.35968
G1 X113.148 Y112.624 E10.37812
G1 X113.484 Y112.156 E10.39728
G1 X113.75 Y111.654 E10.41618
G1 X113.943 Y111.118 E10.43513
G1 X114.056 Y110.577 E10.45351
G1 X114.097 Y110.001 E10.47271
G1 X114.056 Y109.421 E10.49205
G1 X113.943 Y108.882 E10.51037
G1 X113.751 Y108.347 E10.52927
G1 X113.497 Y107.867 E10.54734
G1 X113.147 Y107.375 E10.56742
G1 X112.763 Y106.975 E10.58586
G1 X112.314 Y106.621 E10.60488
G1 X111.761 Y106.301 E10.62613
G1 X111.245 Y106.095 E10.64461
G1 X110.694 Y105.961 E10.66347
G1 X110.134 Y105.903 E10.68219
G1 X109.554 Y105.927 E10.7015
G1 X109.008 Y106.024 E10.71995
G1 X108.46 Y106.202 E10.73911
G1 X107.953 Y106.451 E10.7579
G1 X107.481 Y106.77 E10.77684
G1 X107.054 Y107.153 E10.79592
G1 X106.696 Y107.575 E10.81433
G1 X106.386 Y108.069 E10.83373
G1 X106.153 Y108.587 E10.85262
G1 X105.996 Y109.126 E10.87129
G1 X105.909 Y109.741 E10.89195
G1 X105.91 Y110.258 E10.90914
G1 X105.996 Y110.876 E10.9299
G1 X106.153 Y111.412 E10.94847
G1 X106.386 Y111.932 E10.96743
G1 X106.698 Y112.426 E10.98686
G1 X107.055 Y112.848 E11.00524
G1 X107.482 Y113.232 E11.02434
G1 X107.951 Y113.549 E11.04317
G1 X108.461 Y113.799 E11.06206
G1 X109.009 Y113.977 E11.08123
G1 X109.555 Y114.073 E11.09967
G1 X110.132 Y114.097 E11.11887
G0 F6000 X110.144 Y114.497
;TYPE:WALL-OUTER
G1 F1200 X110.764 Y114.434 E11.1396
G1 X111.368 Y114.286 E11.16028
G1 X111.938 Y114.059 E11.18069
G1 X112.541 Y113.711 E11.20385
G1 X113.034 Y113.321 E11.22475
G1 X113.456 Y112.88 E11.24506
G1 X113.825 Y112.368 E11.26605
G1 X114.118 Y111.815 E11.28686
G1 X114.329 Y111.227 E11.30764
G1 X114.454 Y110.632 E11.32786
G1 X114.498 Y110.001 E11.3489
G1 X114.453 Y109.365 E11.37011
G1 X114.329 Y108.772 E11.39026
G1 X114.117 Y108.185 E11.41101
G1 X113.824 Y107.631 E11.43186
G1 X113.455 Y107.119 E11.45285
G1 X113.033 Y106.678 E11.47315
G1 X112.54 Y106.289 E11.49404
G1 X111.937 Y105.94 E11.51721
G1 X111.367 Y105.713 E11.53762
G1 X110.762 Y105.565 E11.55833
G1 X110.146 Y105.502 E11.57893
G1 X109.51 Y105.529 E11.6001
G1 X108.911 Y105.635 E11.62033
G1 X108.31 Y105.83 E11.64135
G1 X107.752 Y106.104 E11.66202
G1 X107.234 Y106.454 E11.68282
G1 X106.766 Y106.873 E11.70371
G1 X106.373 Y107.338 E11.72396
G1 X106.032 Y107.879 E11.74523
G1 X105.777 Y108.448 E11.76597
G1 X105.603 Y109.042 E11.78655
G1 X105.509 Y109.714 E11.80912
G1 X105.51 Y110.286 E11.82815
G1 X105.604 Y110.96 E11.85078
G1 X105.777 Y111.55 E11.87123
G1 X106.032 Y112.122 E11.89206
G1 X106.374 Y112.663 E11.91335
G1 X106.767 Y113.128 E11.9336
G1 X107.235 Y113.548 E11.95451
G1 X107.751 Y113.896 E11.97521
G1 X108.311 Y114.171 E11.99596
G1 X108.912 Y114.366 E12.01698
G1 X109.512 Y114.472 E12.03724
G1 X110.144 Y114.497 E12.05828
G1 F2700 E7.05828
G0 F6000 X110.016 Y113.991
G0 X111.197 Y113.751
G0 X112.012 Y113.347
G0 X111.836 Y112.935
G0 X111.639 Y112.401
G1 F2700 E12.05828
