;FLAVOR:Marlin
;TIME:300
;Filament used: 0.0663263m
;Layer height: 0.2
;MINX:95.016
;MINY:95.017
;MINZ:0.2
;MAXX:124.978
;MAXY:124.974
;MAXZ:7
;Generated with Cura_SteamEngine 5.3.0
M140 S50
M105
M190 S50
M104 S200
M105
M109 S200
M82 ;absolute extrusion mode
M201 X500.00 Y500.00 Z100.00 E5000.00 ;Setup machine max acceleration
M203 X500.00 Y500.00 Z10.00 E50.00 ;Setup machine max feedrate
M204 P500.00 R1000.00 T500.00 ;Setup Print/Retract/Travel acceleration
M205 X8.00 Y8.00 Z0.40 E5.00 ;Setup Jerk
M220 S100 ;Reset Feedrate
M221 S100 ;Reset Flowrate

G28 ;Home

G92 E0 ;Reset Extruder
G1 Z2.0 F3000 ;Move Z Axis up
G1 X10.1 Y20 Z0.28 F5000.0 ;Move to start position
G1 X10.1 Y200.0 Z0.28 F1500.0 E15 ;Draw the first line
G1 X10.4 Y200.0 Z0.28 F5000.0 ;Move to side a little
G1 X10.4 Y20 Z0.28 F1500.0 E30 ;Draw the second line
G92 E0 ;Reset Extruder
G1 Z2.0 F3000 ;Move Z Axis up

G92 E0
G92 E0
G1 F2700 E-5
;LAYER_COUNT:35
;LAYER:0
M107
G0 F6000 X100.394 Y99.569 Z0.2
;TYPE:SKIRT
G1 F2700 E0
G1 F1200 X100.778 Y99.228 E0.01708
G1 X101.771 Y98.45 E0.05904
G1 X102.152 Y98.188 E0.07442
G1 X103.21 Y97.552 E0.11547
G1 X103.658 Y97.318 E0.13229
G1 X104.792 Y96.811 E0.1736
G1 X105.247 Y96.64 E0.18977
G1 X106.428 Y96.276 E0.23087
G1 X106.881 Y96.166 E0.24638
G1 X108.149 Y95.942 E0.2892
G1 X108.692 Y95.881 E0.30738
G1 X109.91 Y95.817 E0.34794
G1 X110.299 Y95.82 E0.36088
G1 X111.552 Y95.907 E0.40266
G1 X112.144 Y95.985 E0.42252
G1 X113.435 Y96.241 E0.46629
G1 X113.98 Y96.386 E0.48505
G1 X114.841 Y96.657 E0.51507
G1 X115.464 Y96.906 E0.53739
G1 X115.905 Y97.1 E0.55341
G1 X116.95 Y97.634 E0.59244
G1 X117.302 Y97.84 E0.60601
G1 X118.189 Y98.423 E0.64131
G1 X118.596 Y98.722 E0.65811
G1 X119.539 Y99.506 E0.6989
G1 X119.867 Y99.814 E0.71386
G1 X120.745 Y100.749 E0.75652
G1 X121.099 Y101.177 E0.775
G1 X121.819 Y102.162 E0.81558
G1 X122.053 Y102.526 E0.82997
G1 X122.65 Y103.59 E0.87055
G1 X122.862 Y104.027 E0.8867
G1 X123.36 Y105.248 E0.93056
G1 X123.529 Y105.754 E0.9483
G1 X123.842 Y106.914 E0.98827
G1 X123.932 Y107.348 E1.00301
G1 X124.112 Y108.61 E1.04541
G1 X124.154 Y109.138 E1.06302
G1 X124.178 Y110.348 E1.10328
G1 X124.161 Y110.78 E1.11766
G1 X124.031 Y112.05 E1.16012
G1 X123.941 Y112.592 E1.17839
G1 X123.665 Y113.799 E1.21957
G1 X123.545 Y114.207 E1.23372
G1 X123.119 Y115.384 E1.27535
G1 X122.905 Y115.878 E1.29325
G1 X122.321 Y117.021 E1.33595
G1 X122.074 Y117.438 E1.35207
G1 X121.347 Y118.505 E1.39501
G1 X121.003 Y118.947 E1.41364
G1 X120.418 Y119.634 E1.44365
G1 X120.051 Y120.008 E1.46108
G1 X119.732 Y120.317 E1.47585
G1 X118.915 Y121.028 E1.51187
G1 X118.549 Y121.314 E1.52732
G1 X117.494 Y122.037 E1.56986
G1 X116.991 Y122.337 E1.58934
G1 X116.195 Y122.765 E1.6194
G1 X115.746 Y122.968 E1.63579
G1 X115.385 Y123.121 E1.64883
G1 X114.339 Y123.499 E1.68582
G1 X113.813 Y123.657 E1.70409
G1 X112.578 Y123.945 E1.74627
G1 X112.14 Y124.019 E1.76104
G1 X110.926 Y124.15 E1.80165
G1 X110.422 Y124.174 E1.81843
G1 X109.166 Y124.157 E1.86021
G1 X108.704 Y124.122 E1.87562
G1 X107.453 Y123.948 E1.91763
G1 X106.929 Y123.842 E1.93541
G1 X105.746 Y123.528 E1.97612
G1 X105.32 Y123.387 E1.99105
G1 X104.15 Y122.918 E2.03297
G1 X103.693 Y122.701 E2.0498
G1 X102.589 Y122.091 E2.09175
G1 X102.187 Y121.835 E2.1076
G1 X101.185 Y121.107 E2.14879
G1 X100.801 Y120.791 E2.16534
G1 X99.883 Y119.936 E2.20706
G1 X99.548 Y119.583 E2.22325
G1 X98.756 Y118.641 E2.26418
G1 X98.471 Y118.257 E2.28008
G1 X97.782 Y117.196 E2.32216
G1 X97.53 Y116.75 E2.3392
G1 X96.967 Y115.588 E2.38215
G1 X96.76 Y115.081 E2.40036
G1 X96.456 Y114.23 E2.43042
G1 X96.31 Y113.708 E2.44844
G1 X96.181 Y113.194 E2.46607
G1 X95.943 Y111.898 E2.5099
G1 X95.887 Y111.42 E2.5259
G1 X95.818 Y110.283 E2.56379
G1 X95.816 Y109.872 E2.57746
G1 X95.875 Y108.723 E2.61573
G1 X95.933 Y108.188 E2.63362
G1 X96.07 Y107.295 E2.66367
G1 X96.186 Y106.785 E2.68107
G1 X96.331 Y106.212 E2.70073
G1 X96.591 Y105.347 E2.73077
G1 X96.794 Y104.814 E2.74974
G1 X96.926 Y104.495 E2.76122
G1 X97.295 Y103.702 E2.79031
G1 X97.522 Y103.264 E2.80672
G1 X98.152 Y102.208 E2.84762
G1 X98.429 Y101.802 E2.86397
G1 X99.193 Y100.817 E2.90543
G1 X99.505 Y100.462 E2.92115
G1 X100.394 Y99.569 E2.96306
G0 F6000 X100.128 Y99.27
G1 F1200 X100.531 Y98.913 E2.98096
G1 X101.544 Y98.12 E3.02375
G1 X101.925 Y97.858 E3.03913
G1 X103.025 Y97.197 E3.08181
G1 X103.473 Y96.963 E3.09862
G1 X104.651 Y96.437 E3.14153
G1 X105.129 Y96.258 E3.15851
G1 X106.334 Y95.887 E3.20045
G1 X106.811 Y95.772 E3.21676
G1 X108.079 Y95.548 E3.25959
G1 X108.671 Y95.482 E3.2794
G1 X109.913 Y95.417 E3.32077
G1 X110.327 Y95.421 E3.33454
G1 X111.604 Y95.51 E3.37712
G1 X112.196 Y95.588 E3.39698
G1 X113.538 Y95.854 E3.44248
G1 X114.1 Y96.004 E3.46183
G1 X114.961 Y96.275 E3.49185
G1 X115.625 Y96.54 E3.51563
G1 X116.087 Y96.744 E3.53242
G1 X117.152 Y97.289 E3.57221
G1 X117.522 Y97.506 E3.58648
G1 X118.426 Y98.101 E3.62248
G1 X118.852 Y98.414 E3.64006
G1 X119.813 Y99.214 E3.68165
G1 X120.159 Y99.54 E3.69746
G1 X121.037 Y100.475 E3.74012
G1 X121.422 Y100.941 E3.76022
G1 X122.142 Y101.926 E3.8008
G1 X122.402 Y102.33 E3.81678
G1 X123.01 Y103.415 E3.85815
G1 X123.222 Y103.852 E3.87431
G1 X123.739 Y105.121 E3.91988
G1 X123.915 Y105.65 E3.93842
G1 X124.234 Y106.833 E3.97918
G1 X124.324 Y107.267 E3.99392
G1 X124.511 Y108.578 E4.03796
G1 X124.554 Y109.13 E4.05638
G1 X124.578 Y110.364 E4.09743
G1 X124.559 Y110.821 E4.11264
G1 X124.426 Y112.116 E4.15594
G1 X124.336 Y112.658 E4.17421
G1 X124.049 Y113.912 E4.217
G1 X123.929 Y114.32 E4.23115
G1 X123.486 Y115.543 E4.27441
G1 X123.261 Y116.06 E4.29316
G1 X122.665 Y117.225 E4.33669
G1 X122.405 Y117.663 E4.35363
G1 X121.663 Y118.751 E4.39743
G1 X121.308 Y119.206 E4.41662
G1 X120.704 Y119.914 E4.44758
G1 X120.329 Y120.295 E4.46536
G1 X119.995 Y120.619 E4.48083
G1 X119.178 Y121.33 E4.51686
G1 X118.775 Y121.644 E4.53385
G1 X117.699 Y122.381 E4.57723
G1 X117.196 Y122.681 E4.59671
G1 X116.36 Y123.129 E4.62825
G1 X115.902 Y123.336 E4.64497
G1 X115.521 Y123.497 E4.65873
G1 X114.454 Y123.882 E4.69646
G1 X113.904 Y124.047 E4.71555
G1 X112.669 Y124.335 E4.75773
G1 X112.183 Y124.417 E4.77412
G1 X110.945 Y124.55 E4.81554
G1 X110.441 Y124.574 E4.83232
G1 X109.136 Y124.556 E4.87573
G1 X108.674 Y124.521 E4.89114
G1 X107.374 Y124.34 E4.93479
G1 X106.826 Y124.229 E4.95339
G1 X105.62 Y123.908 E4.9949
G1 X105.194 Y123.767 E5.00982
G1 X103.978 Y123.279 E5.0534
G1 X103.5 Y123.051 E5.07102
G1 X102.374 Y122.428 E5.11382
G1 X101.952 Y122.159 E5.13046
G1 X100.931 Y121.416 E5.17246
G1 X100.528 Y121.084 E5.18983
G1 X99.61 Y120.229 E5.23155
G1 X99.242 Y119.84 E5.24936
G1 X98.435 Y118.879 E5.2911
G1 X98.136 Y118.475 E5.30782
G1 X97.434 Y117.393 E5.35072
G1 X97.17 Y116.924 E5.36862
G1 X96.607 Y115.762 E5.41156
G1 X96.383 Y115.216 E5.43119
G1 X96.079 Y114.365 E5.46125
G1 X95.922 Y113.805 E5.48059
G1 X95.793 Y113.291 E5.49822
G1 X95.546 Y111.945 E5.54373
G1 X95.488 Y111.444 E5.56051
G1 X95.418 Y110.285 E5.59913
G1 X95.416 Y109.874 E5.6128
G1 X95.477 Y108.68 E5.65256
G1 X95.535 Y108.145 E5.67046
G1 X95.68 Y107.206 E5.70206
G1 X95.798 Y106.687 E5.71976
G1 X95.948 Y106.097 E5.74001
G1 X96.217 Y105.205 E5.771
G1 X96.424 Y104.661 E5.79036
G1 X96.563 Y104.326 E5.80242
G1 X96.94 Y103.518 E5.83208
G1 X97.178 Y103.059 E5.84927
G1 X97.808 Y102.003 E5.89017
G1 X98.113 Y101.557 E5.90814
G1 X98.893 Y100.553 E5.95043
G1 X99.222 Y100.18 E5.96697
G1 X100.128 Y99.27 E6.00968
G0 F6000 X99.863 Y98.971
G1 F1200 X100.284 Y98.598 E6.02839
G1 X101.317 Y97.79 E6.07201
G1 X101.698 Y97.528 E6.08739
G1 X102.84 Y96.842 E6.1317
G1 X103.288 Y96.608 E6.14851
G1 X104.511 Y96.062 E6.19305
G1 X104.989 Y95.883 E6.21003
G1 X106.24 Y95.498 E6.25357
G1 X106.741 Y95.378 E6.2707
G1 X108.035 Y95.15 E6.3144
G1 X108.627 Y95.084 E6.33421
G1 X109.917 Y95.017 E6.37718
G1 X110.355 Y95.022 E6.39175
G1 X111.656 Y95.113 E6.43512
G1 X112.248 Y95.191 E6.45498
G1 X113.616 Y95.462 E6.50137
G1 X114.22 Y95.622 E6.52215
G1 X115.109 Y95.903 E6.55316
G1 X115.787 Y96.174 E6.57744
G1 X116.249 Y96.378 E6.59424
G1 X117.354 Y96.944 E6.63554
G1 X117.742 Y97.172 E6.6505
G1 X118.663 Y97.779 E6.68719
G1 X119.108 Y98.107 E6.70558
G1 X120.087 Y98.923 E6.74797
G1 X120.451 Y99.266 E6.7646
G1 X121.329 Y100.201 E6.80726
G1 X121.745 Y100.705 E6.829
G1 X122.465 Y101.69 E6.86958
G1 X122.751 Y102.134 E6.88714
G1 X123.37 Y103.24 E6.9293
G1 X123.582 Y103.677 E6.94545
G1 X124.119 Y104.995 E6.99279
G1 X124.295 Y105.524 E7.01133
G1 X124.626 Y106.752 E7.05363
G1 X124.716 Y107.186 E7.06838
G1 X124.91 Y108.547 E7.1141
G1 X124.954 Y109.122 E7.13328
G1 X124.978 Y110.381 E7.17516
G1 X124.957 Y110.862 E7.19118
G1 X124.821 Y112.182 E7.23531
G1 X124.731 Y112.724 E7.25359
G1 X124.433 Y114.025 E7.29798
G1 X124.313 Y114.433 E7.31212
G1 X123.853 Y115.703 E7.35705
G1 X123.628 Y116.22 E7.3758
G1 X123.009 Y117.429 E7.42098
G1 X122.749 Y117.867 E7.43792
G1 X121.978 Y118.997 E7.48342
G1 X121.612 Y119.466 E7.5032
G1 X120.989 Y120.195 E7.5351
G1 X120.608 Y120.582 E7.55316
G1 X120.258 Y120.921 E7.56937
G1 X119.424 Y121.646 E7.60612
G1 X119.021 Y121.96 E7.62311
G1 X117.904 Y122.725 E7.66814
G1 X117.385 Y123.034 E7.68823
G1 X116.525 Y123.494 E7.72067
G1 X116.058 Y123.704 E7.7377
G1 X115.657 Y123.873 E7.75218
G1 X114.569 Y124.265 E7.79064
G1 X113.995 Y124.437 E7.81057
G1 X112.76 Y124.725 E7.85275
G1 X112.226 Y124.815 E7.87076
G1 X110.964 Y124.95 E7.91297
G1 X110.46 Y124.974 E7.92976
G1 X109.106 Y124.955 E7.97479
G1 X108.644 Y124.92 E7.99021
G1 X107.295 Y124.732 E8.03551
G1 X106.723 Y124.616 E8.05492
G1 X105.494 Y124.288 E8.09723
G1 X105.068 Y124.147 E8.11215
G1 X103.806 Y123.64 E8.15739
G1 X103.306 Y123.401 E8.17582
G1 X102.18 Y122.778 E8.21862
G1 X101.737 Y122.496 E8.23609
G1 X100.677 Y121.725 E8.27968
G1 X100.255 Y121.377 E8.29787
G1 X99.319 Y120.504 E8.34044
G1 X98.951 Y120.115 E8.35825
G1 X98.113 Y119.117 E8.4016
G1 X97.8 Y118.693 E8.41913
G1 X97.098 Y117.611 E8.46202
G1 X96.821 Y117.12 E8.48078
G1 X96.237 Y115.914 E8.52534
G1 X96.006 Y115.351 E8.54558
G1 X95.702 Y114.5 E8.57564
G1 X95.534 Y113.902 E8.5963
G1 X95.405 Y113.388 E8.61392
G1 X95.149 Y111.991 E8.66116
G1 X95.089 Y111.468 E8.67867
G1 X95.018 Y110.287 E8.71802
G1 X95.016 Y109.876 E8.73169
G1 X95.079 Y108.637 E8.77296
G1 X95.137 Y108.102 E8.79085
G1 X95.29 Y107.117 E8.82401
G1 X95.41 Y106.588 E8.84205
G1 X95.565 Y105.982 E8.86285
G1 X95.843 Y105.063 E8.89479
G1 X96.055 Y104.508 E8.91455
G1 X96.201 Y104.157 E8.92719
G1 X96.585 Y103.334 E8.9574
G1 X96.834 Y102.854 E8.97538
G1 X97.464 Y101.798 E9.01628
G1 X97.797 Y101.312 E9.03588
G1 X98.593 Y100.288 E9.07901
G1 X98.922 Y99.915 E9.09556
G1 X99.863 Y98.971 E9.13989
G1 F2700 E4.13989
;MESH:connector.stl
G0 F6000 X105.797 Y107.981
G0 X106.752 Y108.496
G0 X106.926 Y110.649
G0 X107.259 Y111.53
G0 X107.822 Y112.261
G0 X108.19 Y112.565
G0 X109.005 Y113.015
G0 X108.172 Y112.798
;TYPE:WALL-INNER
G1 F2700 E9.13989
G1 F952.4 X107.985 Y112.673 E9.14932
G1 F960 X107.672 Y112.408 E9.16637
G1 X107.362 Y112.067 E9.18553
G1 F952.4 X107.158 Y111.768 E9.2007
G1 F950.5 X106.97 Y111.419 E9.21734
G1 F952.4 X106.839 Y111.111 E9.23137
G1 F954.3 X106.713 Y110.653 E9.25124
G1 F960 X106.656 Y110.181 E9.271
G1 F965.8 X106.658 Y109.745 E9.28902
G1 F967.7 X106.724 Y109.289 E9.30802
G1 F961.9 X106.815 Y108.976 E9.32155
G1 F960 X106.923 Y108.671 E9.335
G1 F961.9 X107.125 Y108.277 E9.35337
G1 F960 X107.394 Y107.895 E9.37279
G1 F965.8 X107.714 Y107.549 E9.39227
G1 F969.7 X108.062 Y107.267 E9.41071
G1 F960 X108.318 Y107.108 E9.42324
G1 F958.1 X108.61 Y106.952 E9.43703
G1 F965.8 X108.996 Y106.806 E9.45408
G1 F963.9 X109.483 Y106.691 E9.4748
G1 F965.8 X109.954 Y106.65 E9.49434
G1 F967.7 X110.421 Y106.674 E9.51363
G1 F960 X110.701 Y106.728 E9.52548
G1 F965.8 X111.019 Y106.807 E9.53902
G1 F975.6 X111.471 Y106.989 E9.55896
G1 F971.7 X111.866 Y107.218 E9.57771
G1 X112.238 Y107.505 E9.59701
G1 F961.9 X112.479 Y107.752 E9.61133
G1 F965.8 X112.669 Y107.97 E9.62328
G1 F977.6 X112.92 Y108.353 E9.64198
G1 F963.9 X113.128 Y108.804 E9.66254
G1 F958.1 X113.248 Y109.183 E9.6791
G1 F956.2 X113.333 Y109.652 E9.699
G1 F952.4 X113.345 Y110.001 E9.71363
G1 F967.7 X113.339 Y110.293 E9.72568
G1 F979.6 X113.269 Y110.746 E9.74435
G1 F969.7 X113.13 Y111.195 E9.7637
G1 F971.7 X112.914 Y111.65 E9.78439
G1 F979.6 X112.693 Y111.995 E9.80108
G1 F963.9 X112.485 Y112.24 E9.81439
G1 X112.261 Y112.473 E9.82777
G1 F977.6 X111.956 Y112.717 E9.84372
G1 F961.9 X111.793 Y112.817 E9.85165
G0 F6000 X111.002 Y113.018
G0 X109.005 Y113.015
G0 X108.172 Y112.798
G1 F960 X108.317 Y112.898 E9.85898
G1 F985.6 X108.692 Y113.092 E9.87607
G1 F997.9 X109.084 Y113.23 E9.8927
G1 X109.483 Y113.319 E9.90905
G1 F979.6 X109.88 Y113.348 E9.92526
G1 F967.7 X110.301 Y113.338 E9.94263
G1 F1004.2 X110.706 Y113.291 E9.95884
G1 F1034.5 X111.113 Y113.176 E9.97516
G1 F1032.3 X111.48 Y113.019 E9.99059
G1 F1010.5 X111.753 Y112.843 E10.00342
G1 F1012.7 X110.658 Y112.832 E10.04658
G1 F1004.2 X110.279 Y112.846 E10.06165
G1 F967.7 X109.888 Y112.849 E10.07778
G1 F979.6 X109.52 Y112.84 E10.09278
G1 F985.6 X108.335 Y112.839 E10.14076
G1 F960 X108.172 Y112.798 E10.14775
G1 F2700 E5.14775
G0 F6000 X109.005 Y113.015
G0 X109.889 Y113.098
G0 X109.866 Y113.797
;TYPE:WALL-OUTER
G1 F2700 E10.14775
G1 F1200 X110.341 Y113.783 E10.16356
G1 X110.797 Y113.714 E10.17889
G1 X111.245 Y113.589 E10.19436
G1 X111.668 Y113.412 E10.20962
G1 X112.122 Y113.149 E10.22707
G1 X112.447 Y112.904 E10.2406
G1 X112.82 Y112.545 E10.25782
G1 X113.109 Y112.182 E10.27325
G1 X113.351 Y111.789 E10.2886
G1 X113.55 Y111.357 E10.30442
G1 X113.686 Y110.924 E10.31952
G1 X113.769 Y110.471 E10.33484
G1 X113.798 Y110.001 E10.3505
G1 X113.769 Y109.528 E10.36626
G1 X113.685 Y109.075 E10.38158
G1 X113.549 Y108.642 E10.39668
G1 X113.35 Y108.21 E10.4125
G1 X113.108 Y107.817 E10.42785
G1 X112.815 Y107.448 E10.44352
G1 X112.484 Y107.127 E10.45886
G1 X112.116 Y106.845 E10.47428
G1 X111.719 Y106.614 E10.48955
G1 X111.238 Y106.408 E10.50696
G1 X110.795 Y106.285 E10.52225
G1 X110.34 Y106.216 E10.53756
G1 X109.867 Y106.204 E10.55329
G1 X109.414 Y106.247 E10.56843
G1 X108.961 Y106.346 E10.58385
G1 X108.518 Y106.503 E10.59948
G1 X108.091 Y106.716 E10.61535
G1 X107.713 Y106.968 E10.63046
G1 X107.359 Y107.269 E10.64592
G1 X107.044 Y107.613 E10.66143
G1 X106.773 Y107.995 E10.67701
G1 X106.559 Y108.39 E10.69195
G1 X106.384 Y108.839 E10.70798
G1 X106.262 Y109.326 E10.72468
G1 X106.207 Y109.792 E10.74029
G1 X106.207 Y110.207 E10.75409
G1 X106.263 Y110.675 E10.76976
G1 X106.384 Y111.162 E10.78645
G1 X106.559 Y111.609 E10.80242
G1 X106.773 Y112.007 E10.81745
G1 X107.046 Y112.388 E10.83304
G1 X107.36 Y112.732 E10.84853
G1 X107.714 Y113.033 E10.86399
G1 F1203 X108.091 Y113.285 E10.87903
G1 X108.519 Y113.498 E10.89489
G1 F1200 X108.963 Y113.654 E10.91054
G1 X109.415 Y113.755 E10.92595
G1 X109.866 Y113.797 E10.94101
G1 F2700 E5.94101
G0 F6000 X109.889 Y113.098
G0 X111.83 Y112.629
G0 X111.64 Y112.4
G1 F2700 E10.94101
G1 F1203 X108.36 Y112.397 E11.04983
G1 X107.986 Y112.087 E11.06595
G1 F1200 X107.709 Y111.779 E11.07973
G1 X107.466 Y111.413 E11.09434
G1 X107.286 Y111.025 E11.10857
G1 X107.161 Y110.603 E11.12321
G1 X107.106 Y110.196 E11.13687
G1 X107.112 Y109.737 E11.15213
G1 X107.18 Y109.318 E11.16625
G1 X107.31 Y108.914 E11.18037
G1 X107.494 Y108.536 E11.19435
G1 X107.742 Y108.178 E11.20883
G1 X108.032 Y107.869 E11.22293
G1 X108.373 Y107.598 E11.23742
G1 X108.76 Y107.379 E11.25221
G1 X109.168 Y107.222 E11.26675
G1 X109.553 Y107.134 E11.27988
G1 X109.986 Y107.101 E11.29433
G1 X110.441 Y107.133 E11.3095
G1 X110.842 Y107.224 E11.32317
G1 X111.248 Y107.381 E11.33765
G1 X111.621 Y107.594 E11.35194
G1 X111.963 Y107.862 E11.36639
G1 X112.257 Y108.175 E11.38067
G1 X112.501 Y108.527 E11.39492
G1 X112.686 Y108.903 E11.40885
G1 X112.823 Y109.332 E11.42383
G1 X112.887 Y109.73 E11.43724
G1 X112.896 Y110.181 E11.45224
G1 X112.84 Y110.599 E11.46627
G1 X112.714 Y111.025 E11.48105
G1 X112.532 Y111.417 E11.49542
G1 X112.298 Y111.771 E11.50953
G1 X112.014 Y112.088 E11.52369
G1 F1203 X111.64 Y112.4 E11.53985
;MESH:NOMESH
G0 F300 X111.64 Y112.4 Z0.4
G0 F6000 X111.83 Y112.629
G0 X109.005 Y113.015
G0 X108.174 Y112.8
;TIME_ELAPSED:24.373930
;LAYER:1
M106 S85
