;FLAVOR:Marlin
;TIME:5879
;Filament used: 5.27884m
;Layer height: 0.2
;MINX:78.4
;MINY:40
;MINZ:0.2
;MAXX:141.6
;MAXY:180
;MAXZ:21
;Generated with Cura_SteamEngine 5.3.0
M140 S50
M105
M190 S50
M104 S200
M105
M109 S200
M82 ;absolute extrusion mode
M201 X500.00 Y500.00 Z100.00 E5000.00 ;Setup machine max acceleration
M203 X500.00 Y500.00 Z10.00 E50.00 ;Setup machine max feedrate
M204 P500.00 R1000.00 T500.00 ;Setup Print/Retract/Travel acceleration
M205 X8.00 Y8.00 Z0.40 E5.00 ;Setup Jerk
M220 S100 ;Reset Feedrate
M221 S100 ;Reset Flowrate

G28 ;Home

G92 E0 ;Reset Extruder
G1 Z2.0 F3000 ;Move Z Axis up
G1 X10.1 Y20 Z0.28 F5000.0 ;Move to start position
G1 X10.1 Y200.0 Z0.28 F1500.0 E15 ;Draw the first line
G1 X10.4 Y200.0 Z0.28 F5000.0 ;Move to side a little
G1 X10.4 Y20 Z0.28 F1500.0 E30 ;Draw the second line
G92 E0 ;Reset Extruder
G1 Z2.0 F3000 ;Move Z Axis up

G92 E0
G92 E0
G1 F2700 E-5
;LAYER_COUNT:105
;LAYER:0
M107
G0 F6000 X81.195 Y53.961 Z0.2
;TYPE:SKIRT
G1 F2700 E0
G1 F1200 X81.762 Y53.258 E0.03004
G1 X82.389 Y52.608 E0.06008
G1 X83.071 Y52.016 E0.09011
G1 X83.803 Y51.487 E0.12015
G1 X84.578 Y51.024 E0.15018
G1 X85.182 Y50.725 E0.1726
G1 X87.951 Y49.429 E0.27428
G1 X90.228 Y48.277 E0.35915
G1 X92.47 Y47.064 E0.44394
G1 X94.641 Y45.807 E0.52738
G1 X96.812 Y44.468 E0.61221
G1 X99.763 Y42.511 E0.72999
G1 X100.537 Y42.045 E0.76003
G1 X101.349 Y41.65 E0.79007
G1 X102.193 Y41.329 E0.8201
G1 X103.062 Y41.083 E0.85014
G1 X103.95 Y40.915 E0.8802
G1 X105.224 Y40.813 E0.92271
G1 X106.036 Y40.8 E0.94972
G1 X113.893 Y40.8 E1.21104
G1 X114.736 Y40.811 E1.23908
G1 X115.638 Y40.864 E1.26914
G1 X116.531 Y40.996 E1.29916
G1 X117.409 Y41.207 E1.32919
G1 X118.265 Y41.495 E1.35923
G1 X119.093 Y41.858 E1.3893
G1 X119.884 Y42.292 E1.41931
G1 X120.635 Y42.794 E1.44936
G1 X121.338 Y43.361 E1.4794
G1 X121.988 Y43.988 E1.50943
G1 X122.58 Y44.67 E1.53947
G1 X123.11 Y45.401 E1.5695
G1 X123.638 Y46.302 E1.60424
G1 X124.097 Y47.186 E1.63737
G1 X139.421 Y77.833 E2.77701
G1 X139.771 Y78.558 E2.80379
G1 X140.126 Y79.388 E2.83381
G1 X140.407 Y80.247 E2.86387
G1 X140.61 Y81.127 E2.89391
G1 X140.735 Y82.021 E2.92393
G1 X140.778 Y82.775 E2.94905
G1 X140.8 Y83.972 E2.98887
G1 X140.799 Y132.438 E4.60086
G1 X140.789 Y133.139 E4.62418
G1 X140.736 Y134.041 E4.65423
G1 X140.604 Y134.934 E4.68425
G1 X140.393 Y135.813 E4.71432
G1 X140.105 Y136.669 E4.74436
G1 X139.743 Y137.496 E4.77438
G1 X139.309 Y138.288 E4.80442
G1 X138.806 Y139.038 E4.83446
G1 X138.239 Y139.741 E4.8645
G1 X137.613 Y140.391 E4.89451
G1 X136.931 Y140.984 E4.92457
G1 X136.278 Y141.461 E4.95147
G1 X134.855 Y142.417 E5.00848
G1 X132.723 Y143.909 E5.09503
G1 X130.714 Y145.403 E5.1783
G1 X128.686 Y147 E5.26416
G1 X126.734 Y148.629 E5.34872
G1 X124.852 Y150.292 E5.43225
G1 X122.976 Y152.047 E5.5177
G1 X121.198 Y153.807 E5.60091
G1 X119.44 Y155.649 E5.68559
G1 X117.73 Y157.546 E5.77054
G1 X116.089 Y159.472 E5.8547
G1 X114.485 Y161.466 E5.93981
G1 X112.946 Y163.496 E6.02454
G1 X111.476 Y165.551 E6.10858
G1 X110.071 Y167.638 E6.19226
G1 X108.694 Y169.815 E6.27793
G1 X107.404 Y171.988 E6.36198
G1 X106.296 Y173.969 E6.43748
G1 X105.821 Y174.737 E6.46751
G1 X105.279 Y175.46 E6.49756
G1 X104.676 Y176.132 E6.52759
G1 X104.016 Y176.748 E6.55762
G1 X103.304 Y177.304 E6.58767
G1 X102.545 Y177.794 E6.61772
G1 X101.746 Y178.215 E6.64775
G1 X100.913 Y178.564 E6.67779
G1 X100.053 Y178.837 E6.7078
G1 X99.171 Y179.034 E6.73786
G1 X98.276 Y179.152 E6.76789
G1 X97.709 Y179.185 E6.78678
G1 X97.07 Y179.2 E6.80804
G1 X89.975 Y179.199 E7.04402
G1 X89.277 Y179.19 E7.06723
G1 X88.376 Y179.139 E7.09725
G1 X87.482 Y179.007 E7.12731
G1 X86.604 Y178.798 E7.15733
G1 X85.747 Y178.511 E7.18739
G1 X84.92 Y178.15 E7.2174
G1 X84.127 Y177.717 E7.24745
G1 X83.376 Y177.216 E7.27748
G1 X82.672 Y176.65 E7.30752
G1 X82.021 Y176.024 E7.33756
G1 X81.428 Y175.343 E7.36759
G1 X80.898 Y174.612 E7.39762
G1 X80.434 Y173.837 E7.42767
G1 X80.04 Y173.024 E7.45772
G1 X79.72 Y172.18 E7.48774
G1 X79.476 Y171.31 E7.51779
G1 X79.31 Y170.422 E7.54784
G1 X79.213 Y169.267 E7.58639
G1 X79.2 Y168.658 E7.60665
G1 X79.201 Y60.55 E11.20233
G1 X79.211 Y59.859 E11.22532
G1 X79.264 Y58.958 E11.25534
G1 X79.397 Y58.065 E11.28537
G1 X79.608 Y57.186 E11.31543
G1 X79.896 Y56.33 E11.34547
G1 X80.258 Y55.503 E11.3755
G1 X80.692 Y54.711 E11.40554
G1 X81.195 Y53.961 E11.43557
G0 F6000 X80.863 Y53.738
G1 F1200 X81.474 Y52.98 E11.46795
G1 X82.101 Y52.33 E11.49799
G1 X82.809 Y51.714 E11.5292
G1 X83.569 Y51.163 E11.56043
G1 X84.373 Y50.681 E11.59161
G1 X85.012 Y50.363 E11.61534
G1 X87.77 Y49.072 E11.71663
G1 X90.047 Y47.92 E11.8015
G1 X92.28 Y46.712 E11.88594
G1 X94.441 Y45.461 E11.96899
G1 X96.602 Y44.128 E12.05344
G1 X99.557 Y42.168 E12.17138
G1 X100.362 Y41.685 E12.20261
G1 X101.174 Y41.29 E12.23264
G1 X102.084 Y40.944 E12.26502
G1 X102.953 Y40.698 E12.29506
G1 X103.918 Y40.516 E12.32772
G1 X105.192 Y40.414 E12.37023
G1 X106.03 Y40.4 E12.3981
G1 X113.898 Y40.4 E12.6598
G1 X114.759 Y40.412 E12.68844
G1 X115.696 Y40.468 E12.71966
G1 X116.589 Y40.6 E12.74968
G1 X117.537 Y40.828 E12.78211
G1 X118.393 Y41.116 E12.81215
G1 X119.285 Y41.507 E12.84454
G1 X120.106 Y41.959 E12.87571
G1 X120.857 Y42.461 E12.90576
G1 X121.616 Y43.073 E12.93819
G1 X122.266 Y43.7 E12.96822
G1 X122.904 Y44.435 E13.0006
G1 X123.434 Y45.166 E13.03063
G1 X123.993 Y46.118 E13.06735
G1 X124.455 Y47.007 E13.10067
G1 X139.781 Y77.659 E14.24049
G1 X140.139 Y78.401 E14.26789
G1 X140.494 Y79.231 E14.29792
G1 X140.797 Y80.157 E14.33032
G1 X141 Y81.037 E14.36036
G1 X141.131 Y81.966 E14.39157
G1 X141.178 Y82.768 E14.41829
G1 X141.2 Y83.972 E14.45834
G1 X141.199 Y132.444 E16.07052
G1 X141.188 Y133.162 E16.09441
G1 X141.132 Y134.099 E16.12563
G1 X141 Y134.992 E16.15565
G1 X140.772 Y135.941 E16.18811
G1 X140.484 Y136.797 E16.21815
G1 X140.094 Y137.688 E16.2505
G1 X139.641 Y138.511 E16.28175
G1 X139.138 Y139.261 E16.31178
G1 X138.527 Y140.018 E16.34414
G1 X137.875 Y140.693 E16.37535
G1 X137.167 Y141.307 E16.40652
G1 X136.501 Y141.793 E16.43395
G1 X135.078 Y142.749 E16.49096
G1 X132.962 Y144.23 E16.57687
G1 X130.953 Y145.724 E16.66014
G1 X128.942 Y147.307 E16.74526
G1 X126.999 Y148.929 E16.82944
G1 X125.117 Y150.592 E16.91298
G1 X123.249 Y152.339 E16.99804
G1 X121.479 Y154.091 E17.08088
G1 X119.737 Y155.917 E17.16481
G1 X118.027 Y157.814 E17.24976
G1 X116.401 Y159.723 E17.33316
G1 X114.797 Y161.717 E17.41828
G1 X113.265 Y163.738 E17.50263
G1 X111.801 Y165.784 E17.5863
G1 X110.403 Y167.861 E17.66957
G1 X109.032 Y170.029 E17.75489
G1 X107.748 Y172.192 E17.83855
G1 X106.636 Y174.179 E17.91429
G1 X106.141 Y174.977 E17.94552
G1 X105.577 Y175.727 E17.97673
G1 X104.974 Y176.399 E18.00676
G1 X104.262 Y177.063 E18.03914
G1 X103.521 Y177.64 E18.07038
G1 X102.731 Y178.148 E18.10162
G1 X101.901 Y178.584 E18.1328
G1 X101.068 Y178.933 E18.16284
G1 X100.174 Y179.218 E18.19405
G1 X99.223 Y179.431 E18.22646
G1 X98.328 Y179.549 E18.25649
G1 X97.718 Y179.585 E18.27681
G1 X97.079 Y179.6 E18.29807
G1 X89.97 Y179.599 E18.53452
G1 X89.254 Y179.589 E18.55833
G1 X88.318 Y179.535 E18.58952
G1 X87.424 Y179.403 E18.61957
G1 X86.511 Y179.187 E18.65078
G1 X85.587 Y178.878 E18.68318
G1 X84.76 Y178.517 E18.7132
G1 X83.905 Y178.05 E18.7456
G1 X83.125 Y177.528 E18.77682
G1 X82.421 Y176.962 E18.80686
G1 X81.719 Y176.287 E18.83925
G1 X81.126 Y175.606 E18.86929
G1 X80.574 Y174.847 E18.9005
G1 X80.074 Y174.011 E18.9329
G1 X79.666 Y173.166 E18.96411
G1 X79.346 Y172.322 E18.99413
G1 X79.083 Y171.384 E19.02653
G1 X78.911 Y170.455 E19.05795
G1 X78.813 Y169.276 E19.0973
G1 X78.8 Y168.658 E19.11786
G1 X78.801 Y60.544 E22.71375
G1 X78.811 Y59.853 E22.73673
G1 X78.868 Y58.899 E22.76852
G1 X79.001 Y58.006 E22.79855
G1 X79.229 Y57.058 E22.83098
G1 X79.517 Y56.202 E22.86102
G1 X79.907 Y55.311 E22.89337
G1 X80.36 Y54.488 E22.92461
G1 X80.863 Y53.738 E22.95465
G0 F6000 X80.531 Y53.515
G1 F1200 X81.186 Y52.702 E22.98937
G1 X81.838 Y52.028 E23.02056
G1 X82.546 Y51.412 E23.05178
G1 X83.334 Y50.839 E23.08418
G1 X84.167 Y50.338 E23.11651
G1 X84.842 Y50.001 E23.14161
G1 X87.589 Y48.715 E23.24249
G1 X89.866 Y47.563 E23.32736
G1 X92.09 Y46.36 E23.41146
G1 X94.241 Y45.115 E23.49412
G1 X96.392 Y43.788 E23.57819
G1 X99.351 Y41.825 E23.69629
G1 X100.187 Y41.325 E23.72869
G1 X100.999 Y40.93 E23.75872
G1 X101.975 Y40.559 E23.79345
G1 X102.844 Y40.313 E23.82349
G1 X103.886 Y40.117 E23.85875
G1 X105.185 Y40.014 E23.90209
G1 X106.023 Y40 E23.92997
G1 X113.904 Y40 E24.19209
G1 X114.783 Y40.013 E24.22133
G1 X115.754 Y40.072 E24.25369
G1 X116.683 Y40.211 E24.28493
G1 X117.631 Y40.439 E24.31736
G1 X118.521 Y40.737 E24.34858
G1 X119.446 Y41.141 E24.38215
G1 X120.328 Y41.626 E24.41563
G1 X121.079 Y42.128 E24.44567
G1 X121.894 Y42.785 E24.48049
G1 X122.544 Y43.412 E24.51053
G1 X123.228 Y44.2 E24.54523
G1 X123.779 Y44.963 E24.57654
G1 X124.348 Y45.934 E24.61397
G1 X124.813 Y46.828 E24.64748
G1 X140.141 Y77.485 E25.78749
G1 X140.507 Y78.244 E25.81551
G1 X140.862 Y79.074 E25.84554
G1 X141.187 Y80.067 E25.88029
G1 X141.39 Y80.947 E25.91033
G1 X141.527 Y81.91 E25.94268
G1 X141.578 Y82.761 E25.97103
G1 X141.6 Y83.972 E26.01132
G1 X141.599 Y132.45 E27.6237
G1 X141.587 Y133.186 E27.64819
G1 X141.528 Y134.157 E27.68054
G1 X141.396 Y135.05 E27.71056
G1 X141.151 Y136.069 E27.74542
G1 X140.863 Y136.925 E27.77546
G1 X140.444 Y137.881 E27.81018
G1 X139.973 Y138.734 E27.84259
G1 X139.47 Y139.484 E27.87262
G1 X138.815 Y140.296 E27.90732
G1 X138.163 Y140.971 E27.93853
G1 X137.403 Y141.63 E27.97199
G1 X136.724 Y142.125 E27.99994
G1 X135.301 Y143.081 E28.05696
G1 X133.201 Y144.551 E28.14222
G1 X131.192 Y146.045 E28.22549
G1 X129.198 Y147.614 E28.30988
G1 X127.264 Y149.229 E28.39368
G1 X125.382 Y150.892 E28.47721
G1 X123.522 Y152.631 E28.5619
G1 X121.76 Y154.375 E28.64436
G1 X120.034 Y156.185 E28.72755
G1 X118.324 Y158.082 E28.81249
G1 X116.713 Y159.974 E28.89514
G1 X115.109 Y161.968 E28.98026
G1 X113.584 Y163.98 E29.06422
G1 X112.126 Y166.017 E29.14754
G1 X110.735 Y168.084 E29.23041
G1 X109.37 Y170.243 E29.31537
G1 X108.092 Y172.396 E29.39864
G1 X106.976 Y174.39 E29.47464
G1 X106.481 Y175.188 E29.50587
G1 X105.875 Y175.994 E29.53941
G1 X105.247 Y176.692 E29.57064
G1 X104.508 Y177.379 E29.6042
G1 X103.767 Y177.956 E29.63544
G1 X102.917 Y178.502 E29.66904
G1 X102.056 Y178.953 E29.70137
G1 X101.223 Y179.302 E29.73141
G1 X100.295 Y179.599 E29.76381
G1 X99.275 Y179.828 E29.79858
G1 X98.38 Y179.946 E29.82861
G1 X97.727 Y179.985 E29.85037
G1 X97.088 Y180 E29.87163
G1 X89.964 Y179.999 E30.10857
G1 X89.231 Y179.988 E30.13295
G1 X88.26 Y179.931 E30.16531
G1 X87.366 Y179.799 E30.19536
G1 X86.384 Y179.566 E30.22893
G1 X85.427 Y179.245 E30.2625
G1 X84.6 Y178.884 E30.29252
G1 X83.713 Y178.401 E30.32611
G1 X82.874 Y177.84 E30.35968
G1 X82.17 Y177.274 E30.38972
G1 X81.417 Y176.55 E30.42446
G1 X80.824 Y175.869 E30.4545
G1 X80.231 Y175.052 E30.48808
G1 X79.714 Y174.185 E30.52165
G1 X79.292 Y173.308 E30.55402
G1 X78.972 Y172.464 E30.58404
G1 X78.698 Y171.492 E30.61763
G1 X78.512 Y170.488 E30.65159
G1 X78.414 Y169.309 E30.69094
G1 X78.4 Y168.658 E30.7126
G1 X78.401 Y60.538 E34.30868
G1 X78.412 Y59.829 E34.33227
G1 X78.472 Y58.84 E34.36522
G1 X78.605 Y57.947 E34.39525
G1 X78.84 Y56.964 E34.42887
G1 X79.138 Y56.074 E34.46008
G1 X79.557 Y55.118 E34.4948
G1 X80.028 Y54.265 E34.52721
G1 X80.531 Y53.515 E34.55725
G1 F2700 E29.55725
;MESH:frame.stl
G0 F6000 X105.063 Y57.926
G0 X107.819 Y61.875
;TYPE:WALL-INNER
G1 F2700 E34.55725
G1 F1200 X107.637 Y61.815 E34.56362
G1 X107.494 Y61.717 E34.56938
G1 X107.381 Y61.576 E34.57539
G1 X105.234 Y57.86 E34.71814
G1 X105.214 Y57.503 E34.73003
G1 X105.279 Y57.336 E34.73599
G1 X107.397 Y53.673 E34.87672
G1 X107.597 Y53.481 E34.88594
G1 X107.819 Y53.4 E34.8938
G1 X112.099 Y53.4 E35.03615
G1 X112.361 Y53.46 E35.04509
G1 X112.576 Y53.625 E35.05411
G1 X114.772 Y57.425 E35.20008
G1 X114.802 Y57.658 E35.2079
G1 X114.721 Y57.938 E35.21759
G1 X112.619 Y61.576 E35.35734
G1 X112.492 Y61.73 E35.36398
G1 X112.358 Y61.817 E35.36929
G1 X112.142 Y61.874 E35.37672
G1 X107.819 Y61.875 E35.5205
G1 F2700 E30.5205
G0 F6000 X122.279 Y132.267
G0 X96.8 Y168.4
G1 F2700 E35.5205
G1 F1200 X96.8 Y165.144 E35.6288
G1 X92.863 Y157.269 E35.92163
G1 X92.8 Y157.08 E35.92826
G1 X92.8 Y148 E36.23026
G1 X92.847 Y147.765 E36.23823
G1 X92.97 Y147.58 E36.24562
G1 X93.125 Y147.466 E36.25202
G1 X122.359 Y132.45 E37.34511
G1 X122.54 Y132.402 E37.35134
G1 X130 Y132.4 E37.59946
G1 X130 Y83.144 E39.23772
G1 X114.227 Y51.6 E40.41073
G1 X105.67 Y51.6 E40.69534
G1 X97.833 Y60.416 E41.08767
G1 X97.69 Y60.526 E41.09367
G1 X97.459 Y60.598 E41.10172
G1 X90 Y60.6 E41.3498
G1 X90 Y168.4 E44.93525
G1 X96.8 Y168.4 E45.16142
G0 F6000 X97.2 Y168.8
;TYPE:WALL-OUTER
G1 F1200 X97.2 Y165.05 E45.28614
G1 X93.202 Y157.052 E45.58354
G1 X93.2 Y147.943 E45.88651
G1 X93.268 Y147.843 E45.89053
G1 X122.553 Y132.8 E46.98554
G1 X130.4 Y132.8 E47.24653
G1 X130.4 Y83.05 E48.90122
G1 X114.475 Y51.2 E50.0856
G1 X105.49 Y51.2 E50.38444
G1 X97.522 Y60.165 E50.78337
G1 X97.42 Y60.2 E50.78695
G1 X89.6 Y60.2 E51.04705
G1 X89.6 Y168.8 E54.6591
G1 X97.2 Y168.8 E54.91188
G1 F2700 E49.91188
G0 F6000 X96.93 Y168.53
G0 X96.962 Y165.104
G0 X92.962 Y157.103
G0 X92.966 Y147.736
G0 X121.814 Y132.931
G0 X122.279 Y132.267
G0 X112.154 Y62.055
G0 X112.146 Y61.47
G1 F2700 E54.91188
G1 F1200 X107.874 Y61.474 E55.05396
G1 X107.747 Y61.404 E55.05879
G1 X105.592 Y57.68 E55.20189
G1 X105.625 Y57.536 E55.20681
G1 X107.73 Y53.894 E55.34672
G1 X107.866 Y53.802 E55.35218
G1 X112.099 Y53.8 E55.49297
G1 X112.251 Y53.869 E55.49852
G1 X114.381 Y57.547 E55.63988
G1 X114.409 Y57.678 E55.64434
G1 X112.253 Y61.404 E55.78752
G1 X112.146 Y61.47 E55.7917
G1 F2700 E50.7917
G0 F6000 X112.146 Y61.775
G0 X107.868 Y62.056
G0 X122.279 Y132.267
G0 X96.44 Y168.04
;TYPE:SKIN
G1 F2700 E55.7917
G1 F1200 X90.36 Y168.04 E55.99392
G1 X90.36 Y60.96 E59.55542
G1 X97.491 Y60.957 E59.79259
G1 X97.9 Y60.825 E59.80689
G1 X98.063 Y60.699 E59.81374
G1 X105.832 Y51.96 E60.20265
G1 X114.004 Y51.96 E60.47445
G1 X129.64 Y83.232 E61.63733
G1 X129.64 Y132.04 E63.26069
G1 X122.508 Y132.043 E63.49791
G1 X122.215 Y132.12 E63.50798
G1 X92.961 Y147.145 E64.6018
G1 X92.708 Y147.331 E64.61225
G1 X92.512 Y147.623 E64.62395
G1 X92.443 Y147.961 E64.63542
G1 X92.442 Y157.135 E64.94055
G1 X92.529 Y157.402 E64.94989
G1 X96.44 Y165.232 E65.24099
G1 X96.44 Y168.04 E65.33439
G1 F2700 E60.33439
G0 F6000 X96.7 Y168.04
G0 X96.962 Y165.104
G0 X92.962 Y157.103
G0 X92.966 Y147.736
G0 X121.796 Y132.941
G0 X122.279 Y132.267
G0 X112.154 Y62.055
G0 X112.513 Y62.146
G1 F2700 E65.33439
G1 F1200 X112.863 Y61.864 E65.34934
G1 X115.034 Y58.117 E65.49337
G1 X115.166 Y57.68 E65.50855
G1 X115.117 Y57.305 E65.52113
G1 X112.852 Y53.39 E65.67157
G1 X112.519 Y53.13 E65.68562
G1 X112.139 Y53.044 E65.69858
G1 X107.766 Y53.042 E65.84403
G1 X107.406 Y53.171 E65.85674
G1 X107.094 Y53.477 E65.87128
G1 X104.968 Y57.154 E66.01255
G1 X104.873 Y57.393 E66.0211
G1 X104.841 Y57.663 E66.03014
G1 X104.891 Y57.986 E66.04102
G1 X107.139 Y61.876 E66.19045
G1 X107.524 Y62.162 E66.2064
G1 X107.838 Y62.233 E66.21711
G1 X112.181 Y62.232 E66.36156
G1 X112.513 Y62.146 E66.37296
G1 F2700 E61.37296
G0 F6000 X112.401 Y61.908
G0 X114.702 Y57.637
G0 X112.72 Y53.513
G0 X112.72 Y51.8
G0 X113.82 Y52.16
G1 F2700 E66.37296
G1 F1200 X113.939 Y52.279 E66.37856
G0 F6000 X113.254 Y52.16
G1 F1200 X114.505 Y53.411 E66.4374
G0 F6000 X114.919 Y53.207
G0 X113.246 Y54.385
G0 X113.495 Y54.098
G1 F1200 X116.202 Y56.805 E66.56473
G0 F6000 X116.616 Y56.601
G0 X116.295 Y56.181
G0 X114.769 Y57.062
G0 X115.042 Y56.776
G1 F1200 X117.333 Y59.068 E66.67252
G0 F6000 X117.747 Y58.862
G0 X118.313 Y59.995
G0 X117.899 Y60.199
G1 F1200 X115.364 Y57.664 E66.79176
G0 F6000 X115.247 Y58.113
G1 F1200 X118.465 Y61.33 E66.9431
G0 F6000 X118.878 Y61.126
G0 X119.444 Y62.256
G0 X119.03 Y62.462
G1 F1200 X115.051 Y58.483 E67.13026
G0 F6000 X114.844 Y58.841
G1 F1200 X119.596 Y63.593 E67.35378
G0 F6000 X120.01 Y63.389
G0 X120.576 Y64.521
G0 X120.162 Y64.725
G1 F1200 X114.637 Y59.2 E67.61366
G0 F6000 X114.43 Y59.558
G1 F1200 X120.727 Y65.856 E67.90987
G0 F6000 X121.141 Y65.65
G0 X121.707 Y66.783
G0 X121.293 Y66.987
