;FLAVOR:Marlin
;TIME:349
;Filament used: 0.205448m
;Layer height: 0.2
;MINX:92.5
;MINY:92.5
;MINZ:0.2
;MAXX:127.5
;MAXY:127.5
;MAXZ:4
;Generated with Cura_SteamEngine 5.3.0
M140 S50
M105
M190 S50
M104 S200
M105
M109 S200
M82 ;absolute extrusion mode
M201 X500.00 Y500.00 Z100.00 E5000.00 ;Setup machine max acceleration
M203 X500.00 Y500.00 Z10.00 E50.00 ;Setup machine max feedrate
M204 P500.00 R1000.00 T500.00 ;Setup Print/Retract/Travel acceleration
M205 X8.00 Y8.00 Z0.40 E5.00 ;Setup Jerk
M220 S100 ;Reset Feedrate
M221 S100 ;Reset Flowrate

G28 ;Home

G92 E0 ;Reset Extruder
G1 Z2.0 F3000 ;Move Z Axis up
G1 X10.1 Y20 Z0.28 F5000.0 ;Move to start position
G1 X10.1 Y200.0 Z0.28 F1500.0 E15 ;Draw the first line
G1 X10.4 Y200.0 Z0.28 F5000.0 ;Move to side a little
G1 X10.4 Y20 Z0.28 F1500.0 E30 ;Draw the second line
G92 E0 ;Reset Extruder
G1 Z2.0 F3000 ;Move Z Axis up

G92 E0
G92 E0
G1 F2700 E-5
;LAYER_COUNT:20
;LAYER:0
M107
G0 F6000 X96.481 Y96.117 Z0.2
;TYPE:SKIRT
G1 F2700 E0
G1 F1200 X97.162 Y95.524 E0.03003
G1 X97.894 Y94.994 E0.06009
G1 X98.669 Y94.531 E0.09012
G1 X99.482 Y94.138 E0.12015
G1 X100.327 Y93.818 E0.1502
G1 X101.196 Y93.575 E0.18022
G1 X102.084 Y93.409 E0.21026
G1 X103.223 Y93.313 E0.24828
G1 X103.83 Y93.3 E0.26847
G1 X115.793 Y93.3 E0.66637
G1 X116.637 Y93.311 E0.69444
G1 X117.539 Y93.364 E0.72449
G1 X118.432 Y93.496 E0.75452
G1 X119.31 Y93.707 E0.78455
G1 X120.166 Y93.995 E0.81459
G1 X120.993 Y94.357 E0.84461
G1 X121.785 Y94.792 E0.87467
G1 X122.536 Y95.294 E0.90471
G1 X123.239 Y95.861 E0.93475
G1 X123.889 Y96.488 E0.96479
G1 X124.481 Y97.17 E0.99483
G1 X125.011 Y97.901 E1.02486
G1 X125.473 Y98.677 E1.0549
G1 X125.866 Y99.49 E1.08493
G1 X126.184 Y100.335 E1.11496
G1 X126.427 Y101.205 E1.145
G1 X126.592 Y102.093 E1.17504
G1 X126.687 Y103.223 E1.21276
G1 X126.7 Y103.83 E1.23295
G1 X126.699 Y115.89 E1.63407
G1 X126.69 Y116.617 E1.65825
G1 X126.639 Y117.519 E1.6883
G1 X126.508 Y118.413 E1.71835
G1 X126.299 Y119.291 E1.74837
G1 X126.013 Y120.148 E1.77842
G1 X125.652 Y120.976 E1.80846
G1 X125.22 Y121.768 E1.83847
G1 X124.719 Y122.52 E1.86852
G1 X124.153 Y123.224 E1.89857
G1 X123.528 Y123.875 E1.92858
G1 X122.847 Y124.469 E1.95864
G1 X122.116 Y125 E1.98869
G1 X121.342 Y125.464 E2.01871
G1 X120.529 Y125.858 E2.04875
G1 X119.685 Y126.178 E2.07878
G1 X118.815 Y126.423 E2.10884
G1 X117.928 Y126.589 E2.13885
G1 X116.777 Y126.687 E2.17727
G1 X116.17 Y126.7 E2.19747
G1 X104.075 Y126.699 E2.59975
G1 X103.377 Y126.69 E2.62297
G1 X102.476 Y126.639 E2.65298
G1 X101.582 Y126.507 E2.68304
G1 X100.704 Y126.298 E2.71306
G1 X99.847 Y126.011 E2.74312
G1 X99.02 Y125.65 E2.77313
G1 X98.227 Y125.217 E2.80318
G1 X97.476 Y124.716 E2.83321
G1 X96.772 Y124.15 E2.86325
G1 X96.121 Y123.524 E2.89329
G1 X95.528 Y122.843 E2.92332
G1 X94.998 Y122.112 E2.95335
G1 X94.534 Y121.337 E2.9834
G1 X94.14 Y120.524 E3.01345
G1 X93.82 Y119.68 E3.04347
G1 X93.576 Y118.81 E3.07352
G1 X93.41 Y117.922 E3.10357
G1 X93.313 Y116.767 E3.14212
G1 X93.3 Y116.158 E3.16238
G1 X93.301 Y104.036 E3.56556
G1 X93.31 Y103.371 E3.58768
G1 X93.362 Y102.469 E3.61773
G1 X93.494 Y101.576 E3.64775
G1 X93.704 Y100.698 E3.67778
G1 X93.991 Y99.841 E3.70784
G1 X94.353 Y99.014 E3.73786
G1 X94.786 Y98.222 E3.76788
G1 X95.288 Y97.471 E3.79793
G1 X95.855 Y96.767 E3.82799
G1 X96.481 Y96.117 E3.85801
G0 F6000 X96.218 Y95.815
G1 F1200 X96.899 Y95.222 E3.88804
G1 X97.659 Y94.67 E3.91929
G1 X98.495 Y94.171 E3.95167
G1 X99.34 Y93.764 E3.98286
G1 X100.185 Y93.444 E4.01291
G1 X101.122 Y93.182 E4.04527
G1 X102.05 Y93.01 E4.07667
G1 X103.189 Y92.914 E4.11468
G1 X103.821 Y92.9 E4.13571
G1 X115.798 Y92.9 E4.53407
G1 X116.66 Y92.912 E4.56274
G1 X117.597 Y92.968 E4.59396
G1 X118.49 Y93.1 E4.62398
G1 X119.438 Y93.328 E4.65641
G1 X120.294 Y93.616 E4.68645
G1 X121.186 Y94.006 E4.71883
G1 X121.978 Y94.441 E4.74889
G1 X122.758 Y94.961 E4.78006
G1 X123.517 Y95.573 E4.81249
G1 X124.167 Y96.2 E4.84253
G1 X124.805 Y96.935 E4.8749
G1 X125.355 Y97.696 E4.90613
G1 X125.817 Y98.472 E4.93617
G1 X126.24 Y99.349 E4.96855
G1 X126.569 Y100.227 E4.99974
G1 X126.82 Y101.132 E5.03098
G1 X126.991 Y102.059 E5.06233
G1 X127.086 Y103.189 E5.10005
G1 X127.1 Y103.83 E5.12137
G1 X127.099 Y115.895 E5.52265
G1 X127.089 Y116.64 E5.54744
G1 X127.035 Y117.577 E5.57865
G1 X126.904 Y118.471 E5.6087
G1 X126.688 Y119.384 E5.63991
G1 X126.38 Y120.308 E5.6723
G1 X126.019 Y121.136 E5.70235
G1 X125.553 Y121.99 E5.7347
G1 X125.031 Y122.771 E5.76595
G1 X124.465 Y123.475 E5.79599
G1 X123.817 Y124.152 E5.82716
G1 X123.082 Y124.793 E5.8596
G1 X122.351 Y125.324 E5.88965
G1 X121.548 Y125.807 E5.92082
G1 X120.671 Y126.232 E5.95323
G1 X119.827 Y126.552 E5.98325
G1 X118.889 Y126.816 E6.01566
G1 X117.962 Y126.988 E6.04702
G1 X116.811 Y127.086 E6.08544
G1 X116.179 Y127.1 E6.10647
G1 X104.07 Y127.099 E6.50921
G1 X103.354 Y127.089 E6.53303
G1 X102.418 Y127.035 E6.56421
G1 X101.524 Y126.903 E6.59427
G1 X100.611 Y126.687 E6.62548
G1 X99.687 Y126.378 E6.65788
G1 X98.86 Y126.017 E6.68789
G1 X98.005 Y125.55 E6.7203
G1 X97.225 Y125.028 E6.75151
G1 X96.521 Y124.462 E6.78156
G1 X95.819 Y123.787 E6.81395
G1 X95.226 Y123.106 E6.84398
G1 X94.674 Y122.347 E6.8752
G1 X94.174 Y121.511 E6.9076
G1 X93.766 Y120.666 E6.9388
G1 X93.446 Y119.822 E6.96883
G1 X93.183 Y118.884 E7.00123
G1 X93.011 Y117.955 E7.03265
G1 X92.913 Y116.776 E7.072
G1 X92.9 Y116.158 E7.09256
G1 X92.901 Y104.031 E7.49591
G1 X92.911 Y103.348 E7.51862
G1 X92.966 Y102.411 E7.54984
G1 X93.098 Y101.518 E7.57987
G1 X93.315 Y100.605 E7.61108
G1 X93.612 Y99.714 E7.64232
G1 X94.002 Y98.822 E7.6747
G1 X94.453 Y98 E7.70588
G1 X94.976 Y97.22 E7.73712
G1 X95.543 Y96.516 E7.76718
G1 X96.218 Y95.815 E7.79955
G0 F6000 X95.955 Y95.513
G1 F1200 X96.636 Y94.92 E7.82958
G1 X97.424 Y94.346 E7.86201
G1 X98.321 Y93.811 E7.89675
G1 X99.198 Y93.39 E7.9291
G1 X100.043 Y93.07 E7.95915
G1 X101.049 Y92.789 E7.99389
G1 X102.016 Y92.611 E8.0266
G1 X103.155 Y92.515 E8.06461
G1 X103.812 Y92.5 E8.08647
G1 X115.804 Y92.5 E8.48533
G1 X116.684 Y92.513 E8.5146
G1 X117.655 Y92.572 E8.54696
G1 X118.584 Y92.711 E8.5782
G1 X119.532 Y92.939 E8.61063
G1 X120.454 Y93.249 E8.64298
G1 X121.379 Y93.655 E8.67658
G1 X122.171 Y94.09 E8.70663
G1 X122.98 Y94.628 E8.73895
G1 X123.795 Y95.285 E8.77377
G1 X124.445 Y95.912 E8.8038
G1 X125.107 Y96.673 E8.83735
G1 X125.699 Y97.491 E8.87094
G1 X126.161 Y98.267 E8.90097
G1 X126.615 Y99.209 E8.93575
G1 X126.944 Y100.087 E8.96694
G1 X127.213 Y101.059 E9.00048
G1 X127.39 Y102.025 E9.03315
G1 X127.485 Y103.155 E9.07086
G1 X127.5 Y103.83 E9.09332
G1 X127.499 Y115.9 E9.49477
G1 X127.488 Y116.663 E9.52015
G1 X127.431 Y117.635 E9.55253
G1 X127.3 Y118.529 E9.58259
G1 X127.077 Y119.476 E9.61494
G1 X126.747 Y120.468 E9.64972
G1 X126.386 Y121.296 E9.67976
G1 X125.886 Y122.212 E9.71447
G1 X125.343 Y123.022 E9.7469
G1 X124.777 Y123.726 E9.77695
G1 X124.106 Y124.429 E9.80927
G1 X123.317 Y125.117 E9.84409
G1 X122.586 Y125.648 E9.87414
G1 X121.754 Y126.15 E9.90646
G1 X120.813 Y126.606 E9.94124
G1 X119.969 Y126.926 E9.97126
G1 X118.997 Y127.201 E10.00486
G1 X117.996 Y127.387 E10.03872
G1 X116.845 Y127.485 E10.07714
G1 X116.188 Y127.5 E10.099
G1 X104.064 Y127.499 E10.50224
G1 X103.331 Y127.488 E10.52663
G1 X102.36 Y127.431 E10.55898
G1 X101.466 Y127.299 E10.58903
G1 X100.484 Y127.066 E10.6226
G1 X99.527 Y126.745 E10.65618
G1 X98.7 Y126.384 E10.68619
G1 X97.813 Y125.901 E10.71978
G1 X96.974 Y125.34 E10.75335
G1 X96.27 Y124.774 E10.78339
G1 X95.517 Y124.05 E10.81814
G1 X94.924 Y123.369 E10.84817
G1 X94.331 Y122.552 E10.88175
G1 X93.814 Y121.685 E10.91532
G1 X93.392 Y120.808 E10.94769
G1 X93.072 Y119.964 E10.97771
G1 X92.798 Y118.992 E11.0113
G1 X92.612 Y117.988 E11.04526
G1 X92.514 Y116.809 E11.08461
G1 X92.5 Y116.158 E11.10627
G1 X92.501 Y104.025 E11.50982
G1 X92.512 Y103.325 E11.5331
G1 X92.57 Y102.353 E11.56549
G1 X92.702 Y101.46 E11.59551
G1 X92.926 Y100.513 E11.62788
G1 X93.245 Y99.554 E11.66149
G1 X93.635 Y98.662 E11.69387
G1 X94.102 Y97.808 E11.72625
G1 X94.664 Y96.969 E11.75983
G1 X95.231 Y96.265 E11.7899
G1 X95.955 Y95.513 E11.82462
G1 F2700 E6.82462
;MESH:frame_hole.stl
G0 F6000 X106.552 Y109.223
G0 X108.141 Y112.801
;TYPE:WALL-INNER
G1 F2700 E11.82462
G1 F1200 X107.635 Y112.376 E11.8466
G1 X107.271 Y111.948 E11.86528
G1 X106.986 Y111.467 E11.88388
G1 X106.781 Y110.939 E11.90272
G1 X106.675 Y110.423 E11.92024
G1 X106.653 Y109.821 E11.94027
G1 X106.729 Y109.262 E11.95904
G1 X106.903 Y108.716 E11.9781
G1 X107.158 Y108.222 E11.99659
G1 X107.494 Y107.773 E12.01524
G1 X107.905 Y107.383 E12.03408
G1 X108.379 Y107.064 E12.05309
G1 X108.888 Y106.838 E12.07161
G1 X109.437 Y106.697 E12.09046
G1 X109.999 Y106.646 E12.10923
G1 X110.561 Y106.695 E12.128
G1 X111.112 Y106.838 E12.14693
G1 X111.621 Y107.064 E12.16545
G1 X112.095 Y107.383 E12.18446
G1 X112.506 Y107.773 E12.2033
G1 X112.843 Y108.223 E12.222
G1 X113.097 Y108.717 E12.24047
G1 X113.273 Y109.271 E12.25981
G1 X113.346 Y109.852 E12.27928
G1 X113.325 Y110.423 E12.29829
G1 X113.219 Y110.939 E12.31581
G1 X113.014 Y111.467 E12.33465
G1 X112.729 Y111.948 E12.35324
G1 X112.364 Y112.376 E12.37195
G1 X111.965 Y112.712 E12.3893
G1 X111.655 Y112.85 E12.40059
G1 X108.419 Y112.85 E12.50822
G1 X108.141 Y112.801 E12.51761
G1 F2700 E7.51761
G0 F6000 X111.677 Y113.031
G0 X111.675 Y115.719
G0 X115.9 Y115.9
G1 F2700 E12.51761
G1 F1200 X115.9 Y104.1 E12.91008
G1 X104.1 Y104.1 E13.30254
G1 X104.101 Y115.899 E13.69498
G1 X115.9 Y115.9 E14.08742
G0 F6000 X116.3 Y116.3
;TYPE:WALL-OUTER
G1 F1200 X116.3 Y103.7 E14.5065
G1 X103.7 Y103.7 E14.92557
G1 X103.701 Y116.299 E15.34462
G1 X116.3 Y116.3 E15.76366
G1 F2700 E10.76366
G0 F6000 X116.03 Y116.03
G0 X111.846 Y115.719
G0 X111.677 Y113.031
G0 X111.657 Y112.448
G1 F2700 E15.76366
G1 F1200 X108.346 Y112.45 E15.87379
G1 X107.919 Y112.094 E15.89228
G1 X107.59 Y111.702 E15.9093
G1 X107.355 Y111.305 E15.92464
G1 X107.172 Y110.84 E15.94126
G1 X107.069 Y110.354 E15.95779
G1 X107.056 Y109.825 E15.97539
G1 X107.117 Y109.372 E15.99059
G1 X107.268 Y108.888 E16.00745
G1 X107.507 Y108.423 E16.02484
G1 X107.807 Y108.027 E16.04137
G1 X108.147 Y107.706 E16.05692
G1 X108.587 Y107.41 E16.07456
G1 X109.035 Y107.213 E16.09083
G1 X109.506 Y107.091 E16.10702
G1 X110.018 Y107.049 E16.1241
G1 X110.477 Y107.089 E16.13943
G1 X110.965 Y107.213 E16.15617
G1 X111.413 Y107.41 E16.17245
G1 X111.853 Y107.706 E16.19009
G1 X112.193 Y108.027 E16.20564
G1 X112.493 Y108.423 E16.22216
G1 X112.732 Y108.888 E16.23955
G1 X112.883 Y109.372 E16.25642
G1 X112.946 Y109.852 E16.27252
G1 X112.931 Y110.354 E16.28922
G1 X112.828 Y110.84 E16.30575
G1 X112.645 Y111.305 E16.32237
G1 X112.41 Y111.702 E16.33771
G1 X112.091 Y112.083 E16.35424
G1 X111.657 Y112.448 E16.3731
G1 F2700 E11.3731
G0 F6000 X111.848 Y112.677
G0 X112.492 Y112.503
G0 X112.49 Y115.719
G0 X115.54 Y115.54
;TYPE:SKIN
G1 F2700 E16.3731
G1 F1200 X104.461 Y115.539 E16.74159
G1 X104.461 Y104.461 E17.11004
G1 X115.54 Y104.46 E17.47853
G1 X115.54 Y115.54 E17.84706
G1 F2700 E12.84706
G0 F6000 X115.538 Y115.799
G0 X107.915 Y115.719
G0 X108.144 Y112.982
G0 X108.081 Y113.152
G1 F2700 E17.84706
G1 F1200 X108.385 Y113.207 E17.85733
G1 X111.706 Y113.208 E17.96779
G1 X111.949 Y113.134 E17.97624
G1 X112.196 Y112.987 E17.9858
G1 X112.608 Y112.642 E18.00367
G1 X113.015 Y112.171 E18.02437
G1 X113.333 Y111.636 E18.04507
G1 X113.561 Y111.055 E18.06583
G1 X113.69 Y110.446 E18.08654
G1 X113.705 Y109.789 E18.10839
G1 X113.627 Y109.196 E18.12829
G1 X113.439 Y108.599 E18.14911
G1 X113.157 Y108.045 E18.16978
G1 X112.783 Y107.541 E18.19066
G1 X112.304 Y107.09 E18.21254
G1 X111.821 Y106.763 E18.23194
G1 X111.249 Y106.505 E18.25281
G1 X110.603 Y106.338 E18.275
G1 X109.982 Y106.285 E18.29573
G1 X109.375 Y106.343 E18.31601
G1 X108.757 Y106.504 E18.33725
G1 X108.177 Y106.765 E18.35841
G1 X107.672 Y107.11 E18.37875
G1 X107.217 Y107.541 E18.39959
G1 X106.86 Y108.016 E18.41936
G1 X106.562 Y108.596 E18.44104
G1 X106.373 Y109.196 E18.46197
G1 X106.295 Y109.779 E18.48153
G1 X106.31 Y110.446 E18.50372
G1 X106.439 Y111.055 E18.52443
G1 X106.667 Y111.636 E18.54518
G1 X106.967 Y112.145 E18.56484
G1 X107.375 Y112.628 E18.58586
G1 X107.802 Y112.985 E18.60438
G1 X108.081 Y113.152 E18.61519
G1 F2700 E13.61519
G0 F6000 X107.917 Y112.744
G0 X107.754 Y115.719
G0 X105.155 Y115.338
G1 F2700 E18.61519
G1 F1200 X104.66 Y114.843 E18.63847
G0 F6000 X104.66 Y114.277
G1 F1200 X105.721 Y115.338 E18.68838
G0 F6000 X106.287 Y115.338
G1 F1200 X104.66 Y113.711 E18.76491
G0 F6000 X104.66 Y113.146
G1 F1200 X106.853 Y115.338 E18.86804
G0 F6000 X107.418 Y115.338
G1 F1200 X104.66 Y112.58 E18.99777
G0 F6000 X104.66 Y112.014
G1 F1200 X107.984 Y115.338 E19.15412
G0 F6000 X108.55 Y115.338
G1 F1200 X104.66 Y111.449 E19.33707
G0 F6000 X104.66 Y110.883
G1 F1200 X109.115 Y115.338 E19.54662
G0 F6000 X109.681 Y115.338
G1 F1200 X104.66 Y110.317 E19.78279
G0 F6000 X104.66 Y109.752
G1 F1200 X106.389 Y111.48 E19.86409
G0 F6000 X106.157 Y110.682
G1 F1200 X104.66 Y109.186 E19.93448
G0 F6000 X104.66 Y108.62
G1 F1200 X106.102 Y110.061 E20.00229
G0 F6000 X106.13 Y109.524
G1 F1200 X104.66 Y108.055 E20.07141
G0 F6000 X104.66 Y107.489
G1 F1200 X106.21 Y109.039 E20.14431
G0 F6000 X106.35 Y108.613
G1 F1200 X104.66 Y106.923 E20.22381
G0 F6000 X104.66 Y106.358
G1 F1200 X106.527 Y108.224 E20.3116
G0 F6000 X106.727 Y107.859
G1 F1200 X104.66 Y105.792 E20.40883
G0 F6000 X104.66 Y105.226
G1 F1200 X106.97 Y107.536 E20.51748
G0 F6000 X107.24 Y107.24
G1 F1200 X104.66 Y104.66 E20.63884
G0 F6000 X105.226 Y104.66
G1 F1200 X107.534 Y106.968 E20.7474
G0 F6000 X107.864 Y106.732
G1 F1200 X105.792 Y104.66 E20.84486
G0 F6000 X106.358 Y104.66
G1 F1200 X108.219 Y106.522 E20.93242
G0 F6000 X108.614 Y106.351
G1 F1200 X106.923 Y104.66 E21.01196
G0 F6000 X107.489 Y104.66
G1 F1200 X109.047 Y106.219 E21.08527
G0 F6000 X109.522 Y106.128
G1 F1200 X108.055 Y104.66 E21.15429
G0 F6000 X108.62 Y104.66
G1 F1200 X110.046 Y106.086 E21.22137
G0 F6000 X110.678 Y106.152
G1 F1200 X109.186 Y104.66 E21.29155
G0 F6000 X109.752 Y104.66
G1 F1200 X111.486 Y106.395 E21.37313
G1 F2700 E16.37313
G0 F6000 X111.301 Y106.811
G0 X111.172 Y104.3
G0 X111.449 Y104.66
G1 F2700 E21.37313
G1 F1200 X115.339 Y108.551 E21.55613
G0 F6000 X115.339 Y109.117
G1 F1200 X110.883 Y104.66 E21.76575
G0 F6000 X110.317 Y104.66
G1 F1200 X115.339 Y109.682 E22.00197
G0 F6000 X115.339 Y110.248
G1 F1200 X113.629 Y108.538 E22.0824
G0 F6000 X113.842 Y109.317
G1 F1200 X115.339 Y110.814 E22.15282
G0 F6000 X115.339 Y111.379
G1 F1200 X113.897 Y109.938 E22.22062
G0 F6000 X113.883 Y110.489
G1 F1200 X115.339 Y111.945 E22.2891
G0 F6000 X115.339 Y112.511
G1 F1200 X113.784 Y110.955 E22.36227
G0 F6000 X113.646 Y111.384
G1 F1200 X115.339 Y113.076 E22.44188
G0 F6000 X115.339 Y113.642
G1 F1200 X113.475 Y111.778 E22.52956
G0 F6000 X113.267 Y112.136
G1 F1200 X115.339 Y114.208 E22.62702
G0 F6000 X115.339 Y114.774
G1 F1200 X113.027 Y112.461 E22.73579
G0 F6000 X112.765 Y112.765
G1 F1200 X115.339 Y115.339 E22.85686
G0 F6000 X114.773 Y115.339
G1 F1200 X112.459 Y113.025 E22.96571
G0 F6000 X112.128 Y113.259
G1 F1200 X114.207 Y115.339 E23.06352
G0 F6000 X113.641 Y115.339
G1 F1200 X111.708 Y113.405 E23.15447
G0 F6000 X111.143 Y113.405
G1 F1200 X113.076 Y115.339 E23.24541
G0 F6000 X112.51 Y115.339
G1 F1200 X110.578 Y113.406 E23.33631
G0 F6000 X110.013 Y113.407
G1 F1200 X111.944 Y115.339 E23.42716
G0 F6000 X111.379 Y115.339
G1 F1200 X109.448 Y113.407 E23.51802
G0 F6000 X108.883 Y113.408
G1 F1200 X110.813 Y115.339 E23.60882
G0 F6000 X110.247 Y115.339
G1 F1200 X108.304 Y113.395 E23.70024
G1 F2700 E18.70024
G0 F6000 X107.917 Y112.744
G0 X111.739 Y112.687
G0 X112.247 Y112.266
G0 X112.596 Y111.856
G0 X112.869 Y111.394
G0 X113.063 Y110.894
G0 X113.324 Y108.771
G0 X115.7 Y108.771
G0 X115.339 Y107.985
G1 F2700 E23.70024
G1 F1200 X112.014 Y104.66 E23.85663
G0 F6000 X112.58 Y104.66
G1 F1200 X115.339 Y107.42 E23.98643
G0 F6000 X115.339 Y106.854
G1 F1200 X113.146 Y104.66 E24.08961
G0 F6000 X113.711 Y104.66
G1 F1200 X115.339 Y106.288 E24.16618
G0 F6000 X115.339 Y105.723
G1 F1200 X114.277 Y104.66 E24.21616
G0 F6000 X114.843 Y104.66
G1 F1200 X115.339 Y105.157 E24.23951
G1 F2700 E19.23951
;MESH:NOMESH
