;FLAVOR:Marlin
;TIME:6345
;Filament used: 6.1995m
;Layer height: 0.2
;MINX:77.9
;MINY:40
;MINZ:0.2
;MAXX:142.1
;MAXY:180
;MAXZ:20
;Generated with Cura_SteamEngine 5.3.0
M140 S50
M105
M190 S50
M104 S200
M105
M109 S200
M82 ;absolute extrusion mode
M201 X500.00 Y500.00 Z100.00 E5000.00 ;Setup machine max acceleration
M203 X500.00 Y500.00 Z10.00 E50.00 ;Setup machine max feedrate
M204 P500.00 R1000.00 T500.00 ;Setup Print/Retract/Travel acceleration
M205 X8.00 Y8.00 Z0.40 E5.00 ;Setup Jerk
M220 S100 ;Reset Feedrate
M221 S100 ;Reset Flowrate

G28 ;Home

G92 E0 ;Reset Extruder
G1 Z2.0 F3000 ;Move Z Axis up
G1 X10.1 Y20 Z0.28 F5000.0 ;Move to start position
G1 X10.1 Y200.0 Z0.28 F1500.0 E15 ;Draw the first line
G1 X10.4 Y200.0 Z0.28 F5000.0 ;Move to side a little
G1 X10.4 Y20 Z0.28 F1500.0 E30 ;Draw the second line
G92 E0 ;Reset Extruder
G1 Z2.0 F3000 ;Move Z Axis up

G92 E0
G92 E0
G1 F2700 E-5
;LAYER_COUNT:100
;LAYER:0
M107
G0 F6000 X80.695 Y53.961 Z0.2
;TYPE:SKIRT
G1 F2700 E0
G1 F1200 X81.262 Y53.258 E0.03004
G1 X81.889 Y52.608 E0.06008
G1 X82.571 Y52.016 E0.09011
G1 X83.303 Y51.487 E0.12015
G1 X84.078 Y51.024 E0.15018
G1 X84.682 Y50.725 E0.1726
G1 X87.451 Y49.429 E0.27428
G1 X89.728 Y48.277 E0.35915
G1 X91.97 Y47.064 E0.44394
G1 X94.141 Y45.807 E0.52738
G1 X96.312 Y44.468 E0.61221
G1 X99.263 Y42.511 E0.72999
G1 X100.037 Y42.045 E0.76003
G1 X100.849 Y41.65 E0.79007
G1 X101.693 Y41.329 E0.8201
G1 X102.562 Y41.083 E0.85014
G1 X103.45 Y40.915 E0.8802
G1 X104.724 Y40.813 E0.92271
G1 X105.536 Y40.8 E0.94972
G1 X114.393 Y40.8 E1.2443
G1 X115.236 Y40.811 E1.27234
G1 X116.138 Y40.864 E1.3024
G1 X117.031 Y40.996 E1.33242
G1 X117.909 Y41.207 E1.36245
G1 X118.765 Y41.495 E1.39249
G1 X119.593 Y41.858 E1.42256
G1 X120.384 Y42.292 E1.45257
G1 X121.135 Y42.794 E1.48262
G1 X121.838 Y43.361 E1.51266
G1 X122.488 Y43.988 E1.54269
G1 X123.08 Y44.67 E1.57273
G1 X123.61 Y45.401 E1.60276
G1 X124.138 Y46.302 E1.6375
G1 X124.597 Y47.186 E1.67063
G1 X139.921 Y77.833 E2.81027
G1 X140.271 Y78.558 E2.83705
G1 X140.626 Y79.388 E2.86707
G1 X140.907 Y80.247 E2.89713
G1 X141.11 Y81.127 E2.92717
G1 X141.235 Y82.021 E2.95719
G1 X141.278 Y82.775 E2.98231
G1 X141.3 Y83.972 E3.02213
G1 X141.299 Y132.438 E4.63412
G1 X141.289 Y133.14 E4.65747
G1 X141.236 Y134.042 E4.68752
G1 X141.104 Y134.935 E4.71755
G1 X140.893 Y135.813 E4.74758
G1 X140.605 Y136.669 E4.77762
G1 X140.243 Y137.497 E4.80767
G1 X139.809 Y138.289 E4.83771
G1 X139.306 Y139.039 E4.86775
G1 X138.74 Y139.742 E4.89777
G1 X138.113 Y140.392 E4.9278
G1 X137.431 Y140.984 E4.95784
G1 X136.559 Y141.605 E4.99345
G1 X136.094 Y141.901 E5.01178
G1 X133.917 Y143.329 E5.09838
G1 X131.824 Y144.79 E5.18327
G1 X129.785 Y146.297 E5.2676
G1 X127.784 Y147.869 E5.35224
G1 X125.86 Y149.47 E5.43549
G1 X123.92 Y151.179 E5.52148
G1 X122.062 Y152.911 E5.60596
G1 X120.294 Y154.655 E5.68856
G1 X118.505 Y156.523 E5.77459
G1 X116.804 Y158.404 E5.85894
G1 X115.143 Y160.346 E5.94393
G1 X113.558 Y162.309 E6.02785
G1 X112.036 Y164.31 E6.11146
G1 X110.547 Y166.385 E6.19641
G1 X109.106 Y168.518 E6.28202
G1 X107.771 Y170.62 E6.36485
G1 X106.407 Y172.907 E6.45341
G1 X105.732 Y174.08 E6.49843
G1 X105.247 Y174.842 E6.52847
G1 X104.697 Y175.558 E6.5585
G1 X104.086 Y176.222 E6.58851
G1 X103.418 Y176.83 E6.61855
G1 X102.699 Y177.377 E6.6486
G1 X101.934 Y177.857 E6.67864
G1 X101.13 Y178.268 E6.70867
G1 X100.293 Y178.607 E6.73871
G1 X99.429 Y178.87 E6.76874
G1 X98.545 Y179.055 E6.79878
G1 X97.209 Y179.185 E6.84343
G1 X96.57 Y179.2 E6.86469
G1 X89.475 Y179.199 E7.10067
G1 X88.777 Y179.19 E7.12389
G1 X87.876 Y179.139 E7.1539
G1 X86.982 Y179.007 E7.18396
G1 X86.104 Y178.798 E7.21398
G1 X85.247 Y178.511 E7.24404
G1 X84.42 Y178.15 E7.27405
G1 X83.627 Y177.717 E7.3041
G1 X82.876 Y177.216 E7.33413
G1 X82.172 Y176.65 E7.36417
G1 X81.521 Y176.024 E7.39421
G1 X80.928 Y175.343 E7.42424
G1 X80.398 Y174.612 E7.45427
G1 X79.934 Y173.837 E7.48432
G1 X79.54 Y173.024 E7.51437
G1 X79.22 Y172.18 E7.54439
G1 X78.976 Y171.31 E7.57444
G1 X78.81 Y170.422 E7.60449
G1 X78.713 Y169.267 E7.64304
G1 X78.7 Y168.658 E7.6633
G1 X78.701 Y60.55 E11.25898
G1 X78.711 Y59.859 E11.28197
G1 X78.764 Y58.958 E11.31199
G1 X78.897 Y58.065 E11.34202
G1 X79.108 Y57.186 E11.37208
G1 X79.396 Y56.33 E11.40212
G1 X79.758 Y55.503 E11.43215
G1 X80.192 Y54.711 E11.46219
G1 X80.695 Y53.961 E11.49222
G0 F6000 X80.363 Y53.738
G1 F1200 X80.974 Y52.98 E11.5246
G1 X81.601 Y52.33 E11.55464
G1 X82.309 Y51.714 E11.58586
G1 X83.069 Y51.163 E11.61708
G1 X83.873 Y50.681 E11.64826
G1 X84.512 Y50.363 E11.672
G1 X87.27 Y49.072 E11.77328
G1 X89.547 Y47.92 E11.85815
G1 X91.78 Y46.712 E11.9426
G1 X93.941 Y45.461 E12.02565
G1 X96.102 Y44.128 E12.11009
G1 X99.057 Y42.168 E12.22803
G1 X99.862 Y41.685 E12.25926
G1 X100.674 Y41.29 E12.28929
G1 X101.584 Y40.944 E12.32167
G1 X102.453 Y40.698 E12.35171
G1 X103.418 Y40.516 E12.38437
G1 X104.692 Y40.414 E12.42688
G1 X105.53 Y40.4 E12.45476
G1 X114.398 Y40.4 E12.74971
G1 X115.259 Y40.412 E12.77835
G1 X116.196 Y40.468 E12.80957
G1 X117.089 Y40.6 E12.83959
G1 X118.037 Y40.828 E12.87202
G1 X118.893 Y41.116 E12.90206
G1 X119.785 Y41.507 E12.93445
G1 X120.606 Y41.959 E12.96562
G1 X121.357 Y42.461 E12.99567
G1 X122.116 Y43.073 E13.0281
G1 X122.766 Y43.7 E13.05814
G1 X123.404 Y44.435 E13.09051
G1 X123.934 Y45.166 E13.12054
G1 X124.493 Y46.118 E13.15726
G1 X124.955 Y47.007 E13.19058
G1 X140.281 Y77.659 E14.3304
G1 X140.639 Y78.401 E14.35781
G1 X140.994 Y79.231 E14.38783
G1 X141.297 Y80.157 E14.42024
G1 X141.5 Y81.037 E14.45027
G1 X141.631 Y81.966 E14.48148
G1 X141.678 Y82.768 E14.5082
G1 X141.7 Y83.972 E14.54825
G1 X141.699 Y132.444 E16.16044
G1 X141.688 Y133.163 E16.18435
G1 X141.632 Y134.1 E16.21557
G1 X141.5 Y134.993 E16.2456
G1 X141.272 Y135.941 E16.27803
G1 X140.972 Y136.829 E16.3092
G1 X140.61 Y137.657 E16.33926
G1 X140.16 Y138.481 E16.37048
G1 X139.618 Y139.29 E16.40287
G1 X139.028 Y140.02 E16.43409
G1 X138.401 Y140.67 E16.46413
G1 X137.663 Y141.31 E16.49662
G1 X136.774 Y141.942 E16.5329
G1 X136.309 Y142.238 E16.55123
G1 X134.146 Y143.657 E16.63727
G1 X132.062 Y145.112 E16.72181
G1 X130.023 Y146.619 E16.80614
G1 X128.031 Y148.184 E16.89039
G1 X126.116 Y149.777 E16.97324
G1 X124.193 Y151.472 E17.0585
G1 X122.335 Y153.204 E17.14299
G1 X120.575 Y154.94 E17.22521
G1 X118.794 Y156.8 E17.31086
G1 X117.101 Y158.672 E17.39481
G1 X115.447 Y160.606 E17.47945
G1 X113.869 Y162.56 E17.56299
G1 X112.361 Y164.543 E17.64585
G1 X110.872 Y166.618 E17.73079
G1 X109.444 Y168.732 E17.81564
G1 X108.115 Y170.825 E17.8981
G1 X106.751 Y173.112 E17.98667
G1 X106.079 Y174.28 E18.03149
G1 X105.564 Y175.086 E18.0633
G1 X105.014 Y175.802 E18.09333
G1 X104.355 Y176.518 E18.1257
G1 X103.687 Y177.126 E18.15574
G1 X102.912 Y177.716 E18.18814
G1 X102.147 Y178.196 E18.21817
G1 X101.28 Y178.639 E18.25056
G1 X100.409 Y178.99 E18.28179
G1 X99.511 Y179.262 E18.313
G1 X98.627 Y179.447 E18.34304
G1 X97.218 Y179.585 E18.39012
G1 X96.579 Y179.6 E18.41138
G1 X89.47 Y179.599 E18.64783
G1 X88.754 Y179.589 E18.67165
G1 X87.818 Y179.535 E18.70283
G1 X86.924 Y179.403 E18.73289
G1 X86.011 Y179.187 E18.76409
G1 X85.087 Y178.878 E18.7965
G1 X84.26 Y178.517 E18.82651
G1 X83.405 Y178.05 E18.85891
G1 X82.625 Y177.528 E18.89013
G1 X81.921 Y176.962 E18.92017
G1 X81.219 Y176.287 E18.95256
G1 X80.626 Y175.606 E18.9826
G1 X80.074 Y174.847 E19.01381
G1 X79.574 Y174.011 E19.04621
G1 X79.166 Y173.166 E19.07742
G1 X78.846 Y172.322 E19.10744
G1 X78.583 Y171.384 E19.13984
G1 X78.411 Y170.455 E19.17127
G1 X78.313 Y169.276 E19.21062
G1 X78.3 Y168.658 E19.23117
G1 X78.301 Y60.544 E22.82706
G1 X78.311 Y59.853 E22.85005
G1 X78.368 Y58.899 E22.88183
G1 X78.501 Y58.006 E22.91186
G1 X78.729 Y57.058 E22.94429
G1 X79.017 Y56.202 E22.97433
G1 X79.407 Y55.311 E23.00668
G1 X79.86 Y54.488 E23.03793
G1 X80.363 Y53.738 E23.06796
G0 F6000 X80.031 Y53.515
G1 F1200 X80.686 Y52.702 E23.10269
G1 X81.338 Y52.028 E23.13388
G1 X82.046 Y51.412 E23.16509
G1 X82.834 Y50.839 E23.19749
G1 X83.667 Y50.338 E23.22983
G1 X84.342 Y50.001 E23.25492
G1 X87.089 Y48.715 E23.3558
G1 X89.366 Y47.563 E23.44067
G1 X91.59 Y46.36 E23.52477
G1 X93.741 Y45.115 E23.60744
G1 X95.892 Y43.788 E23.6915
G1 X98.851 Y41.825 E23.8096
G1 X99.687 Y41.325 E23.842
G1 X100.499 Y40.93 E23.87203
G1 X101.475 Y40.559 E23.90676
G1 X102.344 Y40.313 E23.9368
G1 X103.386 Y40.117 E23.97207
G1 X104.685 Y40.014 E24.01541
G1 X105.523 Y40 E24.04328
G1 X114.404 Y40 E24.33866
G1 X115.283 Y40.013 E24.3679
G1 X116.254 Y40.072 E24.40026
G1 X117.183 Y40.211 E24.4315
G1 X118.131 Y40.439 E24.46393
G1 X119.021 Y40.737 E24.49515
G1 X119.946 Y41.141 E24.52872
G1 X120.828 Y41.626 E24.5622
G1 X121.579 Y42.128 E24.59224
G1 X122.394 Y42.785 E24.62706
G1 X123.044 Y43.412 E24.6571
G1 X123.728 Y44.2 E24.6918
G1 X124.279 Y44.963 E24.72311
G1 X124.848 Y45.934 E24.76054
G1 X125.313 Y46.828 E24.79406
G1 X140.641 Y77.485 E25.93406
G1 X141.007 Y78.244 E25.96208
G1 X141.362 Y79.074 E25.99211
G1 X141.687 Y80.067 E26.02686
G1 X141.89 Y80.947 E26.0569
G1 X142.027 Y81.91 E26.08925
G1 X142.078 Y82.761 E26.11761
G1 X142.1 Y83.972 E26.15789
G1 X142.099 Y132.45 E27.77027
G1 X142.087 Y133.187 E27.79479
G1 X142.028 Y134.158 E27.82715
G1 X141.889 Y135.087 E27.85839
G1 X141.661 Y136.035 E27.89082
G1 X141.339 Y136.989 E27.92431
G1 X140.977 Y137.817 E27.95436
G1 X140.511 Y138.673 E27.98678
G1 X139.95 Y139.513 E28.02038
G1 X139.316 Y140.298 E28.05394
G1 X138.689 Y140.948 E28.08398
G1 X137.895 Y141.636 E28.11892
G1 X136.989 Y142.279 E28.15587
G1 X136.524 Y142.575 E28.1742
G1 X134.375 Y143.985 E28.25969
G1 X132.3 Y145.434 E28.34387
G1 X130.261 Y146.941 E28.4282
G1 X128.287 Y148.492 E28.51169
G1 X126.372 Y150.084 E28.59452
G1 X124.466 Y151.765 E28.67905
G1 X122.608 Y153.497 E28.76353
G1 X120.856 Y155.225 E28.84538
G1 X119.083 Y157.077 E28.93065
G1 X117.398 Y158.94 E29.0142
G1 X115.751 Y160.866 E29.09849
G1 X114.18 Y162.811 E29.18165
G1 X112.686 Y164.776 E29.26375
G1 X111.197 Y166.851 E29.34869
G1 X109.782 Y168.946 E29.43278
G1 X108.459 Y171.03 E29.51488
G1 X107.095 Y173.317 E29.60345
G1 X106.416 Y174.495 E29.64867
G1 X105.881 Y175.33 E29.68165
G1 X105.331 Y176.046 E29.71168
G1 X104.624 Y176.814 E29.7464
G1 X103.956 Y177.422 E29.77645
G1 X103.125 Y178.055 E29.81119
G1 X102.36 Y178.535 E29.84123
G1 X101.43 Y179.01 E29.87596
G1 X100.525 Y179.373 E29.90839
G1 X99.593 Y179.654 E29.94077
G1 X98.709 Y179.839 E29.97081
G1 X97.227 Y179.985 E30.02034
G1 X96.588 Y180 E30.0416
G1 X89.464 Y179.999 E30.27854
G1 X88.731 Y179.988 E30.30292
G1 X87.76 Y179.931 E30.33528
G1 X86.866 Y179.799 E30.36533
G1 X85.884 Y179.566 E30.3989
G1 X84.927 Y179.245 E30.43247
G1 X84.1 Y178.884 E30.46249
G1 X83.213 Y178.401 E30.49608
G1 X82.374 Y177.84 E30.52965
G1 X81.67 Y177.274 E30.55969
G1 X80.917 Y176.55 E30.59444
G1 X80.324 Y175.869 E30.62447
G1 X79.731 Y175.052 E30.65805
G1 X79.214 Y174.185 E30.69162
G1 X78.792 Y173.308 E30.72399
G1 X78.472 Y172.464 E30.75401
G1 X78.198 Y171.492 E30.7876
G1 X78.012 Y170.488 E30.82156
G1 X77.914 Y169.309 E30.86091
G1 X77.9 Y168.658 E30.88257
G1 X77.901 Y60.538 E34.47865
G1 X77.912 Y59.829 E34.50224
G1 X77.972 Y58.84 E34.53519
G1 X78.105 Y57.947 E34.56522
G1 X78.34 Y56.964 E34.59884
G1 X78.638 Y56.074 E34.63006
G1 X79.057 Y55.118 E34.66477
G1 X79.528 Y54.265 E34.69718
G1 X80.031 Y53.515 E34.72722
G1 F2700 E29.72722
;MESH:frame.stl
G0 F6000 X105.063 Y57.926
G0 X107.699 Y61.841
;TYPE:WALL-INNER
G1 F2700 E34.72722
G1 F1200 X107.411 Y61.627 E34.73915
G1 X105.234 Y57.86 E34.88386
G1 X105.213 Y57.503 E34.89575
G1 X105.279 Y57.336 E34.90173
G1 X107.381 Y53.699 E35.04144
G1 X107.581 Y53.491 E35.05104
G1 X107.818 Y53.4 E35.05948
G1 X112.099 Y53.4 E35.20187
G1 X112.419 Y53.491 E35.21294
G1 X112.619 Y53.699 E35.22253
G1 X114.738 Y57.368 E35.36345
G1 X114.796 Y57.548 E35.36974
G1 X114.79 Y57.761 E35.37683
G1 X114.721 Y57.938 E35.38315
G1 X112.583 Y61.638 E35.52528
G1 X112.327 Y61.831 E35.53594
G1 X112.137 Y61.874 E35.54242
G1 X107.875 Y61.875 E35.68418
G1 X107.699 Y61.841 E35.69014
G1 F2700 E30.69014
G0 F6000 X122.788 Y132.263
G0 X96.3 Y168.4
G1 F2700 E35.69014
G1 F1200 X96.3 Y165.144 E35.79843
G1 X92.363 Y157.269 E36.09127
G1 X92.3 Y157.08 E36.09789
G1 X92.3 Y148.001 E36.39986
G1 X92.348 Y147.763 E36.40794
G1 X92.474 Y147.577 E36.41541
G1 X92.632 Y147.463 E36.42189
G1 X122.866 Y132.447 E37.54467
G1 X123.042 Y132.402 E37.55071
G1 X130.5 Y132.4 E37.79877
G1 X130.5 Y83.144 E39.43703
G1 X114.728 Y51.601 E40.60999
G1 X105.17 Y51.6 E40.92789
G1 X97.299 Y60.455 E41.32194
G1 X97.123 Y60.558 E41.32873
G1 X96.9 Y60.6 E41.33627
G1 X89.5 Y60.6 E41.5824
G1 X89.5 Y168.4 E45.16784
G1 X96.3 Y168.4 E45.39401
G0 F6000 X96.7 Y168.8
;TYPE:WALL-OUTER
G1 F1200 X96.7 Y165.05 E45.51874
G1 X92.702 Y157.052 E45.81613
G1 X92.7 Y147.945 E46.11903
G1 X92.77 Y147.841 E46.1232
G1 X123.052 Y132.8 E47.24779
G1 X130.9 Y132.8 E47.50881
G1 X130.9 Y83.05 E49.1635
G1 X114.975 Y51.201 E50.34785
G1 X104.99 Y51.2 E50.67995
G1 X97.036 Y60.148 E51.07814
G1 X96.939 Y60.197 E51.08176
G1 X89.1 Y60.2 E51.34248
G1 X89.1 Y168.8 E54.95454
G1 X96.7 Y168.8 E55.20731
G1 F2700 E50.20731
G0 F6000 X96.43 Y168.53
G0 X96.462 Y165.104
G0 X92.462 Y157.103
G0 X92.467 Y147.731
G0 X122.305 Y132.926
G0 X122.788 Y132.263
G0 X112.148 Y62.055
G0 X107.758 Y61.424
G1 F2700 E55.20731
G1 F1200 X105.592 Y57.68 E55.35118
G1 X105.625 Y57.536 E55.35609
G1 X107.727 Y53.899 E55.49581
G1 X107.866 Y53.802 E55.50144
G1 X112.099 Y53.8 E55.64223
G1 X112.238 Y53.839 E55.64704
G1 X114.401 Y57.583 E55.79085
G1 X114.397 Y57.699 E55.79471
G1 X112.25 Y61.416 E55.93748
G1 X112.126 Y61.474 E55.94203
G1 X107.874 Y61.474 E56.08345
G1 X107.758 Y61.424 E56.08766
G1 F2700 E51.08766
G0 F6000 X107.496 Y61.575
G0 X107.771 Y62.056
G0 X122.788 Y132.263
G0 X95.94 Y168.04
;TYPE:SKIN
G1 F2700 E56.08766
G1 F1200 X89.86 Y168.04 E56.28988
G1 X89.86 Y60.96 E59.85137
G1 X97.002 Y60.955 E60.08892
G1 X97.339 Y60.854 E60.10062
G1 X97.546 Y60.72 E60.10882
G1 X105.332 Y51.961 E60.4986
G1 X114.503 Y51.961 E60.80363
G1 X130.14 Y83.232 E61.9665
G1 X130.14 Y132.04 E63.58986
G1 X123.01 Y132.043 E63.827
G1 X122.725 Y132.115 E63.83678
G1 X92.466 Y147.142 E64.96047
G1 X92.215 Y147.322 E64.97074
G1 X92.013 Y147.62 E64.98272
G1 X91.943 Y147.961 E64.9943
G1 X91.942 Y157.135 E65.29942
G1 X92.029 Y157.402 E65.30876
G1 X95.94 Y165.232 E65.59987
G1 X95.94 Y168.04 E65.69326
G1 F2700 E60.69326
G0 F6000 X96.2 Y168.04
G0 X96.462 Y165.104
G0 X92.462 Y157.103
G0 X92.467 Y147.731
G0 X122.288 Y132.935
G0 X122.788 Y132.263
G0 X112.148 Y62.055
G0 X107.733 Y62.235
G1 F2700 E65.69326
G1 F1200 X112.181 Y62.232 E65.84121
G1 X112.556 Y62.122 E65.8542
G1 X112.752 Y61.98 E65.86225
G1 X112.928 Y61.762 E65.87157
G1 X115.032 Y58.12 E66.01147
G1 X115.145 Y57.836 E66.02163
G1 X115.155 Y57.492 E66.03308
G1 X115.063 Y57.211 E66.04291
G1 X112.922 Y53.502 E66.18535
G1 X112.609 Y53.179 E66.20031
G1 X112.127 Y53.04 E66.217
G1 X107.761 Y53.042 E66.36221
G1 X107.383 Y53.184 E66.37564
G1 X107.067 Y53.52 E66.39098
G1 X104.965 Y57.158 E66.53073
G1 X104.872 Y57.393 E66.53913
G1 X104.841 Y57.665 E66.54824
G1 X104.891 Y57.987 E66.55908
G1 X107.128 Y61.852 E66.70761
G1 X107.412 Y62.103 E66.72021
G1 X107.733 Y62.235 E66.73176
G1 F2700 E61.73176
G0 F6000 X107.786 Y61.977
G0 X112.351 Y61.709
G0 X114.702 Y57.637
G0 X112.516 Y53.339
G0 X112.518 Y51.781
G0 X113.82 Y52.161
G1 F2700 E66.73176
G1 F1200 X114.935 Y53.276 E66.7842
G0 F6000 X115.35 Y53.071
G0 X115.915 Y54.201
G0 X115.501 Y54.407
G1 F1200 X113.255 Y52.161 E66.88985
G0 F6000 X112.689 Y52.161
G1 F1200 X116.067 Y55.538 E67.04872
G0 F6000 X116.481 Y55.333
G0 X117.047 Y56.465
G0 X116.633 Y56.671
G1 F1200 X112.123 Y52.161 E67.26085
G0 F6000 X111.558 Y52.161
G1 F1200 X112.27 Y52.873 E67.29434
G0 F6000 X111.671 Y52.839
G1 F1200 X110.992 Y52.161 E67.32626
G0 F6000 X110.426 Y52.161
G1 F1200 X111.106 Y52.84 E67.35822
G0 F6000 X110.541 Y52.841
G1 F1200 X109.861 Y52.161 E67.3902
G0 F6000 X109.295 Y52.161
G1 F1200 X109.976 Y52.842 E67.42224
G0 F6000 X109.411 Y52.842
G1 F1200 X108.729 Y52.161 E67.45429
G0 F6000 X108.164 Y52.161
G1 F1200 X108.846 Y52.843 E67.48637
G0 F6000 X108.281 Y52.844
G1 F1200 X107.598 Y52.161 E67.5185
G0 F6000 X107.032 Y52.161
