;FLAVOR:Marlin
;TIME:6429
;Filament used: 6.10463m
;Layer height: 0.2
;MINX:77.9
;MINY:40
;MINZ:0.2
;MAXX:142.1
;MAXY:180
;MAXZ:20
;Generated with Cura_SteamEngine 5.3.0
M140 S50
M105
M190 S50
M104 S200
M105
M109 S200
M82 ;absolute extrusion mode
M201 X500.00 Y500.00 Z100.00 E5000.00 ;Setup machine max acceleration
M203 X500.00 Y500.00 Z10.00 E50.00 ;Setup machine max feedrate
M204 P500.00 R1000.00 T500.00 ;Setup Print/Retract/Travel acceleration
M205 X8.00 Y8.00 Z0.40 E5.00 ;Setup Jerk
M220 S100 ;Reset Feedrate
M221 S100 ;Reset Flowrate

G28 ;Home

G92 E0 ;Reset Extruder
G1 Z2.0 F3000 ;Move Z Axis up
G1 X10.1 Y20 Z0.28 F5000.0 ;Move to start position
G1 X10.1 Y200.0 Z0.28 F1500.0 E15 ;Draw the first line
G1 X10.4 Y200.0 Z0.28 F5000.0 ;Move to side a little
G1 X10.4 Y20 Z0.28 F1500.0 E30 ;Draw the second line
G92 E0 ;Reset Extruder
G1 Z2.0 F3000 ;Move Z Axis up

G92 E0
G92 E0
G1 F2700 E-5
;LAYER_COUNT:100
;LAYER:0
M107
G0 F6000 X80.695 Y53.961 Z0.2
;TYPE:SKIRT
G1 F2700 E0
G1 F1200 X81.262 Y53.258 E0.03004
G1 X81.889 Y52.608 E0.06008
G1 X82.571 Y52.016 E0.09011
G1 X83.303 Y51.487 E0.12015
G1 X84.078 Y51.024 E0.15018
G1 X84.682 Y50.725 E0.1726
G1 X87.451 Y49.429 E0.27428
G1 X89.728 Y48.277 E0.35915
G1 X91.97 Y47.064 E0.44394
G1 X94.141 Y45.807 E0.52738
G1 X96.312 Y44.468 E0.61221
G1 X99.263 Y42.511 E0.72999
G1 X100.037 Y42.045 E0.76003
G1 X100.849 Y41.65 E0.79007
G1 X101.693 Y41.329 E0.8201
G1 X102.562 Y41.083 E0.85014
G1 X103.45 Y40.915 E0.8802
G1 X104.724 Y40.813 E0.92271
G1 X105.536 Y40.8 E0.94972
G1 X114.393 Y40.8 E1.2443
G1 X115.236 Y40.811 E1.27234
G1 X116.138 Y40.864 E1.3024
G1 X117.031 Y40.996 E1.33242
G1 X117.909 Y41.207 E1.36245
G1 X118.765 Y41.495 E1.39249
G1 X119.593 Y41.858 E1.42256
G1 X120.384 Y42.292 E1.45257
G1 X121.135 Y42.794 E1.48262
G1 X121.838 Y43.361 E1.51266
G1 X122.488 Y43.988 E1.54269
G1 X123.08 Y44.67 E1.57273
G1 X123.61 Y45.401 E1.60276
G1 X124.138 Y46.302 E1.6375
G1 X124.597 Y47.186 E1.67063
G1 X139.921 Y77.833 E2.81027
G1 X140.271 Y78.558 E2.83705
G1 X140.626 Y79.388 E2.86707
G1 X140.907 Y80.247 E2.89713
G1 X141.11 Y81.127 E2.92717
G1 X141.235 Y82.021 E2.95719
G1 X141.278 Y82.775 E2.98231
G1 X141.3 Y83.972 E3.02213
G1 X141.299 Y132.438 E4.63412
G1 X141.289 Y133.14 E4.65747
G1 X141.236 Y134.042 E4.68752
G1 X141.104 Y134.935 E4.71755
G1 X140.893 Y135.813 E4.74758
G1 X140.605 Y136.669 E4.77762
G1 X140.243 Y137.497 E4.80767
G1 X139.809 Y138.289 E4.83771
G1 X139.306 Y139.039 E4.86775
G1 X138.74 Y139.742 E4.89777
G1 X138.113 Y140.392 E4.9278
G1 X137.431 Y140.984 E4.95784
G1 X136.559 Y141.605 E4.99345
G1 X136.094 Y141.901 E5.01178
G1 X133.917 Y143.329 E5.09838
G1 X131.824 Y144.79 E5.18327
G1 X129.785 Y146.297 E5.2676
G1 X127.784 Y147.869 E5.35224
G1 X125.86 Y149.47 E5.43549
G1 X123.92 Y151.179 E5.52148
G1 X122.062 Y152.911 E5.60596
G1 X120.294 Y154.655 E5.68856
G1 X118.505 Y156.523 E5.77459
G1 X116.804 Y158.404 E5.85894
G1 X115.143 Y160.346 E5.94393
G1 X113.558 Y162.309 E6.02785
G1 X112.036 Y164.31 E6.11146
G1 X110.547 Y166.385 E6.19641
G1 X109.106 Y168.518 E6.28202
G1 X107.771 Y170.62 E6.36485
G1 X106.407 Y172.907 E6.45341
G1 X105.732 Y174.08 E6.49843
G1 X105.247 Y174.842 E6.52847
G1 X104.697 Y175.558 E6.5585
G1 X104.086 Y176.222 E6.58851
G1 X103.418 Y176.83 E6.61855
G1 X102.699 Y177.377 E6.6486
G1 X101.934 Y177.857 E6.67864
G1 X101.13 Y178.268 E6.70867
G1 X100.293 Y178.607 E6.73871
G1 X99.429 Y178.87 E6.76874
G1 X98.545 Y179.055 E6.79878
G1 X97.209 Y179.185 E6.84343
G1 X96.57 Y179.2 E6.86469
G1 X89.475 Y179.199 E7.10067
G1 X88.777 Y179.19 E7.12389
G1 X87.876 Y179.139 E7.1539
G1 X86.982 Y179.007 E7.18396
G1 X86.104 Y178.798 E7.21398
G1 X85.247 Y178.511 E7.24404
G1 X84.42 Y178.15 E7.27405
G1 X83.627 Y177.717 E7.3041
G1 X82.876 Y177.216 E7.33413
G1 X82.172 Y176.65 E7.36417
G1 X81.521 Y176.024 E7.39421
G1 X80.928 Y175.343 E7.42424
G1 X80.398 Y174.612 E7.45427
G1 X79.934 Y173.837 E7.48432
G1 X79.54 Y173.024 E7.51437
G1 X79.22 Y172.18 E7.54439
G1 X78.976 Y171.31 E7.57444
G1 X78.81 Y170.422 E7.60449
G1 X78.713 Y169.267 E7.64304
G1 X78.7 Y168.658 E7.6633
G1 X78.701 Y60.55 E11.25898
G1 X78.711 Y59.859 E11.28197
G1 X78.764 Y58.958 E11.31199
G1 X78.897 Y58.065 E11.34202
G1 X79.108 Y57.186 E11.37208
G1 X79.396 Y56.33 E11.40212
G1 X79.758 Y55.503 E11.43215
G1 X80.192 Y54.711 E11.46219
G1 X80.695 Y53.961 E11.49222
G0 F6000 X80.363 Y53.738
G1 F1200 X80.974 Y52.98 E11.5246
G1 X81.601 Y52.33 E11.55464
G1 X82.309 Y51.714 E11.58586
G1 X83.069 Y51.163 E11.61708
G1 X83.873 Y50.681 E11.64826
G1 X84.512 Y50.363 E11.672
G1 X87.27 Y49.072 E11.77328
G1 X89.547 Y47.92 E11.85815
G1 X91.78 Y46.712 E11.9426
G1 X93.941 Y45.461 E12.02565
G1 X96.102 Y44.128 E12.11009
G1 X99.057 Y42.168 E12.22803
G1 X99.862 Y41.685 E12.25926
G1 X100.674 Y41.29 E12.28929
G1 X101.584 Y40.944 E12.32167
G1 X102.453 Y40.698 E12.35171
G1 X103.418 Y40.516 E12.38437
G1 X104.692 Y40.414 E12.42688
G1 X105.53 Y40.4 E12.45476
G1 X114.398 Y40.4 E12.74971
G1 X115.259 Y40.412 E12.77835
G1 X116.196 Y40.468 E12.80957
G1 X117.089 Y40.6 E12.83959
G1 X118.037 Y40.828 E12.87202
G1 X118.893 Y41.116 E12.90206
G1 X119.785 Y41.507 E12.93445
G1 X120.606 Y41.959 E12.96562
G1 X121.357 Y42.461 E12.99567
G1 X122.116 Y43.073 E13.0281
G1 X122.766 Y43.7 E13.05814
G1 X123.404 Y44.435 E13.09051
G1 X123.934 Y45.166 E13.12054
G1 X124.493 Y46.118 E13.15726
G1 X124.955 Y47.007 E13.19058
G1 X140.281 Y77.659 E14.3304
G1 X140.639 Y78.401 E14.35781
G1 X140.994 Y79.231 E14.38783
G1 X141.297 Y80.157 E14.42024
G1 X141.5 Y81.037 E14.45027
G1 X141.631 Y81.966 E14.48148
G1 X141.678 Y82.768 E14.5082
G1 X141.7 Y83.972 E14.54825
G1 X141.699 Y132.444 E16.16044
G1 X141.688 Y133.163 E16.18435
G1 X141.632 Y134.1 E16.21557
G1 X141.5 Y134.993 E16.2456
G1 X141.272 Y135.941 E16.27803
G1 X140.972 Y136.829 E16.3092
G1 X140.61 Y137.657 E16.33926
G1 X140.16 Y138.481 E16.37048
G1 X139.618 Y139.29 E16.40287
G1 X139.028 Y140.02 E16.43409
G1 X138.401 Y140.67 E16.46413
G1 X137.663 Y141.31 E16.49662
G1 X136.774 Y141.942 E16.5329
G1 X136.309 Y142.238 E16.55123
G1 X134.146 Y143.657 E16.63727
G1 X132.062 Y145.112 E16.72181
G1 X130.023 Y146.619 E16.80614
G1 X128.031 Y148.184 E16.89039
G1 X126.116 Y149.777 E16.97324
G1 X124.193 Y151.472 E17.0585
G1 X122.335 Y153.204 E17.14299
G1 X120.575 Y154.94 E17.22521
G1 X118.794 Y156.8 E17.31086
G1 X117.101 Y158.672 E17.39481
G1 X115.447 Y160.606 E17.47945
G1 X113.869 Y162.56 E17.56299
G1 X112.361 Y164.543 E17.64585
G1 X110.872 Y166.618 E17.73079
G1 X109.444 Y168.732 E17.81564
G1 X108.115 Y170.825 E17.8981
G1 X106.751 Y173.112 E17.98667
G1 X106.079 Y174.28 E18.03149
G1 X105.564 Y175.086 E18.0633
G1 X105.014 Y175.802 E18.09333
G1 X104.355 Y176.518 E18.1257
G1 X103.687 Y177.126 E18.15574
G1 X102.912 Y177.716 E18.18814
G1 X102.147 Y178.196 E18.21817
G1 X101.28 Y178.639 E18.25056
G1 X100.409 Y178.99 E18.28179
G1 X99.511 Y179.262 E18.313
G1 X98.627 Y179.447 E18.34304
G1 X97.218 Y179.585 E18.39012
G1 X96.579 Y179.6 E18.41138
G1 X89.47 Y179.599 E18.64783
G1 X88.754 Y179.589 E18.67165
G1 X87.818 Y179.535 E18.70283
G1 X86.924 Y179.403 E18.73289
G1 X86.011 Y179.187 E18.76409
G1 X85.087 Y178.878 E18.7965
G1 X84.26 Y178.517 E18.82651
G1 X83.405 Y178.05 E18.85891
G1 X82.625 Y177.528 E18.89013
G1 X81.921 Y176.962 E18.92017
G1 X81.219 Y176.287 E18.95256
G1 X80.626 Y175.606 E18.9826
G1 X80.074 Y174.847 E19.01381
G1 X79.574 Y174.011 E19.04621
G1 X79.166 Y173.166 E19.07742
G1 X78.846 Y172.322 E19.10744
G1 X78.583 Y171.384 E19.13984
G1 X78.411 Y170.455 E19.17127
G1 X78.313 Y169.276 E19.21062
G1 X78.3 Y168.658 E19.23117
G1 X78.301 Y60.544 E22.82706
G1 X78.311 Y59.853 E22.85005
G1 X78.368 Y58.899 E22.88183
G1 X78.501 Y58.006 E22.91186
G1 X78.729 Y57.058 E22.94429
G1 X79.017 Y56.202 E22.97433
G1 X79.407 Y55.311 E23.00668
G1 X79.86 Y54.488 E23.03793
G1 X80.363 Y53.738 E23.06796
G0 F6000 X80.031 Y53.515
G1 F1200 X80.686 Y52.702 E23.10269
G1 X81.338 Y52.028 E23.13388
G1 X82.046 Y51.412 E23.16509
G1 X82.834 Y50.839 E23.19749
G1 X83.667 Y50.338 E23.22983
G1 X84.342 Y50.001 E23.25492
G1 X87.089 Y48.715 E23.3558
G1 X89.366 Y47.563 E23.44067
G1 X91.59 Y46.36 E23.52477
G1 X93.741 Y45.115 E23.60744
G1 X95.892 Y43.788 E23.6915
G1 X98.851 Y41.825 E23.8096
G1 X99.687 Y41.325 E23.842
G1 X100.499 Y40.93 E23.87203
G1 X101.475 Y40.559 E23.90676
G1 X102.344 Y40.313 E23.9368
G1 X103.386 Y40.117 E23.97207
G1 X104.685 Y40.014 E24.01541
G1 X105.523 Y40 E24.04328
G1 X114.404 Y40 E24.33866
G1 X115.283 Y40.013 E24.3679
G1 X116.254 Y40.072 E24.40026
G1 X117.183 Y40.211 E24.4315
G1 X118.131 Y40.439 E24.46393
G1 X119.021 Y40.737 E24.49515
G1 X119.946 Y41.141 E24.52872
G1 X120.828 Y41.626 E24.5622
G1 X121.579 Y42.128 E24.59224
G1 X122.394 Y42.785 E24.62706
G1 X123.044 Y43.412 E24.6571
G1 X123.728 Y44.2 E24.6918
G1 X124.279 Y44.963 E24.72311
G1 X124.848 Y45.934 E24.76054
G1 X125.313 Y46.828 E24.79406
G1 X140.641 Y77.485 E25.93406
G1 X141.007 Y78.244 E25.96208
G1 X141.362 Y79.074 E25.99211
G1 X141.687 Y80.067 E26.02686
G1 X141.89 Y80.947 E26.0569
G1 X142.027 Y81.91 E26.08925
G1 X142.078 Y82.761 E26.11761
G1 X142.1 Y83.972 E26.15789
G1 X142.099 Y132.45 E27.77027
G1 X142.087 Y133.187 E27.79479
G1 X142.028 Y134.158 E27.82715
G1 X141.889 Y135.087 E27.85839
G1 X141.661 Y136.035 E27.89082
G1 X141.339 Y136.989 E27.92431
G1 X140.977 Y137.817 E27.95436
G1 X140.511 Y138.673 E27.98678
G1 X139.95 Y139.513 E28.02038
G1 X139.316 Y140.298 E28.05394
G1 X138.689 Y140.948 E28.08398
G1 X137.895 Y141.636 E28.11892
G1 X136.989 Y142.279 E28.15587
G1 X136.524 Y142.575 E28.1742
G1 X134.375 Y143.985 E28.25969
G1 X132.3 Y145.434 E28.34387
G1 X130.261 Y146.941 E28.4282
G1 X128.287 Y148.492 E28.51169
G1 X126.372 Y150.084 E28.59452
G1 X124.466 Y151.765 E28.67905
G1 X122.608 Y153.497 E28.76353
G1 X120.856 Y155.225 E28.84538
G1 X119.083 Y157.077 E28.93065
G1 X117.398 Y158.94 E29.0142
G1 X115.751 Y160.866 E29.09849
G1 X114.18 Y162.811 E29.18165
G1 X112.686 Y164.776 E29.26375
G1 X111.197 Y166.851 E29.34869
G1 X109.782 Y168.946 E29.43278
G1 X108.459 Y171.03 E29.51488
G1 X107.095 Y173.317 E29.60345
G1 X106.416 Y174.495 E29.64867
G1 X105.881 Y175.33 E29.68165
G1 X105.331 Y176.046 E29.71168
G1 X104.624 Y176.814 E29.7464
G1 X103.956 Y177.422 E29.77645
G1 X103.125 Y178.055 E29.81119
G1 X102.36 Y178.535 E29.84123
G1 X101.43 Y179.01 E29.87596
G1 X100.525 Y179.373 E29.90839
G1 X99.593 Y179.654 E29.94077
G1 X98.709 Y179.839 E29.97081
G1 X97.227 Y179.985 E30.02034
G1 X96.588 Y180 E30.0416
G1 X89.464 Y179.999 E30.27854
G1 X88.731 Y179.988 E30.30292
G1 X87.76 Y179.931 E30.33528
G1 X86.866 Y179.799 E30.36533
G1 X85.884 Y179.566 E30.3989
G1 X84.927 Y179.245 E30.43247
G1 X84.1 Y178.884 E30.46249
G1 X83.213 Y178.401 E30.49608
G1 X82.374 Y177.84 E30.52965
G1 X81.67 Y177.274 E30.55969
G1 X80.917 Y176.55 E30.59444
G1 X80.324 Y175.869 E30.62447
G1 X79.731 Y175.052 E30.65805
G1 X79.214 Y174.185 E30.69162
G1 X78.792 Y173.308 E30.72399
G1 X78.472 Y172.464 E30.75401
G1 X78.198 Y171.492 E30.7876
G1 X78.012 Y170.488 E30.82156
G1 X77.914 Y169.309 E30.86091
G1 X77.9 Y168.658 E30.88257
G1 X77.901 Y60.538 E34.47865
G1 X77.912 Y59.829 E34.50224
G1 X77.972 Y58.84 E34.53519
G1 X78.105 Y57.947 E34.56522
G1 X78.34 Y56.964 E34.59884
G1 X78.638 Y56.074 E34.63006
G1 X79.057 Y55.118 E34.66477
G1 X79.528 Y54.265 E34.69718
G1 X80.031 Y53.515 E34.72722
G1 F2700 E29.72722
;MESH:frame.stl
G0 F6000 X104.263 Y58.619
G0 X112.727 Y63.216
;TYPE:WALL-INNER
G1 F2700 E34.72722
G1 F1200 X112.537 Y63.259 E34.7337
G1 X107.473 Y63.26 E34.90212
G1 X107.288 Y63.222 E34.90841
G1 X107.029 Y63.041 E34.91892
G1 X104.434 Y58.553 E35.09134
G1 X104.414 Y58.196 E35.10324
G1 X104.479 Y58.029 E35.1092
G1 X106.984 Y53.693 E35.27575
G1 X107.185 Y53.489 E35.28527
G1 X107.418 Y53.4 E35.29357
G1 X112.499 Y53.4 E35.46257
G1 X112.775 Y53.466 E35.472
G1 X112.984 Y53.639 E35.48103
G1 X115.573 Y58.119 E35.65313
G1 X115.603 Y58.35 E35.66087
G1 X115.521 Y58.631 E35.67061
G1 X112.983 Y63.023 E35.83932
G1 X112.727 Y63.216 E35.84999
G1 F2700 E30.84999
G0 F6000 X112.548 Y63.44
G0 X112.538 Y100.889
G0 X112.622 Y110.93
G1 F2700 E35.84999
G1 F1200 X107.467 Y110.93 E36.02144
G1 X107.238 Y110.87 E36.02932
G1 X107.014 Y110.689 E36.0389
G1 X104.479 Y106.301 E36.20744
G1 X104.407 Y106.104 E36.21442
G1 X104.438 Y105.77 E36.22558
G1 X107.006 Y101.329 E36.3962
G1 X107.261 Y101.119 E36.40719
G1 X107.474 Y101.07 E36.41446
G1 X112.53 Y101.07 E36.58262
G1 X112.814 Y101.158 E36.59251
G1 X112.995 Y101.33 E36.60082
G1 X115.547 Y105.748 E36.77051
G1 X115.593 Y105.896 E36.77567
G1 X115.593 Y106.104 E36.78259
G1 X115.547 Y106.252 E36.78774
G1 X112.992 Y110.674 E36.9576
G1 X112.861 Y110.81 E36.96388
G1 X112.622 Y110.93 E36.97278
G1 F2700 E31.97278
G0 F6000 X107.458 Y111.11
G0 X118.918 Y134.185
G0 X96.3 Y168.4
G1 F2700 E36.97278
G1 F1200 X96.3 Y165.144 E37.08107
G1 X92.363 Y157.269 E37.3739
G1 X92.3 Y157.08 E37.38053
G1 X92.3 Y148.001 E37.6825
G1 X92.348 Y147.763 E37.69057
G1 X92.474 Y147.577 E37.69805
G1 X92.632 Y147.463 E37.70453
G1 X122.883 Y132.44 E38.82792
G1 X123.048 Y132.402 E38.83355
G1 X130.5 Y132.4 E39.08141
G1 X130.5 Y83.144 E40.71967
G1 X114.728 Y51.6 E41.89266
G1 X105.17 Y51.601 E42.21056
G1 X97.349 Y60.399 E42.60209
G1 X97.104 Y60.565 E42.61193
G1 X96.9 Y60.6 E42.61882
G1 X89.5 Y60.6 E42.86494
G1 X89.5 Y168.4 E46.45038
G1 X96.3 Y168.4 E46.67655
G0 F6000 X96.7 Y168.8
;TYPE:WALL-OUTER
G1 F1200 X96.7 Y165.05 E46.80128
G1 X92.702 Y157.052 E47.09868
G1 X92.7 Y147.945 E47.40158
G1 X92.77 Y147.841 E47.40575
G1 X123.054 Y132.8 E48.53039
G1 X130.9 Y132.8 E48.79135
G1 X130.9 Y83.05 E50.44604
G1 X114.975 Y51.2 E51.63041
G1 X104.99 Y51.201 E51.96251
G1 X97.028 Y60.155 E52.36104
G1 X96.939 Y60.197 E52.36431
G1 X89.1 Y60.2 E52.62504
G1 X89.1 Y168.8 E56.23709
G1 X96.7 Y168.8 E56.48986
G1 F2700 E51.48986
G0 F6000 X96.43 Y168.53
G0 X96.462 Y165.104
G0 X92.462 Y157.103
G0 X92.467 Y147.731
G0 X118.613 Y134.358
G0 X107.458 Y111.11
G0 X107.355 Y110.479
G1 F2700 E56.48986
G1 F1200 X104.801 Y106.059 E56.65965
G1 X104.801 Y105.941 E56.66358
G1 X107.343 Y101.542 E56.83256
G1 X107.483 Y101.47 E56.83779
G1 X112.531 Y101.472 E57.00569
G1 X112.643 Y101.522 E57.00977
G1 X115.199 Y105.94 E57.17953
G1 X115.199 Y106.059 E57.18349
G1 X112.664 Y110.445 E57.35198
G1 X112.511 Y110.53 E57.35781
G1 X107.468 Y110.528 E57.52554
G1 X107.355 Y110.479 E57.52963
G1 F2700 E52.52963
G0 F6000 X106.62 Y110.207
G0 X104.498 Y106
G0 X107.249 Y101.236
G0 X112.538 Y100.889
G0 X112.548 Y63.44
G0 X112.65 Y62.801
G1 F2700 E57.52963
G1 F1200 X112.526 Y62.859 E57.53419
G1 X107.482 Y62.86 E57.70195
G1 X107.327 Y62.761 E57.70807
G1 X104.792 Y58.373 E57.87662
G1 X104.825 Y58.229 E57.88153
G1 X107.328 Y53.897 E58.04794
G1 X107.466 Y53.802 E58.05351
G1 X112.499 Y53.8 E58.22091
G1 X112.657 Y53.876 E58.22674
G1 X115.194 Y58.272 E58.39555
G1 X115.175 Y58.431 E58.40088
G1 X112.65 Y62.801 E58.56874
G1 F2700 E53.56874
G0 F6000 X112.908 Y62.951
G0 X107.466 Y63.441
G0 X122.777 Y132.268
G0 X95.94 Y168.04
;TYPE:SKIN
G1 F2700 E58.56874
G1 F1200 X89.86 Y168.04 E58.77096
G1 X89.86 Y60.96 E62.33246
G1 X97.026 Y60.959 E62.5708
G1 X97.318 Y60.867 E62.58098
G1 X97.539 Y60.725 E62.58972
G1 X105.332 Y51.962 E62.97976
G1 X114.505 Y51.96 E63.28485
G1 X130.14 Y83.232 E64.44772
G1 X130.14 Y132.04 E66.07108
G1 X122.985 Y132.041 E66.30906
G1 X122.716 Y132.119 E66.31837
G1 X92.466 Y147.142 E67.44173
G1 X92.215 Y147.322 E67.45201
G1 X92.013 Y147.62 E67.46398
G1 X91.943 Y147.961 E67.47556
G1 X91.942 Y157.135 E67.78069
G1 X92.029 Y157.402 E67.79003
G1 X95.94 Y165.232 E68.08113
G1 X95.94 Y168.04 E68.17453
G1 F2700 E63.17453
G0 F6000 X96.2 Y168.04
G0 X96.462 Y165.104
G0 X92.462 Y157.103
G0 X92.467 Y147.731
G0 X122.277 Y132.94
G0 X122.777 Y132.268
G0 X112.845 Y111.031
G0 X112.936 Y111.19
G1 F2700 E68.17453
G1 F1200 X113.278 Y110.894 E68.18957
G1 X115.896 Y106.372 E68.36336
G1 X115.964 Y106.033 E68.37486
G1 X115.875 Y105.599 E68.3896
G1 X113.297 Y101.134 E68.56108
G1 X113.162 Y100.973 E68.56807
G1 X112.899 Y100.792 E68.57869
G1 X112.546 Y100.71 E68.59074
G1 X107.336 Y100.71 E68.76403
G1 X106.997 Y100.848 E68.7762
G1 X106.689 Y101.16 E68.79078
G1 X104.104 Y105.627 E68.96244
G1 X104.042 Y105.925 E68.97256
