;FLAVOR:Marlin
;TIME:6278
;Filament used: 5.61813m
;Layer height: 0.2
;MINX:78
;MINY:40
;MINZ:0.2
;MAXX:142
;MAXY:180
;MAXZ:21
;Generated with Cura_SteamEngine 5.3.0
M140 S50
M105
M190 S50
M104 S200
M105
M109 S200
M82 ;absolute extrusion mode
M201 X500.00 Y500.00 Z100.00 E5000.00 ;Setup machine max acceleration
M203 X500.00 Y500.00 Z10.00 E50.00 ;Setup machine max feedrate
M204 P500.00 R1000.00 T500.00 ;Setup Print/Retract/Travel acceleration
M205 X8.00 Y8.00 Z0.40 E5.00 ;Setup Jerk
M220 S100 ;Reset Feedrate
M221 S100 ;Reset Flowrate

G28 ;Home

G92 E0 ;Reset Extruder
G1 Z2.0 F3000 ;Move Z Axis up
G1 X10.1 Y20 Z0.28 F5000.0 ;Move to start position
G1 X10.1 Y200.0 Z0.28 F1500.0 E15 ;Draw the first line
G1 X10.4 Y200.0 Z0.28 F5000.0 ;Move to side a little
G1 X10.4 Y20 Z0.28 F1500.0 E30 ;Draw the second line
G92 E0 ;Reset Extruder
G1 Z2.0 F3000 ;Move Z Axis up

G92 E0
G92 E0
G1 F2700 E-5
;LAYER_COUNT:105
;LAYER:0
M107
G0 F6000 X80.795 Y53.961 Z0.2
;TYPE:SKIRT
G1 F2700 E0
G1 F1200 X81.362 Y53.258 E0.03004
G1 X81.989 Y52.608 E0.06008
G1 X82.671 Y52.016 E0.09011
G1 X83.403 Y51.487 E0.12015
G1 X84.178 Y51.024 E0.15018
G1 X84.782 Y50.725 E0.1726
G1 X87.551 Y49.429 E0.27428
G1 X89.828 Y48.277 E0.35915
G1 X92.07 Y47.064 E0.44394
G1 X94.241 Y45.807 E0.52738
G1 X96.412 Y44.468 E0.61221
G1 X99.363 Y42.511 E0.72999
G1 X100.137 Y42.045 E0.76003
G1 X100.949 Y41.65 E0.79007
G1 X101.793 Y41.329 E0.8201
G1 X102.662 Y41.083 E0.85014
G1 X103.55 Y40.915 E0.8802
G1 X104.824 Y40.813 E0.92271
G1 X105.636 Y40.8 E0.94972
G1 X114.293 Y40.8 E1.23765
G1 X115.136 Y40.811 E1.26569
G1 X116.038 Y40.864 E1.29574
G1 X116.931 Y40.996 E1.32577
G1 X117.809 Y41.207 E1.3558
G1 X118.665 Y41.495 E1.38584
G1 X119.493 Y41.858 E1.41591
G1 X120.284 Y42.292 E1.44592
G1 X121.035 Y42.794 E1.47596
G1 X121.738 Y43.361 E1.506
G1 X122.388 Y43.988 E1.53604
G1 X122.98 Y44.67 E1.56608
G1 X123.51 Y45.401 E1.59611
G1 X124.038 Y46.302 E1.63084
G1 X124.497 Y47.186 E1.66397
G1 X139.821 Y77.833 E2.80362
G1 X140.171 Y78.558 E2.8304
G1 X140.526 Y79.388 E2.86042
G1 X140.807 Y80.247 E2.89048
G1 X141.01 Y81.127 E2.92052
G1 X141.135 Y82.021 E2.95054
G1 X141.178 Y82.775 E2.97566
G1 X141.2 Y83.972 E3.01548
G1 X141.199 Y132.438 E4.62747
G1 X141.189 Y133.14 E4.65082
G1 X141.136 Y134.042 E4.68087
G1 X141.004 Y134.935 E4.71089
G1 X140.793 Y135.813 E4.74093
G1 X140.505 Y136.669 E4.77097
G1 X140.143 Y137.497 E4.80102
G1 X139.709 Y138.289 E4.83106
G1 X139.206 Y139.039 E4.8611
G1 X138.64 Y139.742 E4.89111
G1 X138.013 Y140.392 E4.92115
G1 X137.331 Y140.984 E4.95119
G1 X136.573 Y141.531 E4.98228
G1 X134.116 Y143.138 E5.07993
G1 X132.031 Y144.592 E5.16447
G1 X129.998 Y146.097 E5.2486
G1 X127.988 Y147.676 E5.33362
G1 X126.064 Y149.277 E5.41687
G1 X124.124 Y150.986 E5.50286
G1 X122.266 Y152.718 E5.58734
G1 X120.498 Y154.462 E5.66994
G1 X118.709 Y156.33 E5.75596
G1 X117.008 Y158.211 E5.84031
G1 X115.347 Y160.153 E5.92531
G1 X113.762 Y162.116 E6.00922
G1 X112.24 Y164.117 E6.09284
G1 X110.751 Y166.192 E6.17779
G1 X109.317 Y168.315 E6.263
G1 X107.961 Y170.452 E6.34718
G1 X106.636 Y172.674 E6.43322
G1 X105.848 Y174.052 E6.48602
G1 X105.366 Y174.815 E6.51604
G1 X104.818 Y175.533 E6.54608
G1 X104.208 Y176.2 E6.57614
G1 X103.542 Y176.81 E6.60618
G1 X102.825 Y177.358 E6.63619
G1 X102.062 Y177.841 E6.66623
G1 X101.259 Y178.255 E6.69628
G1 X100.423 Y178.596 E6.72631
G1 X99.56 Y178.862 E6.75634
G1 X98.677 Y179.05 E6.78637
G1 X97.78 Y179.16 E6.81643
G1 X97.309 Y179.185 E6.83212
G1 X96.67 Y179.2 E6.85338
G1 X89.575 Y179.199 E7.08936
G1 X88.877 Y179.19 E7.11257
G1 X87.976 Y179.139 E7.14259
G1 X87.082 Y179.007 E7.17265
G1 X86.204 Y178.798 E7.20266
G1 X85.347 Y178.511 E7.23272
G1 X84.52 Y178.15 E7.26274
G1 X83.727 Y177.717 E7.29279
G1 X82.976 Y177.216 E7.32281
G1 X82.272 Y176.65 E7.35286
G1 X81.621 Y176.024 E7.3829
G1 X81.028 Y175.343 E7.41293
G1 X80.498 Y174.612 E7.44296
G1 X80.034 Y173.837 E7.47301
G1 X79.64 Y173.024 E7.50305
G1 X79.32 Y172.18 E7.53308
G1 X79.076 Y171.31 E7.56313
G1 X78.91 Y170.422 E7.59317
G1 X78.813 Y169.267 E7.63173
G1 X78.8 Y168.658 E7.65199
G1 X78.801 Y60.55 E11.24767
G1 X78.811 Y59.859 E11.27066
G1 X78.864 Y58.958 E11.30068
G1 X78.997 Y58.065 E11.33071
G1 X79.208 Y57.186 E11.36077
G1 X79.496 Y56.33 E11.39081
G1 X79.858 Y55.503 E11.42084
G1 X80.292 Y54.711 E11.45087
G1 X80.795 Y53.961 E11.48091
G0 F6000 X80.463 Y53.738
G1 F1200 X81.074 Y52.98 E11.51329
G1 X81.701 Y52.33 E11.54333
G1 X82.409 Y51.714 E11.57454
G1 X83.169 Y51.163 E11.60577
G1 X83.973 Y50.681 E11.63694
G1 X84.612 Y50.363 E11.66068
G1 X87.37 Y49.072 E11.76197
G1 X89.647 Y47.92 E11.84684
G1 X91.88 Y46.712 E11.93128
G1 X94.041 Y45.461 E12.01433
G1 X96.202 Y44.128 E12.09878
G1 X99.157 Y42.168 E12.21672
G1 X99.962 Y41.685 E12.24794
G1 X100.774 Y41.29 E12.27798
G1 X101.684 Y40.944 E12.31036
G1 X102.553 Y40.698 E12.3404
G1 X103.518 Y40.516 E12.37306
G1 X104.792 Y40.414 E12.41557
G1 X105.63 Y40.4 E12.44344
G1 X114.298 Y40.4 E12.73174
G1 X115.159 Y40.412 E12.76038
G1 X116.096 Y40.468 E12.7916
G1 X116.989 Y40.6 E12.82163
G1 X117.937 Y40.828 E12.85406
G1 X118.793 Y41.116 E12.88409
G1 X119.685 Y41.507 E12.91649
G1 X120.506 Y41.959 E12.94766
G1 X121.257 Y42.461 E12.9777
G1 X122.016 Y43.073 E13.01013
G1 X122.666 Y43.7 E13.04017
G1 X123.304 Y44.435 E13.07254
G1 X123.834 Y45.166 E13.10257
G1 X124.393 Y46.118 E13.13929
G1 X124.855 Y47.007 E13.17261
G1 X140.181 Y77.659 E14.31244
G1 X140.539 Y78.401 E14.33984
G1 X140.894 Y79.231 E14.36987
G1 X141.197 Y80.157 E14.40227
G1 X141.4 Y81.037 E14.43231
G1 X141.531 Y81.966 E14.46351
G1 X141.578 Y82.768 E14.49023
G1 X141.6 Y83.972 E14.53029
G1 X141.599 Y132.444 E16.14247
G1 X141.588 Y133.163 E16.16639
G1 X141.532 Y134.1 E16.19761
G1 X141.4 Y134.993 E16.22763
G1 X141.172 Y135.941 E16.26006
G1 X140.872 Y136.829 E16.29124
G1 X140.51 Y137.657 E16.32129
G1 X140.06 Y138.481 E16.35252
G1 X139.518 Y139.29 E16.38491
G1 X138.928 Y140.02 E16.41613
G1 X138.301 Y140.67 E16.44616
G1 X137.593 Y141.286 E16.47738
G1 X136.792 Y141.866 E16.51027
G1 X134.335 Y143.473 E16.60792
G1 X132.26 Y144.92 E16.69206
G1 X130.245 Y146.412 E16.77545
G1 X128.235 Y147.991 E16.86046
G1 X126.32 Y149.584 E16.94331
G1 X124.397 Y151.279 E17.02857
G1 X122.539 Y153.011 E17.11305
G1 X120.779 Y154.747 E17.19528
G1 X118.998 Y156.607 E17.28093
G1 X117.305 Y158.479 E17.36488
G1 X115.651 Y160.413 E17.44952
G1 X114.073 Y162.367 E17.53305
G1 X112.565 Y164.35 E17.61591
G1 X111.076 Y166.425 E17.70086
G1 X109.655 Y168.529 E17.7853
G1 X108.305 Y170.657 E17.86912
G1 X106.98 Y172.879 E17.95517
G1 X106.186 Y174.266 E18.00832
G1 X105.684 Y175.058 E18.03951
G1 X105.136 Y175.776 E18.06955
G1 X104.478 Y176.495 E18.10197
G1 X103.785 Y177.128 E18.13319
G1 X103.068 Y177.676 E18.1632
G1 X102.245 Y178.197 E18.1956
G1 X101.442 Y178.611 E18.22565
G1 X100.541 Y178.978 E18.258
G1 X99.643 Y179.253 E18.28924
G1 X98.726 Y179.447 E18.32042
G1 X97.829 Y179.557 E18.35047
G1 X97.318 Y179.585 E18.3675
G1 X96.67 Y179.6 E18.38905
G1 X89.57 Y179.599 E18.6252
G1 X88.854 Y179.589 E18.64902
G1 X87.918 Y179.535 E18.6802
G1 X87.024 Y179.403 E18.71026
G1 X86.111 Y179.187 E18.74146
G1 X85.187 Y178.878 E18.77387
G1 X84.36 Y178.517 E18.80388
G1 X83.505 Y178.05 E18.83628
G1 X82.725 Y177.528 E18.8675
G1 X82.021 Y176.962 E18.89754
G1 X81.319 Y176.287 E18.92993
G1 X80.726 Y175.606 E18.95997
G1 X80.174 Y174.847 E18.99118
G1 X79.674 Y174.011 E19.02358
G1 X79.266 Y173.166 E19.05479
G1 X78.946 Y172.322 E19.08481
G1 X78.683 Y171.384 E19.11721
G1 X78.511 Y170.455 E19.14864
G1 X78.413 Y169.276 E19.18799
G1 X78.4 Y168.658 E19.20855
G1 X78.401 Y60.544 E22.80443
G1 X78.411 Y59.853 E22.82742
G1 X78.468 Y58.899 E22.8592
G1 X78.601 Y58.006 E22.88923
G1 X78.829 Y57.058 E22.92166
G1 X79.117 Y56.202 E22.9517
G1 X79.507 Y55.311 E22.98405
G1 X79.96 Y54.488 E23.0153
G1 X80.463 Y53.738 E23.04533
G0 F6000 X80.131 Y53.515
G1 F1200 X80.786 Y52.702 E23.08006
G1 X81.438 Y52.028 E23.11125
G1 X82.146 Y51.412 E23.14246
G1 X82.934 Y50.839 E23.17487
G1 X83.767 Y50.338 E23.2072
G1 X84.442 Y50.001 E23.23229
G1 X87.189 Y48.715 E23.33317
G1 X89.466 Y47.563 E23.41805
G1 X91.69 Y46.36 E23.50215
G1 X93.841 Y45.115 E23.58481
G1 X95.992 Y43.788 E23.66887
G1 X98.951 Y41.825 E23.78697
G1 X99.787 Y41.325 E23.81937
G1 X100.599 Y40.93 E23.84941
G1 X101.575 Y40.559 E23.88413
G1 X102.444 Y40.313 E23.91417
G1 X103.486 Y40.117 E23.94944
G1 X104.785 Y40.014 E23.99278
G1 X105.623 Y40 E24.02065
G1 X114.304 Y40 E24.30938
G1 X115.183 Y40.013 E24.33862
G1 X116.154 Y40.072 E24.37098
G1 X117.083 Y40.211 E24.40222
G1 X118.031 Y40.439 E24.43465
G1 X118.921 Y40.737 E24.46587
G1 X119.846 Y41.141 E24.49944
G1 X120.728 Y41.626 E24.53292
G1 X121.479 Y42.128 E24.56296
G1 X122.294 Y42.785 E24.59778
G1 X122.944 Y43.412 E24.62782
G1 X123.628 Y44.2 E24.66252
G1 X124.179 Y44.963 E24.69383
G1 X124.748 Y45.934 E24.73126
G1 X125.213 Y46.828 E24.76478
G1 X140.541 Y77.485 E25.90478
G1 X140.907 Y78.244 E25.9328
G1 X141.262 Y79.074 E25.96283
G1 X141.587 Y80.067 E25.99758
G1 X141.79 Y80.947 E26.02762
G1 X141.927 Y81.91 E26.05997
G1 X141.978 Y82.761 E26.08833
G1 X142 Y83.972 E26.12861
G1 X141.999 Y132.45 E27.74099
G1 X141.987 Y133.187 E27.76551
G1 X141.928 Y134.158 E27.79787
G1 X141.789 Y135.087 E27.82911
G1 X141.561 Y136.035 E27.86154
G1 X141.239 Y136.989 E27.89503
G1 X140.877 Y137.817 E27.92508
G1 X140.411 Y138.673 E27.9575
G1 X139.85 Y139.513 E27.9911
G1 X139.216 Y140.298 E28.02466
G1 X138.564 Y140.972 E28.05585
G1 X137.856 Y141.588 E28.08706
G1 X137.011 Y142.201 E28.12178
G1 X134.554 Y143.808 E28.21943
G1 X132.489 Y145.248 E28.30316
G1 X130.492 Y146.727 E28.38581
G1 X128.491 Y148.299 E28.47045
G1 X126.576 Y149.891 E28.55328
G1 X124.67 Y151.572 E28.6378
G1 X122.812 Y153.304 E28.72229
G1 X121.06 Y155.032 E28.80413
G1 X119.287 Y156.884 E28.88941
G1 X117.602 Y158.747 E28.97296
G1 X115.955 Y160.673 E29.05724
G1 X114.384 Y162.618 E29.1404
G1 X112.89 Y164.583 E29.2225
G1 X111.401 Y166.658 E29.30745
G1 X109.993 Y168.743 E29.39113
G1 X108.649 Y170.862 E29.47459
G1 X107.324 Y173.084 E29.56063
G1 X106.524 Y174.48 E29.61415
G1 X106.002 Y175.301 E29.64651
G1 X105.454 Y176.019 E29.67655
G1 X104.748 Y176.79 E29.71132
G1 X104.028 Y177.446 E29.74371
G1 X103.311 Y177.994 E29.77373
G1 X102.428 Y178.553 E29.80849
G1 X101.625 Y178.967 E29.83854
G1 X100.658 Y179.36 E29.87325
G1 X99.726 Y179.644 E29.90566
G1 X98.775 Y179.844 E29.93798
G1 X97.878 Y179.954 E29.96804
G1 X97.327 Y179.985 E29.9864
G1 X96.679 Y180 E30.00795
G1 X89.564 Y179.999 E30.2446
G1 X88.831 Y179.988 E30.26898
G1 X87.86 Y179.931 E30.30133
G1 X86.966 Y179.799 E30.33139
G1 X85.984 Y179.566 E30.36496
G1 X85.027 Y179.245 E30.39853
G1 X84.2 Y178.884 E30.42854
G1 X83.313 Y178.401 E30.46214
G1 X82.474 Y177.84 E30.4957
G1 X81.77 Y177.274 E30.52575
G1 X81.017 Y176.55 E30.56049
G1 X80.424 Y175.869 E30.59053
G1 X79.831 Y175.052 E30.6241
G1 X79.314 Y174.185 E30.65768
G1 X78.892 Y173.308 E30.69005
G1 X78.572 Y172.464 E30.72007
G1 X78.298 Y171.492 E30.75366
G1 X78.112 Y170.488 E30.78762
G1 X78.014 Y169.309 E30.82697
G1 X78 Y168.658 E30.84863
G1 X78.001 Y60.538 E34.44471
G1 X78.012 Y59.829 E34.4683
G1 X78.072 Y58.84 E34.50125
G1 X78.205 Y57.947 E34.53128
G1 X78.44 Y56.964 E34.5649
G1 X78.738 Y56.074 E34.59611
G1 X79.157 Y55.118 E34.63083
G1 X79.628 Y54.265 E34.66324
G1 X80.131 Y53.515 E34.69327
G1 F2700 E29.69327
;MESH:frame.stl
G0 F6000 X106.495 Y58.241
G0 X111.702 Y60.599
;TYPE:WALL-INNER
G1 F2700 E34.69327
G1 F1200 X108.36 Y60.599 E34.80443
G1 X108.057 Y60.491 E34.81513
G1 X107.64 Y60.134 E34.83338
G1 X107.338 Y59.782 E34.84881
G1 X107.149 Y59.51 E34.85983
G1 X106.984 Y59.21 E34.87121
G1 X106.878 Y58.966 E34.88006
G1 X106.758 Y58.598 E34.89294
G1 X106.675 Y58.214 E34.906
G1 X106.651 Y57.839 E34.9185
G1 X106.661 Y57.385 E34.93361
G1 X106.747 Y56.935 E34.94884
G1 X106.881 Y56.528 E34.9631
G1 X107.042 Y56.175 E34.976
G1 X107.208 Y55.898 E34.98674
G1 X107.415 Y55.62 E34.99827
G1 X107.68 Y55.327 E35.01141
G1 X108.006 Y55.059 E35.02544
G1 X108.291 Y54.868 E35.03686
G1 X108.586 Y54.712 E35.04795
G1 X108.881 Y54.592 E35.05855
G1 X109.201 Y54.496 E35.06966
G1 X109.488 Y54.438 E35.0794
G1 X109.801 Y54.405 E35.08987
G1 X110.201 Y54.405 E35.10317
G1 X110.462 Y54.432 E35.1119
G1 X110.801 Y54.497 E35.12338
G1 X111.168 Y54.61 E35.13615
G1 X111.404 Y54.708 E35.14465
G1 X111.72 Y54.875 E35.15654
G1 X112.029 Y55.085 E35.16896
G1 X112.332 Y55.336 E35.18205
G1 X112.624 Y55.667 E35.19673
G1 X112.821 Y55.943 E35.20801
G1 X112.979 Y56.213 E35.21841
G1 X113.118 Y56.526 E35.2298
G1 X113.22 Y56.818 E35.24009
G1 X113.287 Y57.109 E35.25002
G1 X113.342 Y57.503 E35.26325
G1 X113.349 Y57.839 E35.27443
G1 X113.332 Y58.099 E35.2831
G1 X113.26 Y58.553 E35.29839
G1 X113.141 Y58.915 E35.31106
G1 X112.967 Y59.317 E35.32563
G1 X112.698 Y59.747 E35.3425
G1 X112.379 Y60.118 E35.35877
G1 X111.921 Y60.506 E35.37874
G1 X111.702 Y60.599 E35.38665
G1 F2700 E30.38665
G0 F6000 X112.167 Y60.434
G0 X111.732 Y60.78
G0 X122.685 Y132.264
G0 X96.4 Y168.4
G1 F2700 E35.38665
G1 F1200 X96.4 Y165.144 E35.49495
G1 X92.463 Y157.269 E35.78778
G1 X92.4 Y157.08 E35.79441
G1 X92.4 Y148 E36.09641
G1 X92.448 Y147.762 E36.10448
G1 X92.573 Y147.577 E36.11191
G1 X92.731 Y147.463 E36.11839
G1 X122.8 Y132.433 E37.23647
G1 X122.941 Y132.402 E37.24127
G1 X130.4 Y132.4 E37.48936
G1 X130.4 Y83.144 E39.12762
G1 X114.628 Y51.6 E40.30061
G1 X105.27 Y51.601 E40.61186
G1 X97.383 Y60.473 E41.00669
G1 X97.054 Y60.598 E41.01839
G1 X89.6 Y60.6 E41.26631
G1 X89.6 Y168.4 E44.85176
G1 X96.4 Y168.4 E45.07792
G0 F6000 X96.8 Y168.8
;TYPE:WALL-OUTER
G1 F1200 X96.8 Y165.05 E45.20265
G1 X92.802 Y157.052 E45.50005
G1 X92.8 Y147.944 E45.80298
G1 X92.869 Y147.842 E45.80708
G1 X122.955 Y132.8 E46.92584
G1 X130.8 Y132.8 E47.18677
G1 X130.8 Y83.05 E48.84146
G1 X114.875 Y51.2 E50.02583
G1 X105.09 Y51.201 E50.35128
G1 X97.139 Y60.145 E50.74931
G1 X97.018 Y60.2 E50.75373
G1 X89.2 Y60.2 E51.01376
G1 X89.2 Y168.8 E54.62581
G1 X96.8 Y168.8 E54.87859
G1 F2700 E49.87859
G0 F6000 X96.53 Y168.53
G0 X96.562 Y165.104
G0 X92.562 Y157.103
G0 X92.566 Y147.732
G0 X122.204 Y132.929
G0 X122.685 Y132.264
G0 X108.311 Y60.781
G0 X108.33 Y60.2
G1 F2700 E54.87859
G1 F1200 X107.912 Y59.841 E54.89691
G1 X107.664 Y59.55 E54.90963
G1 X107.509 Y59.332 E54.91853
G1 X107.351 Y59.05 E54.92928
G1 X107.245 Y58.806 E54.93813
G1 X107.149 Y58.514 E54.94835
G1 X107.075 Y58.172 E54.95999
G1 X107.05 Y57.813 E54.97196
G1 X107.063 Y57.413 E54.98527
G1 X107.14 Y57.01 E54.99891
G1 X107.259 Y56.659 E55.01124
G1 X107.377 Y56.397 E55.0208
G1 X107.523 Y56.146 E55.03046
G1 X107.713 Y55.886 E55.04117
G1 X107.935 Y55.637 E55.05226
G1 X108.232 Y55.389 E55.06513
G1 X108.465 Y55.23 E55.07451
G1 X108.72 Y55.091 E55.08417
G1 X109 Y54.974 E55.09427
G1 X109.261 Y54.893 E55.10336
G1 X109.557 Y54.832 E55.11341
G1 X109.841 Y54.803 E55.1229
G1 X110.16 Y54.803 E55.13351
G1 X110.421 Y54.83 E55.14224
G1 X110.723 Y54.889 E55.15247
G1 X111.014 Y54.98 E55.16261
G1 X111.268 Y55.086 E55.17177
G1 X111.53 Y55.227 E55.18167
G1 X111.774 Y55.393 E55.19148
G1 X112.042 Y55.615 E55.20306
G1 X112.3 Y55.902 E55.21589
G1 X112.476 Y56.145 E55.22587
G1 X112.624 Y56.399 E55.23565
G1 X112.734 Y56.642 E55.24452
G1 X112.836 Y56.933 E55.25478
G1 X112.9 Y57.215 E55.26439
G1 X112.942 Y57.515 E55.27447
G1 X112.95 Y57.813 E55.28438
G1 X112.931 Y58.092 E55.29369
G1 X112.866 Y58.47 E55.30644
G1 X112.761 Y58.791 E55.31768
G1 X112.617 Y59.117 E55.32953
G1 X112.366 Y59.519 E55.34529
G1 X112.082 Y59.846 E55.3597
G1 X111.675 Y60.195 E55.37753
G1 X108.33 Y60.2 E55.48878
G1 F2700 E50.48878
G0 F6000 X107.582 Y60.217
G0 X108.311 Y60.781
G0 X122.685 Y132.264
G0 X96.04 Y168.04
;TYPE:SKIN
G1 F2700 E55.48878
G1 F1200 X89.96 Y168.04 E55.69101
G1 X89.96 Y60.96 E59.2525
G1 X97.09 Y60.956 E59.48965
G1 X97.351 Y60.894 E59.49857
G1 X97.668 Y60.693 E59.51105
G1 X105.432 Y51.961 E59.89968
G1 X114.405 Y51.961 E60.19812
G1 X130.04 Y83.232 E61.36096
G1 X130.04 Y132.04 E62.98432
G1 X122.907 Y132.043 E63.22156
G1 X122.622 Y132.117 E63.23136
G1 X92.542 Y147.157 E64.34991
G1 X92.294 Y147.35 E64.36036
G1 X92.114 Y147.618 E64.3711
G1 X92.043 Y147.96 E64.38272
G1 X92.042 Y157.135 E64.68788
G1 X92.129 Y157.402 E64.69722
