;FLAVOR:Marlin
;TIME:4084
;Filament used: 2.9784m
;Layer height: 0.2
;MINX:73.8
;MINY:85.7
;MINZ:0.2
;MAXX:146.2
;MAXY:134.3
;MAXZ:16
;Generated with Cura_SteamEngine 5.3.0
M140 S50
M105
M190 S50
M104 S200
M105
M109 S200
M82 ;absolute extrusion mode
M201 X500.00 Y500.00 Z100.00 E5000.00 ;Setup machine max acceleration
M203 X500.00 Y500.00 Z10.00 E50.00 ;Setup machine max feedrate
M204 P500.00 R1000.00 T500.00 ;Setup Print/Retract/Travel acceleration
M205 X8.00 Y8.00 Z0.40 E5.00 ;Setup Jerk
M220 S100 ;Reset Feedrate
M221 S100 ;Reset Flowrate

G28 ;Home

G92 E0 ;Reset Extruder
G1 Z2.0 F3000 ;Move Z Axis up
G1 X10.1 Y20 Z0.28 F5000.0 ;Move to start position
G1 X10.1 Y200.0 Z0.28 F1500.0 E15 ;Draw the first line
G1 X10.4 Y200.0 Z0.28 F5000.0 ;Move to side a little
G1 X10.4 Y20 Z0.28 F1500.0 E30 ;Draw the second line
G92 E0 ;Reset Extruder
G1 Z2.0 F3000 ;Move Z Axis up

G92 E0
G92 E0
G1 F2700 E-5
;LAYER_COUNT:80
;LAYER:0
M107
G0 F6000 X77.781 Y89.317 Z0.2
;TYPE:SKIRT
G1 F2700 E0
G1 F1200 X78.462 Y88.724 E0.03003
G1 X79.194 Y88.194 E0.06009
G1 X79.969 Y87.731 E0.09012
G1 X80.782 Y87.338 E0.12015
G1 X81.627 Y87.018 E0.1502
G1 X82.496 Y86.775 E0.18022
G1 X83.384 Y86.609 E0.21026
G1 X84.523 Y86.513 E0.24828
G1 X85.13 Y86.5 E0.26847
G1 X134.493 Y86.5 E1.91029
G1 X135.337 Y86.511 E1.93837
G1 X136.239 Y86.564 E1.96842
G1 X137.132 Y86.696 E1.99844
G1 X138.01 Y86.907 E2.02848
G1 X138.866 Y87.195 E2.05852
G1 X139.693 Y87.557 E2.08854
G1 X140.485 Y87.992 E2.1186
G1 X141.236 Y88.494 E2.14864
G1 X141.939 Y89.061 E2.17868
G1 X142.589 Y89.688 E2.20872
G1 X143.181 Y90.37 E2.23876
G1 X143.711 Y91.101 E2.26879
G1 X144.173 Y91.877 E2.29883
G1 X144.566 Y92.69 E2.32886
G1 X144.884 Y93.535 E2.35889
G1 X145.127 Y94.405 E2.38893
G1 X145.292 Y95.293 E2.41897
G1 X145.387 Y96.423 E2.45669
G1 X145.4 Y97.03 E2.47688
G1 X145.399 Y122.69 E3.33034
G1 X145.39 Y123.417 E3.35452
G1 X145.339 Y124.319 E3.38457
G1 X145.208 Y125.213 E3.41462
G1 X144.999 Y126.091 E3.44464
G1 X144.713 Y126.948 E3.47469
G1 X144.352 Y127.776 E3.50473
G1 X143.92 Y128.568 E3.53474
G1 X143.419 Y129.32 E3.56479
G1 X142.853 Y130.024 E3.59484
G1 X142.228 Y130.675 E3.62485
G1 X141.547 Y131.269 E3.65491
G1 X140.816 Y131.8 E3.68496
G1 X140.042 Y132.264 E3.71497
G1 X139.229 Y132.658 E3.74502
G1 X138.385 Y132.978 E3.77504
G1 X137.515 Y133.223 E3.8051
G1 X136.628 Y133.389 E3.83512
G1 X135.477 Y133.487 E3.87354
G1 X134.87 Y133.5 E3.89373
G1 X85.375 Y133.499 E5.53994
G1 X84.677 Y133.49 E5.56316
G1 X83.776 Y133.439 E5.59318
G1 X82.882 Y133.307 E5.62323
G1 X82.004 Y133.098 E5.65325
G1 X81.147 Y132.811 E5.68331
G1 X80.32 Y132.45 E5.71332
G1 X79.527 Y132.017 E5.74338
G1 X78.776 Y131.516 E5.7734
G1 X78.072 Y130.95 E5.80345
G1 X77.421 Y130.324 E5.83348
G1 X76.828 Y129.643 E5.86352
G1 X76.298 Y128.912 E5.89355
G1 X75.834 Y128.137 E5.92359
G1 X75.44 Y127.324 E5.95364
G1 X75.12 Y126.48 E5.98366
G1 X74.876 Y125.61 E6.01372
G1 X74.71 Y124.722 E6.04376
G1 X74.613 Y123.567 E6.08231
G1 X74.6 Y122.958 E6.10257
G1 X74.601 Y97.236 E6.95809
G1 X74.61 Y96.571 E6.98021
G1 X74.662 Y95.669 E7.01026
G1 X74.794 Y94.776 E7.04028
G1 X75.004 Y93.898 E7.07031
G1 X75.291 Y93.041 E7.10037
G1 X75.653 Y92.214 E7.1304
G1 X76.086 Y91.422 E7.16042
G1 X76.588 Y90.671 E7.19046
G1 X77.155 Y89.967 E7.22053
G1 X77.781 Y89.317 E7.25054
G0 F6000 X77.518 Y89.015
G1 F1200 X78.199 Y88.422 E7.28058
G1 X78.959 Y87.87 E7.31182
G1 X79.795 Y87.371 E7.3442
G1 X80.64 Y86.964 E7.3754
G1 X81.485 Y86.644 E7.40545
G1 X82.422 Y86.382 E7.43781
G1 X83.35 Y86.21 E7.4692
G1 X84.489 Y86.114 E7.50722
G1 X85.121 Y86.1 E7.52824
G1 X134.498 Y86.1 E9.17053
G1 X135.36 Y86.112 E9.1992
G1 X136.297 Y86.168 E9.23042
G1 X137.19 Y86.3 E9.26045
G1 X138.138 Y86.528 E9.29288
G1 X138.994 Y86.816 E9.32291
G1 X139.886 Y87.206 E9.35529
G1 X140.678 Y87.641 E9.38535
G1 X141.458 Y88.161 E9.41653
G1 X142.217 Y88.773 E9.44896
G1 X142.867 Y89.4 E9.47899
G1 X143.505 Y90.135 E9.51137
G1 X144.055 Y90.896 E9.5426
G1 X144.517 Y91.672 E9.57263
G1 X144.94 Y92.549 E9.60502
G1 X145.269 Y93.427 E9.6362
G1 X145.52 Y94.332 E9.66744
G1 X145.691 Y95.259 E9.69879
G1 X145.786 Y96.389 E9.73651
G1 X145.8 Y97.03 E9.75783
G1 X145.799 Y122.695 E10.61145
G1 X145.789 Y123.44 E10.63624
G1 X145.735 Y124.377 E10.66745
G1 X145.604 Y125.271 E10.6975
G1 X145.388 Y126.184 E10.72871
G1 X145.08 Y127.108 E10.7611
G1 X144.719 Y127.936 E10.79115
G1 X144.253 Y128.79 E10.8235
G1 X143.731 Y129.571 E10.85475
G1 X143.165 Y130.275 E10.88479
G1 X142.517 Y130.952 E10.91596
G1 X141.782 Y131.593 E10.9484
G1 X141.051 Y132.124 E10.97845
G1 X140.248 Y132.607 E11.00962
G1 X139.371 Y133.032 E11.04203
G1 X138.527 Y133.352 E11.07205
G1 X137.589 Y133.616 E11.10446
G1 X136.662 Y133.788 E11.13582
G1 X135.511 Y133.886 E11.17424
G1 X134.879 Y133.9 E11.19527
G1 X85.37 Y133.899 E12.84194
G1 X84.654 Y133.889 E12.86576
G1 X83.718 Y133.835 E12.89694
G1 X82.824 Y133.703 E12.927
G1 X81.911 Y133.487 E12.9582
G1 X80.987 Y133.178 E12.99061
G1 X80.16 Y132.817 E13.02062
G1 X79.305 Y132.35 E13.05303
G1 X78.525 Y131.828 E13.08424
G1 X77.821 Y131.262 E13.11429
G1 X77.119 Y130.587 E13.14668
G1 X76.526 Y129.906 E13.17671
G1 X75.974 Y129.147 E13.20793
G1 X75.474 Y128.311 E13.24033
G1 X75.066 Y127.466 E13.27153
G1 X74.746 Y126.622 E13.30156
G1 X74.483 Y125.684 E13.33396
G1 X74.311 Y124.755 E13.36538
G1 X74.213 Y123.576 E13.40473
G1 X74.2 Y122.958 E13.42529
G1 X74.201 Y97.231 E14.28097
G1 X74.211 Y96.548 E14.30369
G1 X74.266 Y95.611 E14.33491
G1 X74.398 Y94.718 E14.36493
G1 X74.615 Y93.805 E14.39615
G1 X74.912 Y92.914 E14.42738
G1 X75.302 Y92.022 E14.45976
G1 X75.753 Y91.2 E14.49095
G1 X76.276 Y90.42 E14.52218
G1 X76.843 Y89.716 E14.55225
G1 X77.518 Y89.015 E14.58462
G0 F6000 X77.255 Y88.713
G1 F1200 X77.936 Y88.12 E14.61465
G1 X78.724 Y87.546 E14.64708
G1 X79.621 Y87.011 E14.68181
G1 X80.498 Y86.59 E14.71417
G1 X81.343 Y86.27 E14.74422
G1 X82.349 Y85.989 E14.77896
G1 X83.316 Y85.811 E14.81166
G1 X84.455 Y85.715 E14.84968
G1 X85.112 Y85.7 E14.87154
G1 X134.504 Y85.7 E16.51432
G1 X135.384 Y85.713 E16.5436
G1 X136.355 Y85.772 E16.57595
G1 X137.284 Y85.911 E16.60719
G1 X138.232 Y86.139 E16.63962
G1 X139.154 Y86.449 E16.67198
G1 X140.079 Y86.855 E16.70558
G1 X140.871 Y87.29 E16.73563
G1 X141.68 Y87.828 E16.76794
G1 X142.495 Y88.485 E16.80276
G1 X143.145 Y89.112 E16.8328
G1 X143.807 Y89.873 E16.86635
G1 X144.399 Y90.691 E16.89993
G1 X144.861 Y91.467 E16.92997
G1 X145.315 Y92.409 E16.96475
G1 X145.644 Y93.287 E16.99593
G1 X145.913 Y94.259 E17.02948
G1 X146.09 Y95.225 E17.06214
G1 X146.185 Y96.355 E17.09986
G1 X146.2 Y97.03 E17.12232
G1 X146.199 Y122.7 E17.9761
G1 X146.188 Y123.463 E18.00148
G1 X146.131 Y124.435 E18.03387
G1 X146 Y125.329 E18.06392
G1 X145.777 Y126.276 E18.09628
G1 X145.447 Y127.268 E18.13105
G1 X145.086 Y128.096 E18.16109
G1 X144.586 Y129.012 E18.1958
G1 X144.043 Y129.822 E18.22824
G1 X143.477 Y130.526 E18.25828
G1 X142.806 Y131.229 E18.2906
G1 X142.017 Y131.917 E18.32542
G1 X141.286 Y132.448 E18.35547
G1 X140.454 Y132.95 E18.38779
G1 X139.513 Y133.406 E18.42257
G1 X138.669 Y133.726 E18.45259
G1 X137.697 Y134.001 E18.48619
G1 X136.696 Y134.187 E18.52005
G1 X135.545 Y134.285 E18.55848
G1 X134.888 Y134.3 E18.58033
G1 X85.364 Y134.299 E20.22751
G1 X84.631 Y134.288 E20.25189
G1 X83.66 Y134.231 E20.28424
G1 X82.766 Y134.099 E20.3143
G1 X81.784 Y133.866 E20.34787
G1 X80.827 Y133.545 E20.38144
G1 X80 Y133.184 E20.41145
G1 X79.113 Y132.701 E20.44504
G1 X78.274 Y132.14 E20.47861
G1 X77.57 Y131.574 E20.50866
G1 X76.817 Y130.85 E20.5434
G1 X76.224 Y130.169 E20.57343
G1 X75.631 Y129.352 E20.60701
G1 X75.114 Y128.485 E20.64059
G1 X74.692 Y127.608 E20.67296
G1 X74.372 Y126.764 E20.70298
G1 X74.098 Y125.792 E20.73657
G1 X73.912 Y124.788 E20.77053
G1 X73.814 Y123.609 E20.80988
G1 X73.8 Y122.958 E20.83153
G1 X73.801 Y97.225 E21.68742
G1 X73.812 Y96.525 E21.7107
G1 X73.87 Y95.553 E21.74309
G1 X74.002 Y94.66 E21.77311
G1 X74.226 Y93.713 E21.80548
G1 X74.545 Y92.754 E21.83909
G1 X74.935 Y91.862 E21.87147
G1 X75.402 Y91.008 E21.90385
G1 X75.964 Y90.169 E21.93743
G1 X76.531 Y89.465 E21.9675
G1 X77.255 Y88.713 E22.00222
G1 F2700 E17.00222
;MESH:hoop.stl
G0 F6000 X88.249 Y100.149
G0 X110 Y119.9
;TYPE:WALL-INNER
G1 F2700 E22.00222
G1 F1200 X110 Y120.3 E22.01552
G1 X109.92 Y120.6 E22.02585
G1 X109.72 Y120.809 E22.03547
G1 X109.483 Y120.9 E22.04391
G1 X97.4 Y120.9 E22.4458
G1 X97.08 Y120.809 E22.45686
G1 X96.88 Y120.601 E22.46646
G1 X96.8 Y120.3 E22.47682
G1 X96.8 Y119.9 E22.49012
G1 X88.8 Y119.9 E22.7562
G1 X88.561 Y119.851 E22.76432
G1 X88.375 Y119.725 E22.77179
G1 X88.249 Y119.539 E22.77926
G1 X88.2 Y119.378 E22.78486
G1 X88.2 Y100.7 E23.40609
G1 X88.249 Y100.461 E23.41421
G1 X88.375 Y100.275 E23.42168
G1 X88.561 Y100.149 E23.42915
G1 X88.722 Y100.1 E23.43475
G1 X131.2 Y100.1 E24.84757
G1 X131.439 Y100.149 E24.85569
G1 X131.625 Y100.275 E24.86316
G1 X131.752 Y100.461 E24.87065
G1 X131.8 Y100.7 E24.87876
G1 X131.8 Y119.377 E25.49996
G1 X131.752 Y119.539 E25.50558
G1 X131.625 Y119.725 E25.51307
G1 X131.439 Y119.851 E25.52054
G1 X131.278 Y119.9 E25.52614
G1 X110 Y119.9 E26.23385
G1 F2700 E21.23385
G0 F6000 X131.301 Y120.081
G0 X131.301 Y122.5
G0 X134.6 Y122.7
G1 F2700 E26.23385
G1 F1200 X134.6 Y97.3 E27.07865
G1 X85.4 Y97.3 E28.71505
G1 X85.4 Y122.7 E29.55986
G1 X134.6 Y122.7 E31.19626
G0 F6000 X135 Y123.1
;TYPE:WALL-OUTER
G1 F1200 X135 Y96.9 E32.06768
G1 X85 Y96.9 E33.73068
G1 X85 Y123.1 E34.6021
G1 X135 Y123.1 E36.2651
G1 F2700 E31.2651
G0 F6000 X134.73 Y122.83
G0 X109.9 Y122.5
G0 X109.507 Y121.081
G0 X109.6 Y120.382
G1 F2700 E36.2651
G1 F1200 X109.435 Y120.498 E36.27181
G1 X97.4 Y120.5 E36.6721
G1 X97.293 Y120.47 E36.67579
G1 X97.2 Y120.374 E36.68024
G1 X97.2 Y119.5 E36.70931
G1 X88.8 Y119.5 E36.98869
G1 X88.658 Y119.442 E36.9938
G1 X88.602 Y119.335 E36.99781
G1 X88.6 Y100.7 E37.61762
G1 X88.658 Y100.558 E37.62272
G1 X88.765 Y100.502 E37.62673
G1 X131.264 Y100.5 E39.04026
G1 X131.4 Y100.636 E39.04665
G1 X131.398 Y119.335 E39.66858
G1 X131.342 Y119.442 E39.6726
G1 X131.235 Y119.498 E39.67662
G1 X109.6 Y119.5 E40.3962
G1 X109.6 Y120.382 E40.42554
G1 F2700 E35.42554
G0 F6000 X109.9 Y120.382
G0 X110.172 Y120.072
G0 X131.301 Y120.081
G0 X134.4 Y120.081
G0 X134.24 Y122.34
;TYPE:SKIN
G1 F2700 E40.42554
G1 F1200 X85.76 Y122.34 E42.03799
G1 X85.76 Y97.66 E42.85885
G1 X134.24 Y97.66 E44.4713
G1 X134.24 Y122.34 E45.29216
G1 F2700 E40.29216
G0 F6000 X134.5 Y122.34
G0 X134.4 Y120.895
G0 X110.076 Y120.691
G0 X109.918 Y121.116
G1 F2700 E45.29216
G1 F1200 X110.237 Y120.784 E45.30747
G1 X110.377 Y120.26 E45.32551
G1 X131.332 Y120.258 E46.02248
G1 X131.611 Y120.166 E46.03225
G1 X131.879 Y119.979 E46.04312
G1 X132.066 Y119.711 E46.05399
G1 X132.158 Y119.432 E46.06376
G1 X132.16 Y100.701 E46.68676
G1 X132.086 Y100.316 E46.69979
G1 X131.881 Y100.022 E46.71172
G1 X131.579 Y99.812 E46.72395
G1 X131.239 Y99.743 E46.73549
G1 X88.668 Y99.742 E48.15141
G1 X88.389 Y99.834 E48.16118
G1 X88.121 Y100.021 E48.17205
G1 X87.912 Y100.32 E48.18418
G1 X87.843 Y100.661 E48.19575
G1 X87.842 Y119.432 E48.82008
G1 X87.934 Y119.711 E48.82985
G1 X88.121 Y119.979 E48.84072
G1 X88.42 Y120.188 E48.85285
G1 X88.761 Y120.257 E48.86442
G1 X96.424 Y120.26 E49.11929
G1 X96.561 Y120.783 E49.13728
G1 X96.89 Y121.121 E49.15297
G1 X97.372 Y121.26 E49.16965
G1 X109.54 Y121.258 E49.57436
G1 X109.918 Y121.116 E49.58779
G1 F2700 E44.58779
G0 F6000 X109.772 Y120.895
G0 X97.402 Y121.081
G0 X97.402 Y122.5
G0 X86.501 Y122.139
G1 F2700 E49.58779
G1 F1200 X85.959 Y121.597 E49.61328
G0 F6000 X85.959 Y121.031
G1 F1200 X87.066 Y122.139 E49.66538
G0 F6000 X87.632 Y122.139
G1 F1200 X85.959 Y120.466 E49.74407
G0 F6000 X85.959 Y119.9
G1 F1200 X88.198 Y122.139 E49.84939
G0 F6000 X88.763 Y122.139
G1 F1200 X85.959 Y119.334 E49.9813
G0 F6000 X85.959 Y118.769
G1 F1200 X89.329 Y122.139 E50.13981
G0 F6000 X89.895 Y122.139
G1 F1200 X85.959 Y118.203 E50.32495
G0 F6000 X85.959 Y117.637
G1 F1200 X87.645 Y119.323 E50.40426
G0 F6000 X87.645 Y118.757
G1 F1200 X85.959 Y117.072 E50.48354
G0 F6000 X85.959 Y116.506
G1 F1200 X87.645 Y118.192 E50.56284
G0 F6000 X87.645 Y117.626
G1 F1200 X85.959 Y115.94 E50.64215
G0 F6000 X85.959 Y115.375
G1 F1200 X87.645 Y117.06 E50.72143
G0 F6000 X87.644 Y116.494
G1 F1200 X85.959 Y114.809 E50.80068
G0 F6000 X85.959 Y114.243
G1 F1200 X87.644 Y115.928 E50.87994
G0 F6000 X87.644 Y115.363
G1 F1200 X85.959 Y113.678 E50.9592
G0 F6000 X85.959 Y113.112
G1 F1200 X87.644 Y114.797 E51.03846
G0 F6000 X87.644 Y114.231
G1 F1200 X85.959 Y112.546 E51.11771
G0 F6000 X85.959 Y111.98
G1 F1200 X87.643 Y113.665 E51.19695
G0 F6000 X87.643 Y113.099
G1 F1200 X85.959 Y111.415 E51.27616
G0 F6000 X85.959 Y110.849
G1 F1200 X87.643 Y112.533 E51.35537
G0 F6000 X87.643 Y111.968
G1 F1200 X85.959 Y110.283 E51.4346
G0 F6000 X85.959 Y109.718
G1 F1200 X87.643 Y111.401 E51.51379
G0 F6000 X87.643 Y110.836
G1 F1200 X85.959 Y109.152 E51.593
G0 F6000 X85.959 Y108.586
G1 F1200 X87.643 Y110.27 E51.67221
G0 F6000 X87.643 Y109.704
G1 F1200 X85.959 Y108.021 E51.75139
G0 F6000 X85.959 Y107.455
G1 F1200 X87.643 Y109.139 E51.8306
G0 F6000 X87.642 Y108.572
G1 F1200 X85.959 Y106.889 E51.90977
G0 F6000 X85.959 Y106.324
G1 F1200 X87.642 Y108.007 E51.98893
G0 F6000 X87.642 Y107.441
G1 F1200 X85.959 Y105.758 E52.06809
G0 F6000 X85.959 Y105.192
G1 F1200 X87.642 Y106.875 E52.14726
G0 F6000 X87.642 Y106.309
G1 F1200 X85.959 Y104.627 E52.2264
G0 F6000 X85.959 Y104.061
G1 F1200 X87.641 Y105.743 E52.30551
G0 F6000 X87.641 Y105.177
G1 F1200 X85.959 Y103.495 E52.38463
G0 F6000 X85.959 Y102.929
G1 F1200 X87.641 Y104.612 E52.46377
G0 F6000 X87.641 Y104.046
G1 F1200 X85.959 Y102.364 E52.54288
G0 F6000 X85.959 Y101.798
G1 F1200 X87.641 Y103.48 E52.622
G0 F6000 X87.64 Y102.914
G1 F1200 X85.959 Y101.232 E52.70109
G0 F6000 X85.959 Y100.667
G1 F1200 X87.64 Y102.348 E52.78016
G0 F6000 X87.64 Y101.783
G1 F1200 X85.959 Y100.101 E52.85926
G0 F6000 X85.959 Y99.535
G1 F1200 X87.64 Y101.217 E52.93835
G0 F6000 X87.641 Y100.652
G1 F1200 X85.959 Y98.97 E53.01746
G0 F6000 X85.959 Y98.404
G1 F1200 X87.752 Y100.197 E53.1018
G0 F6000 X87.99 Y99.869
G1 F1200 X85.98 Y97.86 E53.19632
G0 F6000 X86.546 Y97.86
G1 F1200 X88.321 Y99.635 E53.27981
G0 F6000 X88.795 Y99.543
G1 F1200 X87.112 Y97.86 E53.35898
G0 F6000 X87.677 Y97.86
G1 F1200 X89.361 Y99.543 E53.43816
G0 F6000 X89.927 Y99.543
G1 F1200 X88.243 Y97.86 E53.51735
G0 F6000 X88.809 Y97.86
G1 F1200 X90.492 Y99.543 E53.59651
G0 F6000 X91.058 Y99.543
G1 F1200 X89.374 Y97.86 E53.6757
G0 F6000 X89.94 Y97.86
G1 F1200 X91.624 Y99.543 E53.75489
G0 F6000 X92.189 Y99.543
G1 F1200 X90.506 Y97.86 E53.83405
G0 F6000 X91.071 Y97.86
G1 F1200 X92.755 Y99.543 E53.91324
G0 F6000 X93.321 Y99.543
G1 F1200 X91.637 Y97.86 E53.99242
G0 F6000 X92.203 Y97.86
G1 F1200 X93.886 Y99.543 E54.07159
G0 F6000 X94.452 Y99.543
G1 F1200 X92.768 Y97.86 E54.15077
G0 F6000 X93.334 Y97.86
G1 F1200 X95.018 Y99.543 E54.22996
G0 F6000 X95.583 Y99.543
G1 F1200 X93.9 Y97.86 E54.30912
G0 F6000 X94.465 Y97.86
G1 F1200 X96.148 Y99.542 E54.38826
G0 F6000 X96.714 Y99.542
G1 F1200 X95.031 Y97.86 E54.4674
G0 F6000 X95.597 Y97.86
G1 F1200 X97.28 Y99.542 E54.54654
G0 F6000 X97.845 Y99.542
G1 F1200 X96.162 Y97.86 E54.62568
G0 F6000 X96.728 Y97.86
G1 F1200 X98.411 Y99.542 E54.70482
G0 F6000 X98.977 Y99.542
G1 F1200 X97.294 Y97.86 E54.78396
G0 F6000 X97.86 Y97.86
G1 F1200 X99.542 Y99.542 E54.86308
G0 F6000 X100.108 Y99.542
G1 F1200 X98.425 Y97.86 E54.94222
G0 F6000 X98.991 Y97.86
G1 F1200 X100.674 Y99.542 E55.02135
G0 F6000 X101.24 Y99.542
G1 F1200 X99.557 Y97.86 E55.10049
G0 F6000 X100.122 Y97.86
G1 F1200 X101.805 Y99.542 E55.17963
G0 F6000 X102.371 Y99.542
G1 F1200 X100.688 Y97.86 E55.25877
G0 F6000 X101.254 Y97.86
G1 F1200 X102.936 Y99.542 E55.33789
G0 F6000 X103.502 Y99.542
G1 F1200 X101.819 Y97.86 E55.41703
G0 F6000 X102.385 Y97.86
G1 F1200 X104.067 Y99.542 E55.49615
G0 F6000 X104.633 Y99.542
G1 F1200 X102.951 Y97.86 E55.57526
G0 F6000 X103.516 Y97.86
G1 F1200 X105.199 Y99.542 E55.6544
G0 F6000 X105.764 Y99.542
G1 F1200 X104.082 Y97.86 E55.73352
G0 F6000 X104.648 Y97.86
G1 F1200 X106.33 Y99.542 E55.81263
G0 F6000 X106.896 Y99.542
G1 F1200 X105.213 Y97.86 E55.89177
